;FLAVOR:Marlin
;TIME:3937
;Filament used: 3.97032m
;Layer height: 0.2
;MINX:74.742
;MINY:74.742
;MINZ:0.2
;MAXX:135.26
;MAXY:135.258
;MAXZ:13.075
;TARGET_MACHINE.NAME:Anycubic i3 Mega
;Generated with Cura_SteamEngine 5.7.2
M140 S60
M105
M190 S60
M104 S210
M105
M109 S210
M82 ;absolute extrusion mode
G21 ;metric values
G90 ;absolute positioning
M82 ;set extruder to absolute mode
M107 ;start with the fan off
G28 X0 Y0 ;move X/Y to min endstops
G28 Z0 ;move Z to min endstops
G1 Z15.0 F100 ;move the platform down 15mm
G92 E0 ;zero the extruded length
G1 F200 E3 ;extrude 3mm of feed stock
G92 E0 ;zero the extruded length again
G1 F100
G0 Y20 F100
M117 Printing...
G5
G92 E0
G92 E0
G1 F2400 E-6
;LAYER_COUNT:65
;LAYER:0
M107
M204 S3000
M205 X10 Y10
G1 F600 Z0.275
G0 F3000 X83.385 Y83.827 Z0.275
M204 S1800
M205 X8 Y8
;TYPE:SKIRT
G1 F600 Z0.2
G1 F2400 E0
G1 X84.414 Y82.825 E0.06688
G1 X85.354 Y81.988 E0.12549
G1 X86.308 Y81.206 E0.18292
G1 X86.758 Y80.859 E0.20939
G1 X87.681 Y80.189 E0.26249
G1 X88.798 Y79.445 E0.32499
G1 X89.257 Y79.161 E0.35012
G1 X90.336 Y78.534 E0.40823
G1 X91.632 Y77.849 E0.47649
G1 X92.91 Y77.263 E0.54195
G1 X94.156 Y76.752 E0.60466
G1 X94.692 Y76.555 E0.63125
G1 X96.006 Y76.111 E0.69584
G1 X97.274 Y75.74 E0.75736
G1 X98.958 Y75.35 E0.83785
G1 X99.899 Y75.175 E0.88241
G1 X101.467 Y74.948 E0.95619
G1 X102.081 Y74.885 E0.98493
G1 X103.565 Y74.776 E1.05422
G1 X105 Y74.742 E1.12105
G1 X106.136 Y74.764 E1.17396
G1 X107.602 Y74.854 E1.24235
G1 X108.811 Y74.982 E1.29896
G1 X109.54 Y75.084 E1.33324
G1 X110.386 Y75.224 E1.37317
G1 X111.03 Y75.348 E1.40371
G1 X112.118 Y75.591 E1.45562
G1 X113.387 Y75.928 E1.51675
G1 X113.976 Y76.106 E1.54541
G1 X115.106 Y76.482 E1.60086
G1 X116.261 Y76.916 E1.65831
G1 X116.822 Y77.148 E1.68658
G1 X118.109 Y77.729 E1.75233
G1 X118.929 Y78.138 E1.795
G1 X119.486 Y78.434 E1.82437
G1 X120.196 Y78.835 E1.86234
G1 X120.815 Y79.205 E1.89592
G1 X121.794 Y79.831 E1.95003
G1 X122.994 Y80.675 E2.01834
G1 X123.894 Y81.367 E2.07121
G1 X124.452 Y81.825 E2.10482
G1 X125.318 Y82.579 E2.15829
G1 X126.42 Y83.629 E2.22917
G1 X127.197 Y84.438 E2.2814
G1 X127.614 Y84.898 E2.31031
G1 X128.651 Y86.13 E2.38529
G1 X129.45 Y87.178 E2.44666
G1 X130.122 Y88.136 E2.50115
G1 X130.435 Y88.61 E2.5276
G1 X131.016 Y89.549 E2.57901
G1 X131.586 Y90.553 E2.63277
G1 X131.931 Y91.206 E2.66716
G1 X132.396 Y92.153 E2.71629
G1 X133.008 Y93.555 E2.78752
G1 X133.457 Y94.718 E2.84557
G1 X133.7 Y95.421 E2.8802
G1 X134.144 Y96.866 E2.95059
G1 X134.489 Y98.219 E3.01561
G1 X134.73 Y99.374 E3.07055
G1 X134.969 Y100.832 E3.13935
G1 X135.113 Y102.041 E3.19604
G1 X135.174 Y102.751 E3.22922
G1 X135.236 Y103.856 E3.28076
G1 X135.26 Y105.43 E3.35406
G1 X135.194 Y106.971 E3.42588
G1 X135.066 Y108.464 E3.49565
G1 X134.89 Y109.711 E3.5543
G1 X134.797 Y110.261 E3.58027
G1 X134.57 Y111.418 E3.63517
G1 X134.303 Y112.535 E3.68865
G1 X134.159 Y113.078 E3.71481
G1 X133.8 Y114.274 E3.77295
G1 X133.287 Y115.76 E3.84615
G1 X132.735 Y117.094 E3.91338
G1 X132.113 Y118.432 E3.98208
G1 X131.516 Y119.576 E4.04217
G1 X131.157 Y120.21 E4.0761
G1 X130.404 Y121.438 E4.14317
G1 X129.859 Y122.251 E4.18875
G1 X129.545 Y122.692 E4.21396
G1 X128.817 Y123.661 E4.27039
G1 X127.937 Y124.733 E4.33497
G1 X127.005 Y125.77 E4.3999
G1 X126.628 Y126.16 E4.42515
G1 X125.601 Y127.162 E4.49197
G1 X124.753 Y127.92 E4.54493
G1 X123.508 Y128.944 E4.61999
G1 X122.278 Y129.84 E4.69085
G1 X121.131 Y130.598 E4.75487
G1 X119.927 Y131.318 E4.82019
G1 X119.409 Y131.604 E4.84774
G1 X118.144 Y132.253 E4.91395
G1 X117.26 Y132.662 E4.9593
G1 X116.727 Y132.892 E4.98633
G1 X115.699 Y133.302 E5.03787
G1 X114.202 Y133.83 E5.11178
G1 X112.488 Y134.316 E5.19474
G1 X111.512 Y134.548 E5.24145
G1 X110.947 Y134.666 E5.26833
G1 X109.778 Y134.877 E5.32364
G1 X108.677 Y135.034 E5.37543
G1 X107.919 Y135.117 E5.41093
G1 X106.443 Y135.223 E5.47984
G1 X105.007 Y135.258 E5.54673
G1 X104.129 Y135.247 E5.58761
G1 X103.468 Y135.22 E5.61842
G1 X102.249 Y135.137 E5.67531
G1 X100.452 Y134.914 E5.75963
G1 X99.033 Y134.664 E5.82672
G1 X97.739 Y134.374 E5.88847
G1 X96.606 Y134.07 E5.94309
G1 X96.022 Y133.893 E5.97151
G1 X94.7 Y133.45 E6.03643
G1 X93.74 Y133.084 E6.08427
G1 X93.226 Y132.872 E6.11016
G1 X92.141 Y132.396 E6.16533
G1 X90.548 Y131.585 E6.24857
G1 X89.706 Y131.109 E6.2936
G1 X89.145 Y130.77 E6.32413
G1 X88.001 Y130.032 E6.38752
G1 X86.964 Y129.301 E6.4466
G1 X85.973 Y128.526 E6.50518
G1 X85.482 Y128.12 E6.53484
G1 X84.443 Y127.202 E6.5994
G1 X83.785 Y126.575 E6.64172
G1 X83.405 Y126.192 E6.66685
G1 X82.31 Y125.015 E6.7417
G1 X81.298 Y123.806 E6.81512
G1 X80.413 Y122.631 E6.88361
G1 X79.589 Y121.426 E6.95159
G1 X79.137 Y120.705 E6.99121
G1 X78.787 Y120.111 E7.02332
G1 X78.219 Y119.082 E7.07805
G1 X77.577 Y117.802 E7.14473
G1 X76.983 Y116.424 E7.2146
G1 X76.402 Y114.905 E7.29033
G1 X76.009 Y113.663 E7.35099
G1 X75.855 Y113.126 E7.377
G1 X75.553 Y111.959 E7.43313
G1 X75.268 Y110.618 E7.49697
G1 X75.033 Y109.187 E7.56449
G1 X74.841 Y107.514 E7.64291
G1 X74.77 Y106.321 E7.69855
G1 X74.742 Y104.926 E7.76352
G1 X74.753 Y104.21 E7.79687
G1 X74.827 Y102.74 E7.8654
G1 X74.941 Y101.538 E7.92163
G1 X75.136 Y100.132 E7.98772
G1 X75.356 Y98.939 E8.04421
G1 X75.51 Y98.229 E8.07804
G1 X75.858 Y96.855 E8.14404
G1 X76.122 Y95.968 E8.18713
G1 X76.328 Y95.331 E8.21831
G1 X76.716 Y94.236 E8.2724
G1 X77.167 Y93.133 E8.32789
G1 X77.449 Y92.492 E8.3605
G1 X78.059 Y91.225 E8.42597
G1 X78.537 Y90.328 E8.4733
G1 X78.85 Y89.779 E8.50273
G1 X79.617 Y88.529 E8.57102
G1 X80.415 Y87.359 E8.63696
G1 X81.034 Y86.527 E8.68525
G1 X81.388 Y86.081 E8.71176
G1 X82.3 Y84.994 E8.77784
G1 X82.967 Y84.26 E8.82402
G1 X83.385 Y83.827 E8.85204
M204 S3000
M205 X10 Y10
G0 F3000 X83.776 Y84.228
M204 S1800
M205 X8 Y8
G1 F2400 X84.805 Y83.226 E8.91892
G1 X85.709 Y82.421 E8.97528
G1 X86.65 Y81.649 E9.03196
G1 X87.087 Y81.312 E9.05766
G1 X87.991 Y80.655 E9.10969
G1 X89.093 Y79.921 E9.17135
G1 X89.538 Y79.645 E9.19573
G1 X90.598 Y79.029 E9.25282
G1 X91.894 Y78.344 E9.32108
G1 X93.122 Y77.781 E9.38398
G1 X94.349 Y77.278 E9.44573
G1 X94.871 Y77.086 E9.47163
G1 X96.185 Y76.642 E9.53621
G1 X97.4 Y76.286 E9.59517
G1 X99.084 Y75.896 E9.67565
G1 X99.979 Y75.729 E9.71805
G1 X101.525 Y75.505 E9.79079
G1 X102.122 Y75.443 E9.81874
G1 X103.578 Y75.336 E9.88672
G1 X104.989 Y75.302 E9.95244
G1 X106.102 Y75.323 E10.00427
G1 X107.543 Y75.411 E10.0715
G1 X108.734 Y75.537 E10.12727
G1 X109.448 Y75.636 E10.16083
G1 X110.28 Y75.774 E10.2001
G1 X110.908 Y75.895 E10.22988
G1 X111.996 Y76.138 E10.28179
G1 X113.225 Y76.464 E10.341
G1 X113.799 Y76.637 E10.36891
G1 X114.909 Y77.006 E10.42338
G1 X116.047 Y77.434 E10.47999
G1 X116.592 Y77.659 E10.50745
G1 X117.859 Y78.23 E10.57216
G1 X118.666 Y78.632 E10.61414
G1 X119.211 Y78.922 E10.64289
G1 X119.909 Y79.316 E10.68021
G1 X120.513 Y79.677 E10.71298
G1 X121.492 Y80.303 E10.76709
G1 X122.653 Y81.119 E10.83316
G1 X123.539 Y81.8 E10.8852
G1 X124.084 Y82.247 E10.91802
G1 X124.932 Y82.985 E10.97037
G1 X126.016 Y84.017 E11.04006
G1 X126.782 Y84.814 E11.09153
G1 X127.186 Y85.259 E11.11952
G1 X128.223 Y86.491 E11.1945
G1 X128.992 Y87.5 E11.25357
G1 X129.655 Y88.445 E11.30733
G1 X129.959 Y88.905 E11.333
G1 X130.529 Y89.825 E11.3834
G1 X131.091 Y90.815 E11.4364
G1 X131.428 Y91.453 E11.47
G1 X131.893 Y92.4 E11.51913
G1 X132.486 Y93.757 E11.58809
G1 X132.928 Y94.902 E11.64524
G1 X133.165 Y95.585 E11.6789
G1 X133.601 Y97.004 E11.74802
G1 X133.946 Y98.357 E11.81304
G1 X134.177 Y99.465 E11.86574
G1 X134.416 Y100.923 E11.93454
G1 X134.555 Y102.089 E11.98922
G1 X134.615 Y102.783 E12.02165
G1 X134.676 Y103.865 E12.07212
G1 X134.7 Y105.439 E12.14542
G1 X134.636 Y106.923 E12.21458
G1 X134.511 Y108.386 E12.28295
G1 X134.335 Y109.633 E12.34159
G1 X134.248 Y110.153 E12.36614
G1 X134.025 Y111.288 E12.42001
G1 X133.762 Y112.392 E12.47285
G1 X133.623 Y112.917 E12.49814
G1 X133.271 Y114.091 E12.55521
G1 X132.769 Y115.546 E12.62688
G1 X132.227 Y116.858 E12.69298
G1 X131.605 Y118.196 E12.76169
G1 X131.028 Y119.301 E12.81973
G1 X130.68 Y119.917 E12.85268
G1 X129.939 Y121.126 E12.9187
G1 X129.403 Y121.926 E12.96354
G1 X129.097 Y122.356 E12.98812
G1 X128.384 Y123.306 E13.04343
G1 X127.52 Y124.359 E13.10685
G1 X126.602 Y125.381 E13.17082
G1 X126.237 Y125.759 E13.19529
G1 X125.21 Y126.761 E13.2621
G1 X124.397 Y127.488 E13.31289
G1 X123.178 Y128.491 E13.38639
G1 X121.948 Y129.387 E13.45725
G1 X120.843 Y130.118 E13.51894
G1 X119.657 Y130.828 E13.58331
G1 X119.153 Y131.106 E13.61011
G1 X117.909 Y131.745 E13.67523
G1 X117.038 Y132.148 E13.71992
G1 X116.52 Y132.372 E13.7462
G1 X115.512 Y132.774 E13.79673
G1 X114.049 Y133.291 E13.86898
G1 X112.358 Y133.771 E13.95083
G1 X111.398 Y134 E13.99679
G1 X110.847 Y134.115 E14.023
G1 X109.699 Y134.323 E14.07732
G1 X108.616 Y134.477 E14.12826
G1 X107.879 Y134.558 E14.16278
G1 X106.429 Y134.663 E14.23048
G1 X105.014 Y134.698 E14.29639
G1 X104.152 Y134.687 E14.33653
G1 X103.506 Y134.661 E14.36663
G1 X102.318 Y134.581 E14.42208
G1 X100.549 Y134.362 E14.50508
G1 X99.13 Y134.112 E14.57217
G1 X97.884 Y133.833 E14.63163
G1 X96.768 Y133.534 E14.68543
G1 X96.2 Y133.362 E14.71306
G1 X94.878 Y132.919 E14.77798
G1 X93.954 Y132.567 E14.82402
G1 X93.451 Y132.359 E14.84937
G1 X92.366 Y131.883 E14.90454
G1 X90.823 Y131.097 E14.98517
G1 X89.996 Y130.63 E15.0294
G1 X89.449 Y130.299 E15.05917
G1 X88.305 Y129.561 E15.12256
G1 X87.309 Y128.86 E15.17927
G1 X86.33 Y128.095 E15.23713
G1 X85.853 Y127.7 E15.26596
G1 X84.829 Y126.796 E15.32957
G1 X84.182 Y126.18 E15.37117
G1 X83.815 Y125.811 E15.3954
G1 X82.72 Y124.634 E15.47026
G1 X81.745 Y123.469 E15.54099
G1 X80.875 Y122.315 E15.60829
G1 X80.063 Y121.128 E15.67526
G1 X79.619 Y120.42 E15.71417
G1 X79.277 Y119.841 E15.74548
G1 X78.72 Y118.831 E15.79919
G1 X78.078 Y117.551 E15.86587
G1 X77.506 Y116.224 E15.93316
G1 X76.936 Y114.736 E16.00735
G1 X76.547 Y113.509 E16.06729
G1 X76.397 Y112.986 E16.09262
G1 X76.101 Y111.842 E16.14765
G1 X75.821 Y110.527 E16.21025
G1 X75.586 Y109.096 E16.27778
G1 X75.4 Y107.481 E16.35348
G1 X75.33 Y106.31 E16.4081
G1 X75.302 Y104.934 E16.47219
G1 X75.312 Y104.238 E16.5046
G1 X75.384 Y102.793 E16.57197
G1 X75.496 Y101.615 E16.62707
G1 X75.687 Y100.233 E16.69203
G1 X75.903 Y99.058 E16.74766
G1 X76.053 Y98.366 E16.78063
G1 X76.395 Y97.015 E16.84552
G1 X76.655 Y96.14 E16.88803
G1 X76.856 Y95.518 E16.91847
G1 X77.244 Y94.423 E16.97256
G1 X77.679 Y93.359 E17.02608
G1 X77.954 Y92.735 E17.05784
G1 X78.564 Y91.468 E17.12332
G1 X79.023 Y90.605 E17.16883
G1 X79.327 Y90.072 E17.1974
G1 X80.08 Y88.845 E17.26444
G1 X80.878 Y87.675 E17.33038
G1 X81.473 Y86.875 E17.37681
G1 X81.817 Y86.441 E17.40259
G1 X82.714 Y85.371 E17.46761
G1 X83.37 Y84.649 E17.51303
G1 X83.776 Y84.228 E17.54027
M204 S3000
M205 X10 Y10
G0 F3000 X84.167 Y84.629
M204 S1800
M205 X8 Y8
G1 F2400 X85.196 Y83.627 E17.60715
G1 X86.064 Y82.854 E17.66127
G1 X86.992 Y82.092 E17.71718
G1 X87.416 Y81.765 E17.74211
G1 X88.302 Y81.121 E17.79312
G1 X89.388 Y80.397 E17.85389
G1 X89.82 Y80.129 E17.87756
G1 X90.86 Y79.524 E17.93359
G1 X92.128 Y78.853 E18.00039
G1 X93.335 Y78.299 E18.06223
G1 X94.543 Y77.803 E18.12304
G1 X95.05 Y77.616 E18.1482
G1 X96.342 Y77.179 E18.21171
G1 X97.526 Y76.832 E18.26916
G1 X99.21 Y76.442 E18.34965
G1 X100.059 Y76.283 E18.38987
G1 X101.584 Y76.062 E18.46162
G1 X102.163 Y76.001 E18.48873
G1 X103.592 Y75.896 E18.55545
G1 X104.979 Y75.862 E18.62005
G1 X106.068 Y75.882 E18.67077
G1 X107.484 Y75.968 E18.73683
G1 X108.658 Y76.092 E18.7918
G1 X109.356 Y76.188 E18.82461
G1 X110.174 Y76.324 E18.86322
G1 X110.786 Y76.442 E18.89224
G1 X111.874 Y76.685 E18.94415
G1 X113.063 Y77 E19.00143
G1 X113.623 Y77.169 E19.02866
G1 X114.712 Y77.53 E19.08209
G1 X115.833 Y77.951 E19.13784
G1 X116.362 Y78.17 E19.1645
G1 X117.609 Y78.731 E19.22817
G1 X118.403 Y79.127 E19.26949
G1 X118.936 Y79.41 E19.29759
G1 X119.622 Y79.797 E19.33427
G1 X120.212 Y80.149 E19.36626
G1 X121.17 Y80.761 E19.41919
G1 X122.312 Y81.563 E19.48417
G1 X123.184 Y82.233 E19.53537
G1 X123.717 Y82.67 E19.56747
G1 X124.546 Y83.391 E19.61863
G1 X125.612 Y84.405 E19.68713
G1 X126.378 Y85.202 E19.73861
G1 X126.758 Y85.62 E19.76491
G1 X127.795 Y86.852 E19.8399
G1 X128.534 Y87.822 E19.89668
G1 X129.188 Y88.753 E19.94966
G1 X129.483 Y89.2 E19.9746
G1 X130.042 Y90.102 E20.02401
G1 X130.596 Y91.076 E20.07618
G1 X130.925 Y91.7 E20.10903
G1 X131.39 Y92.647 E20.15816
G1 X131.964 Y93.959 E20.22484
G1 X132.399 Y95.086 E20.28109
G1 X132.63 Y95.75 E20.31383
G1 X133.058 Y97.142 E20.38164
G1 X133.403 Y98.495 E20.44666
G1 X133.624 Y99.556 E20.49712
G1 X133.863 Y101.014 E20.56592
G1 X133.997 Y102.138 E20.61863
G1 X134.056 Y102.815 E20.65027
G1 X134.116 Y103.874 E20.69966
G1 X134.14 Y105.448 E20.77296
G1 X134.078 Y106.875 E20.83947
G1 X133.956 Y108.308 E20.90644
G1 X133.783 Y109.54 E20.96437
G1 X133.698 Y110.045 E20.98822
G1 X133.48 Y111.159 E21.04107
G1 X133.221 Y112.249 E21.09324
G1 X133.087 Y112.756 E21.11766
G1 X132.742 Y113.908 E21.17365
G1 X132.251 Y115.332 E21.24379
G1 X131.719 Y116.622 E21.30877
G1 X131.097 Y117.96 E21.37747
G1 X130.54 Y119.026 E21.43348
G1 X130.202 Y119.625 E21.46551
G1 X129.474 Y120.814 E21.53042
G1 X128.946 Y121.602 E21.57459
G1 X128.649 Y122.02 E21.59847
G1 X127.951 Y122.951 E21.65265
G1 X127.103 Y123.985 E21.71492
G1 X126.199 Y124.992 E21.77793
G1 X125.846 Y125.358 E21.80161
G1 X124.819 Y126.36 E21.86842
G1 X124.041 Y127.056 E21.91703
G1 X122.848 Y128.038 E21.98898
G1 X121.618 Y128.934 E22.05984
G1 X120.555 Y129.638 E22.11921
G1 X119.387 Y130.338 E22.18261
G1 X118.897 Y130.608 E22.20866
G1 X117.674 Y131.237 E22.2727
G1 X116.816 Y131.634 E22.31672
G1 X116.312 Y131.852 E22.34229
G1 X115.325 Y132.246 E22.39178
G1 X113.896 Y132.752 E22.46237
G1 X112.228 Y133.226 E22.54311
G1 X111.283 Y133.452 E22.58836
G1 X110.747 Y133.564 E22.61385
G1 X109.62 Y133.769 E22.66719
G1 X108.555 Y133.92 E22.71728
G1 X107.838 Y133.999 E22.75087
G1 X106.415 Y134.103 E22.8173
G1 X105.021 Y134.138 E22.88224
G1 X104.174 Y134.127 E22.92168
G1 X103.543 Y134.102 E22.95108
G1 X102.387 Y134.025 E23.00503
G1 X100.646 Y133.81 E23.08672
G1 X99.227 Y133.56 E23.15381
G1 X98.029 Y133.292 E23.21097
G1 X96.93 Y132.998 E23.26394
G1 X96.378 Y132.831 E23.2908
G1 X95.078 Y132.396 E23.35463
G1 X94.168 Y132.049 E23.39998
G1 X93.676 Y131.846 E23.42476
G1 X92.591 Y131.37 E23.47993
G1 X91.098 Y130.609 E23.55796
G1 X90.286 Y130.151 E23.60137
G1 X89.752 Y129.828 E23.63043
G1 X88.627 Y129.103 E23.69275
G1 X87.654 Y128.419 E23.74814
G1 X86.687 Y127.664 E23.80526
G1 X86.223 Y127.28 E23.83331
G1 X85.215 Y126.391 E23.89589
G1 X84.579 Y125.785 E23.9368
G1 X84.225 Y125.43 E23.96014
G1 X83.13 Y124.253 E24.035
G1 X82.192 Y123.132 E24.10306
G1 X81.337 Y121.999 E24.16915
G1 X80.537 Y120.83 E24.23511
G1 X80.101 Y120.135 E24.27331
G1 X79.767 Y119.57 E24.30388
G1 X79.22 Y118.58 E24.35654
G1 X78.592 Y117.329 E24.42172
G1 X78.029 Y116.023 E24.48795
G1 X77.47 Y114.566 E24.56061
G1 X77.085 Y113.354 E24.61983
G1 X76.939 Y112.846 E24.64444
G1 X76.649 Y111.725 E24.69836
G1 X76.374 Y110.436 E24.75973
G1 X76.139 Y109.005 E24.82725
G1 X75.959 Y107.447 E24.90028
G1 X75.89 Y106.298 E24.95388
G1 X75.862 Y104.942 E25.01704
G1 X75.872 Y104.246 E25.04945
G1 X75.942 Y102.846 E25.11472
G1 X76.051 Y101.691 E25.16874
G1 X76.238 Y100.334 E25.23252
G1 X76.45 Y99.177 E25.2873
G1 X76.596 Y98.503 E25.31941
G1 X76.932 Y97.174 E25.38324
G1 X77.188 Y96.312 E25.42511
G1 X77.384 Y95.705 E25.45481
G1 X77.772 Y94.61 E25.50891
G1 X78.191 Y93.585 E25.56047
G1 X78.459 Y92.978 E25.59136
G1 X79.059 Y91.731 E25.6558
G1 X79.51 Y90.882 E25.70057
G1 X79.804 Y90.365 E25.72826
G1 X80.543 Y89.16 E25.79408
G1 X81.327 Y88.009 E25.85893
G1 X81.912 Y87.223 E25.90455
G1 X82.246 Y86.801 E25.92961
G1 X83.128 Y85.748 E25.99357
G1 X83.773 Y85.038 E26.03824
G1 X84.167 Y84.629 E26.06468
M204 S3000
M205 X10 Y10
G1 F2400 E20.06468
G1 F600 Z0.275
;MESH:AllignRollerPulley.stl
G0 F3000 X90.094 Y99.139 Z0.275
M204 S1800
M205 X8 Y8
;TYPE:WALL-OUTER
G1 F600 Z0.2
G1 F2400 E26.06468
G1 F1606.1 X89.818 Y99.889 E26.09944
G1 X89.659 Y100.411 E26.12317
G1 X89.153 Y100.276 E26.14594
G1 X89.313 Y99.751 E26.16981
G1 X89.606 Y98.953 E26.20678
