;FLAVOR:Marlin
;TIME:9459
;Filament used: 6.8086m
;Layer height: 0.2
;MINX:73.197
;MINY:68.551
;MINZ:0.2
;MAXX:136.4
;MAXY:141.4
;MAXZ:14.075
;TARGET_MACHINE.NAME:Anycubic i3 Mega
;Generated with Cura_SteamEngine 5.10.1
M140 S60
M105
M190 S60
M104 S210
M105
M109 S210
G21 ;metric values
G90 ;absolute positioning
M82 ;set extruder to absolute mode
M107 ;start with the fan off
G28 X0 Y0 ;move X/Y to min endstops
G28 Z0 ;move Z to min endstops
G1 Z15.0 F100 ;move the platform down 15mm
G92 E0 ;zero the extruded length
G1 F200 E3 ;extrude 3mm of feed stock
G92 E0 ;zero the extruded length again
G1 F100
G0 Y20 F100
M117 Printing...
G5
M82 ;absolute extrusion mode
G92 E0
G92 E0
G1 F2400 E-6
;LAYER_COUNT:70
;LAYER:0
M107
M204 S3000
M205 X10 Y10
G1 F600 Z0.275
G0 F3000 X75.108 Y71.131 Z0.275
M204 S1800
M205 X8 Y8
;TYPE:SKIRT
G1 F600 Z0.2
G1 F2400 E0
G1 X75.676 Y70.59 E0.03653
G1 X76.22 Y70.18 E0.06825
G1 X76.892 Y69.734 E0.1058
G1 X77.484 Y69.391 E0.13766
G1 X78.331 Y69.031 E0.18051
G1 X78.992 Y68.842 E0.21253
G1 X79.69 Y68.698 E0.24571
G1 X80.613 Y68.597 E0.28895
G1 X81.763 Y68.57 E0.34251
G1 X106.411 Y68.551 E1.49023
G1 X111.581 Y68.557 E1.73096
G1 X112.25 Y68.567 E1.76212
G1 X113.038 Y68.629 E1.79892
G1 X113.852 Y68.795 E1.83761
G1 X114.464 Y68.986 E1.86746
G1 X115.156 Y69.251 E1.90196
G1 X115.908 Y69.636 E1.9413
G1 X116.558 Y70.081 E1.97798
G1 X117.1 Y70.555 E2.01151
G1 X117.615 Y71.123 E2.04721
G1 X119.259 Y73.309 E2.17457
G1 X120.88 Y75.346 E2.29579
G1 X122.629 Y77.427 E2.42237
G1 X123.8 Y78.753 E2.50475
G1 X134.338 Y90.458 E3.23812
G1 X134.844 Y91.037 E3.27393
G1 X135.361 Y91.731 E3.31423
G1 X135.687 Y92.294 E3.34452
G1 X136.048 Y93.146 E3.38761
G1 X136.226 Y93.77 E3.41782
G1 X136.386 Y94.817 E3.46714
G1 X136.4 Y95.772 E3.51161
G1 X136.4 Y134.353 E5.30811
G1 X136.39 Y135.08 E5.34196
G1 X136.319 Y135.931 E5.38173
G1 X136.191 Y136.568 E5.41198
G1 X135.899 Y137.447 E5.45511
G1 X135.588 Y138.09 E5.48837
G1 X135.164 Y138.755 E5.52509
G1 X134.709 Y139.311 E5.55855
G1 X134.036 Y139.947 E5.60166
G1 X133.513 Y140.332 E5.6319
G1 X132.704 Y140.786 E5.6751
G1 X132.103 Y141.031 E5.70532
G1 X131.263 Y141.26 E5.74586
G1 X130.043 Y141.4 E5.80304
G1 X80.756 Y141.399 E8.09805
G1 X80.058 Y141.389 E8.13056
G1 X79.272 Y141.327 E8.16727
G1 X78.434 Y141.154 E8.20711
G1 X77.818 Y140.948 E8.23736
G1 X76.982 Y140.549 E8.28049
G1 X76.326 Y140.121 E8.31697
G1 X75.776 Y139.661 E8.35035
G1 X75.28 Y139.14 E8.38385
G1 X74.771 Y138.454 E8.42362
G1 X74.386 Y137.767 E8.46029
G1 X74.088 Y137.038 E8.49697
G1 X73.897 Y136.346 E8.53039
G1 X73.741 Y135.038 E8.59173
G1 X73.74 Y86.134 E10.86891
G1 X73.702 Y83.479 E10.99255
G1 X73.591 Y80.874 E11.11396
G1 X73.399 Y78.175 E11.23995
G1 X73.197 Y76.015 E11.34097
G1 X73.268 Y74.999 E11.38839
G1 X73.403 Y74.296 E11.42173
G1 X73.617 Y73.61 E11.45519
G1 X73.877 Y73.009 E11.48568
G1 X74.185 Y72.406 E11.51721
G1 X74.527 Y71.853 E11.54748
G1 X75.108 Y71.131 E11.59064
M204 S3000
M205 X10 Y10
G0 F3000 X75.496 Y71.535
M204 S1800
M205 X8 Y8
G1 F2400 X76.014 Y71.037 E11.6241
G1 X76.53 Y70.647 E11.65421
G1 X77.202 Y70.201 E11.69177
G1 X77.764 Y69.876 E11.722
G1 X78.486 Y69.569 E11.75853
G1 X79.107 Y69.39 E11.78863
G1 X79.751 Y69.255 E11.81927
G1 X80.674 Y69.154 E11.8625
G1 X81.763 Y69.13 E11.91322
G1 X106.41 Y69.111 E13.06089
G1 X111.573 Y69.117 E13.3013
G1 X112.242 Y69.127 E13.33245
G1 X112.993 Y69.187 E13.36754
G1 X113.685 Y69.33 E13.40044
G1 X114.297 Y69.521 E13.43029
G1 X114.955 Y69.774 E13.46312
G1 X115.594 Y70.1 E13.49652
G1 X116.189 Y70.503 E13.52998
G1 X116.731 Y70.977 E13.56351
G1 X117.198 Y71.497 E13.59606
G1 X118.821 Y73.658 E13.7219
G1 X120.451 Y75.707 E13.84382
G1 X122.201 Y77.787 E13.97039
G1 X123.384 Y79.128 E14.05366
G1 X133.916 Y90.827 E14.78664
G1 X134.422 Y91.406 E14.82245
G1 X134.876 Y92.012 E14.8577
G1 X135.202 Y92.575 E14.888
G1 X135.509 Y93.3 E14.92466
G1 X135.687 Y93.924 E14.95487
G1 X135.826 Y94.825 E14.99732
G1 X135.84 Y95.78 E15.0418
G1 X135.84 Y134.345 E16.83755
G1 X135.83 Y135.072 E16.8714
G1 X135.77 Y135.821 E16.90639
G1 X135.642 Y136.458 E16.93664
G1 X135.393 Y137.206 E16.97335
G1 X135.114 Y137.792 E17.00357
G1 X134.731 Y138.4 E17.03703
G1 X134.276 Y138.956 E17.07049
G1 X133.704 Y139.496 E17.10712
G1 X133.181 Y139.881 E17.13736
G1 X132.493 Y140.267 E17.17409
G1 X131.892 Y140.512 E17.20431
G1 X131.118 Y140.719 E17.24162
G1 X130.043 Y140.84 E17.29199
G1 X80.764 Y140.839 E19.58663
G1 X80.066 Y140.829 E19.61913
G1 X79.317 Y140.769 E19.65412
G1 X78.612 Y140.623 E19.68765
G1 X77.996 Y140.417 E19.71789
G1 X77.286 Y140.078 E19.75453
G1 X76.683 Y139.689 E19.78794
G1 X76.182 Y139.275 E19.8182
G1 X75.686 Y138.754 E19.8517
G1 X75.258 Y138.178 E19.88511
G1 X74.903 Y137.552 E19.91862
G1 X74.628 Y136.889 E19.95205
G1 X74.437 Y136.197 E19.98547
G1 X74.301 Y135.038 E20.03981
G1 X74.3 Y86.134 E22.31699
G1 X74.262 Y83.471 E22.441
G1 X74.15 Y80.834 E22.5639
G1 X73.958 Y78.135 E22.6899
G1 X73.759 Y76.007 E22.78942
G1 X73.819 Y75.102 E22.83165
G1 X73.938 Y74.463 E22.86192
G1 X74.152 Y73.777 E22.89538
G1 X74.39 Y73.234 E22.92298
G1 X74.661 Y72.701 E22.95083
G1 X75.003 Y72.148 E22.9811
G1 X75.496 Y71.535 E23.01773
M204 S3000
M205 X10 Y10
G0 F3000 X75.886 Y71.937
M204 S1800
M205 X8 Y8
G1 F2400 X76.352 Y71.484 E23.04799
G1 X76.868 Y71.094 E23.07811
G1 X77.482 Y70.686 E23.11244
G1 X78.044 Y70.361 E23.14267
G1 X78.642 Y70.107 E23.17292
G1 X79.224 Y69.938 E23.20114
G1 X79.812 Y69.812 E23.22914
G1 X80.735 Y69.711 E23.27238
G1 X81.763 Y69.69 E23.32026
G1 X106.409 Y69.671 E24.46788
G1 X111.565 Y69.677 E24.70796
G1 X112.234 Y69.687 E24.73912
G1 X112.882 Y69.736 E24.76938
G1 X113.518 Y69.865 E24.79959
G1 X114.13 Y70.056 E24.82945
G1 X114.703 Y70.274 E24.85799
G1 X115.283 Y70.566 E24.88823
G1 X115.823 Y70.927 E24.91848
G1 X116.315 Y71.352 E24.94875
G1 X116.75 Y71.834 E24.97898
G1 X118.374 Y73.994 E25.10482
G1 X120.022 Y76.068 E25.22817
G1 X121.772 Y78.148 E25.35474
G1 X122.968 Y79.503 E25.4389
G1 X133.494 Y91.196 E26.17149
G1 X134 Y91.775 E26.20729
G1 X134.391 Y92.293 E26.23751
G1 X134.717 Y92.856 E26.26781
G1 X134.97 Y93.454 E26.29804
G1 X135.148 Y94.078 E26.32826
G1 X135.266 Y94.833 E26.36384
G1 X135.28 Y95.788 E26.40831
G1 X135.28 Y134.337 E28.20332
G1 X135.27 Y135.064 E28.23717
G1 X135.221 Y135.711 E28.26738
G1 X135.093 Y136.348 E28.29764
G1 X134.887 Y136.965 E28.32793
G1 X134.608 Y137.551 E28.35815
G1 X134.259 Y138.099 E28.3884
G1 X133.845 Y138.599 E28.41863
G1 X133.372 Y139.045 E28.4489
G1 X132.849 Y139.43 E28.47914
G1 X132.282 Y139.748 E28.50941
G1 X131.681 Y139.993 E28.53963
G1 X131.054 Y140.163 E28.56988
G1 X130.043 Y140.28 E28.61727
G1 X80.772 Y140.279 E30.91154
G1 X80.074 Y140.269 E30.94404
G1 X79.427 Y140.22 E30.97426
G1 X78.79 Y140.092 E31.00451
G1 X78.174 Y139.886 E31.03475
G1 X77.587 Y139.606 E31.06504
G1 X77.04 Y139.257 E31.09525
G1 X76.539 Y138.843 E31.12551
G1 X76.094 Y138.37 E31.15575
G1 X75.709 Y137.846 E31.18603
G1 X75.392 Y137.279 E31.21628
G1 X75.147 Y136.678 E31.2465
G1 X74.978 Y136.051 E31.27674
G1 X74.861 Y135.038 E31.32422
G1 X74.86 Y86.134 E33.6014
G1 X74.822 Y83.463 E33.72578
G1 X74.709 Y80.794 E33.85017
G1 X74.517 Y78.095 E33.97617
G1 X74.321 Y75.997 E34.07428
G1 X74.37 Y75.205 E34.11123
G1 X74.489 Y74.566 E34.1415
G1 X74.686 Y73.947 E34.17175
G1 X74.89 Y73.486 E34.19522
G1 X75.137 Y72.996 E34.22077
G1 X75.479 Y72.443 E34.25105
G1 X75.886 Y71.937 E34.28129
M204 S3000
M205 X10 Y10
G1 F2400 E28.28129
G1 F600 Z0.275
G0 F3000 X86.611 Y82.155 Z0.275
M204 S1800
M205 X8 Y8
G1 F600 Z0.2
G1 F2400 E34.28129
G1 X90.389 Y82.155 E34.45721
G1 X92.277 Y85.425 E34.63303
G1 X90.389 Y88.695 E34.80885
G1 X86.611 Y88.695 E34.98477
G1 X84.723 Y85.425 E35.16059
G1 X86.611 Y82.155 E35.33641
M204 S3000
M205 X10 Y10
G0 F3000 X86.934 Y82.715
M204 S1800
M205 X8 Y8
G1 F2400 X90.066 Y82.715 E35.48225
G1 X91.63 Y85.425 E35.62795
G1 X90.066 Y88.135 E35.77364
G1 X86.934 Y88.135 E35.91948
G1 X85.37 Y85.425 E36.06518
G1 X86.934 Y82.715 E36.21088
M204 S3000
M205 X10 Y10
G0 F3000 X87.258 Y83.275
M204 S1800
M205 X8 Y8
G1 F2400 X89.742 Y83.275 E36.32654
G1 X90.984 Y85.425 E36.44216
G1 X89.742 Y87.575 E36.55778
G1 X87.258 Y87.575 E36.67344
G1 X86.016 Y85.425 E36.78906
G1 X87.258 Y83.275 E36.90467
M204 S3000
M205 X10 Y10
G1 F2400 E30.90467
G1 F600 Z0.275
G0 F3000 X99.723 Y85.425 Z0.275
M204 S1800
M205 X8 Y8
G1 F600 Z0.2
G1 F2400 E36.90467
G1 X101.611 Y82.155 E37.0805
G1 X105.389 Y82.155 E37.25642
G1 X107.277 Y85.425 E37.43224
G1 X105.389 Y88.695 E37.60806
G1 X101.611 Y88.695 E37.78398
G1 X99.723 Y85.425 E37.9598
M204 S3000
M205 X10 Y10
G0 F3000 X100.37 Y85.425
M204 S1800
M205 X8 Y8
G1 F2400 X101.934 Y82.715 E38.1055
G1 X105.066 Y82.715 E38.25134
G1 X106.63 Y85.425 E38.39703
G1 X105.066 Y88.135 E38.54273
G1 X101.934 Y88.135 E38.68857
G1 X100.37 Y85.425 E38.83426
M204 S3000
M205 X10 Y10
G0 F3000 X101.016 Y85.425
M204 S1800
M205 X8 Y8
G1 F2400 X102.258 Y83.275 E38.94988
G1 X104.742 Y83.275 E39.06554
G1 X105.984 Y85.425 E39.18116
G1 X104.742 Y87.575 E39.29678
G1 X102.258 Y87.575 E39.41244
G1 X101.016 Y85.425 E39.52806
M204 S3000
M205 X10 Y10
G0 F3000 X101.571 Y85.423
M204 S1800
M205 X8 Y8
;TYPE:SUPPORT
G1 F2100 X102.536 Y83.753 E39.59221
G1 X104.464 Y83.753 E39.65634
G1 X105.428 Y85.423 E39.72047
G1 X104.464 Y87.092 E39.78458
G1 X102.536 Y87.092 E39.8487
G1 X101.571 Y85.423 E39.91282
M204 S3000
M205 X10 Y10
G1 F2400 E33.91282
G0 F3000 X104 Y86.892
M204 S1800
M205 X8 Y8
G1 F2400 E39.91282
G1 F1500 X104 Y83.953 E40.04968
M204 S3000
M205 X10 Y10
G1 F2400 E34.04968
G1 F600 Z0.275
G0 F3000 X90.428 Y85.423 Z0.275
M204 S1800
M205 X8 Y8
G1 F600 Z0.2
G1 F2400 E40.04968
G1 F2100 X89.464 Y87.092 E40.11378
G1 X87.536 Y87.092 E40.17791
G1 X86.571 Y85.423 E40.24203
G1 X87.536 Y83.753 E40.30618
G1 X89.464 Y83.753 E40.37031
G1 X90.428 Y85.423 E40.43444
M204 S3000
M205 X10 Y10
G1 F2400 E34.43444
G0 F3000 X88 Y86.892
M204 S1800
M205 X8 Y8
G1 F2400 E40.43444
G1 F1500 X88 Y83.953 E40.57129
M204 S3000
M205 X10 Y10
G1 F2400 E34.57129
G1 F600 Z0.275
G0 F3000 X80.846 Y75.512 Z0.275
M204 S1800
M205 X8 Y8
;TYPE:SUPPORT-INTERFACE
G1 F600 Z0.2
G1 F2400 E40.57129
G1 F1200 X80.279 Y75.711 E40.59927
G1 X80.066 Y75.929 E40.61347
G1 X79.879 Y75.794 E40.6242
G1 X79.914 Y75.676 E40.62994
G1 X79.956 Y75.597 E40.6341
G1 X79.986 Y75.578 E40.63576
G1 X80.466 Y75.266 E40.66241
G1 X80.916 Y75.17 E40.68384
G1 X106.404 Y75.151 E41.87067
G1 X112.126 Y75.157 E42.13711
G1 X112.403 Y75.252 E42.15074
G1 X112.361 Y75.503 E42.16259
G1 X104.904 Y75.494 E42.50982
G1 X80.846 Y75.512 E43.63006
M204 S3000
M205 X10 Y10
G1 F2400 E37.63006
;MESH:BaseRopeFixator.stl
G0 F3000 X81.072 Y76.841
G0 X82.754 Y85.425
G0 X85.626 Y90.401
G0 X91.49 Y90.867
G0 X91.49 Y90.709
M204 S1800
M205 X8 Y8
;TYPE:WALL-INNER
G1 F2400 E43.63006
G1 F1500 X91.167 Y90.795 E43.64563
G1 X85.786 Y90.796 E43.89619
G1 X85.441 Y90.673 E43.91325
G1 X85.152 Y90.376 E43.93254
G1 X82.536 Y85.844 E44.1762
G1 F1235.3 X82.318 Y85.59 E44.19513
G1 F1050 X82.318 Y85.258 E44.21721
G1 F1235.3 X82.536 Y85.004 E44.23614
G1 F1500 X85.177 Y80.431 E44.48204
G1 X85.344 Y80.244 E44.49371
G1 X85.587 Y80.104 E44.50677
G1 X85.778 Y80.052 E44.51599
G1 X91.116 Y80.052 E44.76455
G1 X91.428 Y80.111 E44.77933
G1 X91.68 Y80.268 E44.79316
G1 X91.844 Y80.472 E44.80535
G1 X94.46 Y85.004 E45.04901
G1 X94.569 Y85.35 E45.0659
G1 X94.535 Y85.715 E45.08297
G1 X91.807 Y90.44 E45.33702
G1 X91.49 Y90.709 E45.35638
M204 S3000
M205 X10 Y10
G0 F3000 X92.329 Y90.656
M204 S1800
M205 X8 Y8
G1 F1500 X92.141 Y90.911 E45.37114
G1 X91.819 Y91.168 E45.39032
G1 X91.586 Y91.276 E45.40228
G1 X91.256 Y91.35 E45.41803
G1 X85.726 Y91.356 E45.67553
G1 X85.413 Y91.276 E45.69057
G1 X85.149 Y91.151 E45.70417
G1 X84.89 Y90.946 E45.71955
G1 X84.667 Y90.656 E45.73658
G1 X82.051 Y86.124 E45.98025
G1 X81.964 Y85.884 E45.99213
G1 X81.965 Y133.599 E48.21394
G1 X128.6 Y133.6 E50.38547
G1 X128.6 Y96.397 E52.11779
G1 X111.917 Y77.845 E53.27957
G1 X111.834 Y77.8 E53.28396
G1 X81.964 Y77.812 E54.67484
G1 X81.964 Y84.964 E55.00786
G1 X82.051 Y84.724 E55.01975
G1 X84.708 Y80.124 E55.26711
G1 X84.987 Y79.813 E55.28656
G1 X85.391 Y79.579 E55.3083
G1 X85.715 Y79.492 E55.32392
G1 X91.116 Y79.492 E55.57542
G1 X91.636 Y79.591 E55.60007
G1 X92.055 Y79.853 E55.62308
G1 X92.329 Y80.192 E55.64337
G1 X94.945 Y84.724 E55.88704
G1 X95.077 Y85.035 E55.90277
G1 X95.127 Y85.546 E55.92668
G1 X95.078 Y85.812 E55.93927
G1 X94.945 Y86.124 E55.95506
G1 X92.329 Y90.656 E56.19872
M204 S3000
M205 X10 Y10
G0 F3000 X85.395 Y90.801
G0 X81.524 Y85.189
M204 S1800
M205 X8 Y8
G1 F1050 X81.524 Y85.659 E56.22999
G1 F1235.3 X81.404 Y86.147 E56.2584
G1 F1500 X81.405 Y134.159 E58.49404
G1 X129.16 Y134.16 E60.71772
G1 X129.16 Y96.183 E62.48608
G1 X112.268 Y77.399 E63.6624
G1 X111.976 Y77.24 E63.67788
G1 X81.404 Y77.252 E65.10144
G1 X81.404 Y84.701 E65.4483
G1 F1235.3 X81.524 Y85.189 E65.47671
M204 S3000
M205 X10 Y10
G0 F3000 X85.395 Y90.801
G0 X106.76 Y91.2
M204 S1800
M205 X8 Y8
G1 F1500 X106.49 Y91.306 E65.49022
G1 X106.18 Y91.355 E65.50483
G1 X100.771 Y91.352 E65.7567
G1 X100.466 Y91.293 E65.77116
G1 X100.112 Y91.125 E65.78941
G1 X99.732 Y90.762 E65.81388
G1 X97.055 Y86.124 E66.06324
G1 X96.922 Y85.812 E66.07903
G1 X96.873 Y85.302 E66.10289
G1 X96.923 Y85.035 E66.11554
G1 X97.055 Y84.724 E66.13127
G1 X99.671 Y80.192 E66.37493
G1 X99.944 Y79.853 E66.3952
G1 X100.364 Y79.591 E66.41825
G1 X100.717 Y79.492 E66.43532
G1 X106.116 Y79.492 E66.68672
G1 X106.636 Y79.591 E66.71137
G1 X107.055 Y79.852 E66.73435
G1 X107.329 Y80.192 E66.75469
G1 X110.037 Y84.883 E67.0069
G1 X110.133 Y85.393 E67.03107
G1 X110.082 Y85.799 E67.05012
G1 X110.003 Y86.024 E67.06122
G1 X107.294 Y90.714 E67.31342
G1 X107.044 Y91.006 E67.33132
G1 X106.76 Y91.2 E67.34734
M204 S3000
M205 X10 Y10
G0 F3000 X106.503 Y90.703
M204 S1800
M205 X8 Y8
G1 F1500 X106.155 Y90.796 E67.36411
G1 X100.816 Y90.794 E67.61272
G1 X100.488 Y90.698 E67.62863
G1 X100.193 Y90.44 E67.64688
G1 X97.465 Y85.715 E67.90093
G1 X97.431 Y85.35 E67.918
G1 X97.54 Y85.004 E67.93489
G1 X100.156 Y80.472 E68.17856
G1 X100.32 Y80.268 E68.19074
G1 X100.572 Y80.111 E68.20457
G1 X100.78 Y80.052 E68.21464
G1 X106.116 Y80.052 E68.4631
G1 X106.428 Y80.111 E68.47789
G1 X106.679 Y80.268 E68.49167
G1 X106.844 Y80.472 E68.50389
G1 X109.51 Y85.09 E68.75219
G1 X109.566 Y85.533 E68.77298
G1 X109.506 Y85.753 E68.7836
G1 X106.797 Y90.45 E69.03608
G1 X106.503 Y90.703 E69.05414
M204 S3000
M205 X10 Y10
G0 F3000 X106.502 Y90.866
G0 X107.856 Y100.472
G0 X107.576 Y101.686
G0 X106.195 Y103.674
M204 S1800
M205 X8 Y8
G1 F1500 X105.393 Y103.87 E69.09258
G1 X104.569 Y103.862 E69.13095
G1 X103.809 Y103.673 E69.16742
G1 X103.084 Y103.304 E69.2053
G1 X102.469 Y102.763 E69.24344
G1 X101.988 Y102.081 E69.2823
G1 X101.683 Y101.282 E69.32212
G1 X101.59 Y100.503 E69.35866
G1 X101.686 Y99.689 E69.39682
G1 X101.975 Y98.913 E69.43538
G1 X102.439 Y98.222 E69.47414
G1 X103.072 Y97.67 E69.51324
G1 X103.651 Y97.367 E69.54367
G1 X103.969 Y97.247 E69.5595
G1 X104.586 Y97.101 E69.58902
G1 X105.406 Y97.095 E69.62721
G1 X106.162 Y97.284 E69.66349
G1 X106.917 Y97.66 E69.70277
G1 X107.557 Y98.229 E69.74264
G1 X108.023 Y98.907 E69.78095
G1 X108.306 Y99.666 E69.81867
G1 X108.409 Y100.461 E69.856
G1 X108.31 Y101.284 E69.8946
G1 X108.014 Y102.08 E69.93414
G1 X107.536 Y102.758 E69.97277
G1 X106.923 Y103.296 E70.01075
G1 X106.195 Y103.674 E70.04894
M204 S3000
M205 X10 Y10
G0 F3000 X105.999 Y103.146
M204 S1800
M205 X8 Y8
G1 F1500 X105.337 Y103.31 E70.0807
G1 X104.644 Y103.305 E70.11297
G1 X104.004 Y103.145 E70.14369
G1 X103.4 Y102.838 E70.17524
G1 X102.882 Y102.382 E70.20737
G1 X102.49 Y101.816 E70.23943
G1 X102.23 Y101.148 E70.27281
G1 X102.154 Y100.486 E70.30384
G1 X102.237 Y99.825 E70.33486
G1 X102.482 Y99.151 E70.36825
G1 X102.886 Y98.576 E70.40097
G1 X103.388 Y98.136 E70.43206
G1 X104.003 Y97.814 E70.46438
G1 X104.646 Y97.661 E70.49516
G1 X105.346 Y97.655 E70.52776
G1 X106.001 Y97.827 E70.55929
G1 X106.582 Y98.119 E70.58957
G1 X107.125 Y98.592 E70.6231
G1 X107.523 Y99.167 E70.65566
G1 X107.755 Y99.786 E70.68644
G1 X107.845 Y100.465 E70.71834
G1 X107.764 Y101.128 E70.74944
G1 X107.532 Y101.786 E70.78193
G1 X107.126 Y102.372 E70.81512
