;FLAVOR:Marlin
;TIME:10491
;Filament used: 10.5069m
;Layer height: 0.2
;MINX:68.6
;MINY:73.319
;MINZ:0.2
;MAXX:141.451
;MAXY:136.618
;MAXZ:28
;TARGET_MACHINE.NAME:Anycubic i3 Mega
;Generated with Cura_SteamEngine 5.10.1
M140 S60
M105
M190 S60
M104 S210
M105
M109 S210
G21 ;metric values
G90 ;absolute positioning
M82 ;set extruder to absolute mode
M107 ;start with the fan off
G28 X0 Y0 ;move X/Y to min endstops
G28 Z0 ;move Z to min endstops
G1 Z15.0 F100 ;move the platform down 15mm
G92 E0 ;zero the extruded length
G1 F200 E3 ;extrude 3mm of feed stock
G92 E0 ;zero the extruded length again
G1 F100
G0 Y20 F100
M117 Printing...
G5
M82 ;absolute extrusion mode
G92 E0
G92 E0
G1 F2400 E-6
;LAYER_COUNT:140
;LAYER:0
M107
M204 S3000
M205 X10 Y10
G1 F600 Z0.275
G0 F3000 X70.347 Y75.763 Z0.275
M204 S1800
M205 X8 Y8
;TYPE:SKIRT
G1 F600 Z0.2
G1 F2400 E0
G1 X70.971 Y75.18 E0.03976
G1 X71.55 Y74.761 E0.07304
G1 X72.24 Y74.375 E0.10986
G1 X73.034 Y74.057 E0.14969
G1 X73.742 Y73.873 E0.18375
G1 X74.957 Y73.734 E0.24069
G1 X125.069 Y73.733 E2.57412
G1 X127.744 Y73.695 E2.69869
G1 X130.371 Y73.583 E2.82112
G1 X133.899 Y73.322 E2.98585
G1 X134.685 Y73.319 E3.02245
G1 X135.395 Y73.402 E3.05574
G1 X136.094 Y73.564 E3.08915
G1 X136.872 Y73.843 E3.12763
G1 X138.069 Y74.509 E3.19142
G1 X138.761 Y75.039 E3.23201
G1 X139.373 Y75.635 E3.27178
G1 X139.894 Y76.292 E3.31083
G1 X140.327 Y76.941 E3.34716
G1 X140.729 Y77.692 E3.38682
G1 X141.024 Y78.469 E3.42552
G1 X141.263 Y79.322 E3.46677
G1 X141.389 Y80.022 E3.49989
G1 X141.446 Y80.898 E3.54077
G1 X141.451 Y128.521 E5.75829
G1 X141.439 Y129.325 E5.79573
G1 X141.359 Y130.195 E5.83642
G1 X141.236 Y130.825 E5.8663
G1 X140.952 Y131.754 E5.91154
G1 X140.68 Y132.417 E5.94491
G1 X140.259 Y133.173 E5.9852
G1 X139.79 Y133.866 E6.02417
G1 X139.273 Y134.515 E6.0628
G1 X138.713 Y135.061 E6.09922
G1 X138.2 Y135.46 E6.12948
G1 X137.403 Y135.934 E6.17266
G1 X136.809 Y136.195 E6.20287
G1 X135.919 Y136.461 E6.24613
G1 X135.215 Y136.576 E6.27934
G1 X134.392 Y136.618 E6.31772
G1 X130.855 Y136.385 E6.48277
G1 X128.151 Y136.289 E6.60876
G1 X126.116 Y136.267 E6.70352
G1 X75.691 Y136.267 E9.05152
G1 X74.917 Y136.256 E9.08757
G1 X74.131 Y136.194 E9.12428
G1 X73.293 Y136.021 E9.16412
G1 X72.677 Y135.815 E9.19437
G1 X71.841 Y135.416 E9.2375
G1 X71.185 Y134.988 E9.27397
G1 X70.635 Y134.528 E9.30736
G1 X70.139 Y134.007 E9.34086
G1 X69.63 Y133.321 E9.38063
G1 X69.245 Y132.634 E9.4173
G1 X68.947 Y131.905 E9.45397
G1 X68.756 Y131.213 E9.4874
G1 X68.626 Y130.312 E9.52979
G1 X68.6 Y129.521 E9.56664
G1 X68.601 Y80.711 E11.83944
G1 X68.611 Y80.047 E11.87036
G1 X68.673 Y79.26 E11.90712
G1 X68.847 Y78.423 E11.94693
G1 X69.077 Y77.746 E11.98022
G1 X69.383 Y77.097 E12.01363
G1 X69.886 Y76.313 E12.05701
G1 X70.347 Y75.763 E12.09042
M204 S3000
M205 X10 Y10
G0 F3000 X70.776 Y76.123
M204 S1800
M205 X8 Y8
G1 F2400 X71.302 Y75.632 E12.12393
G1 X71.826 Y75.248 E12.15418
G1 X72.451 Y74.894 E12.18763
G1 X73.18 Y74.598 E12.22426
G1 X73.807 Y74.429 E12.2545
G1 X74.957 Y74.294 E12.30842
G1 X125.077 Y74.293 E14.64222
G1 X127.752 Y74.255 E14.76679
G1 X130.403 Y74.142 E14.89034
G1 X133.904 Y73.882 E15.05381
G1 X134.623 Y73.876 E15.08729
G1 X135.269 Y73.948 E15.11756
G1 X135.968 Y74.11 E15.15097
G1 X136.643 Y74.356 E15.18442
G1 X137.728 Y74.954 E15.24211
G1 X138.42 Y75.484 E15.2827
G1 X138.935 Y75.984 E15.31612
G1 X139.428 Y76.603 E15.35297
G1 X139.861 Y77.252 E15.3893
G1 X140.205 Y77.891 E15.42309
G1 X140.5 Y78.668 E15.46179
G1 X140.712 Y79.424 E15.49835
G1 X140.83 Y80.058 E15.52838
G1 X140.887 Y80.934 E15.56926
G1 X140.891 Y128.514 E17.78478
G1 X140.881 Y129.276 E17.82026
G1 X140.809 Y130.088 E17.85822
G1 X140.686 Y130.718 E17.88811
G1 X140.433 Y131.544 E17.92834
G1 X140.19 Y132.146 E17.95857
G1 X139.795 Y132.859 E17.99652
G1 X139.326 Y133.552 E18.03549
G1 X138.88 Y134.116 E18.06897
G1 X138.369 Y134.619 E18.10236
G1 X137.856 Y135.018 E18.13262
G1 X137.178 Y135.421 E18.16934
G1 X136.584 Y135.682 E18.19956
G1 X135.829 Y135.908 E18.23625
G1 X135.125 Y136.023 E18.26947
G1 X134.429 Y136.059 E18.30192
G1 X130.879 Y135.825 E18.46758
G1 X128.171 Y135.729 E18.59376
G1 X126.122 Y135.707 E18.68917
G1 X75.699 Y135.707 E21.03708
G1 X74.925 Y135.696 E21.07312
G1 X74.176 Y135.636 E21.10811
G1 X73.471 Y135.49 E21.14164
G1 X72.855 Y135.284 E21.17188
G1 X72.145 Y134.945 E21.20852
G1 X71.542 Y134.556 E21.24193
G1 X71.041 Y134.142 E21.27219
G1 X70.545 Y133.621 E21.30569
G1 X70.117 Y133.045 E21.3391
G1 X69.762 Y132.419 E21.37261
G1 X69.487 Y131.756 E21.40604
G1 X69.296 Y131.064 E21.43946
G1 X69.186 Y130.293 E21.47573
G1 X69.16 Y129.521 E21.5117
G1 X69.161 Y80.719 E23.78412
G1 X69.171 Y80.055 E23.81504
G1 X69.231 Y79.305 E23.85008
G1 X69.378 Y78.601 E23.88357
G1 X69.584 Y77.985 E23.91381
G1 X69.89 Y77.336 E23.94722
G1 X70.315 Y76.673 E23.98389
G1 X70.776 Y76.123 E24.01731
M204 S3000
M205 X10 Y10
G0 F3000 X71.16 Y76.53
M204 S1800
M205 X8 Y8
G1 F2400 X71.633 Y76.084 E24.04758
G1 X72.157 Y75.7 E24.07783
G1 X72.724 Y75.383 E24.10808
G1 X73.326 Y75.139 E24.13833
G1 X73.953 Y74.97 E24.16856
G1 X74.957 Y74.854 E24.21562
G1 X125.085 Y74.853 E26.54979
G1 X127.76 Y74.815 E26.67437
G1 X130.438 Y74.701 E26.79918
G1 X133.912 Y74.442 E26.96139
G1 X134.561 Y74.433 E26.99161
G1 X135.207 Y74.505 E27.02188
G1 X135.839 Y74.655 E27.05213
G1 X136.448 Y74.881 E27.08237
G1 X137.387 Y75.399 E27.13231
G1 X138.079 Y75.929 E27.1729
G1 X138.543 Y76.384 E27.20316
G1 X138.963 Y76.915 E27.23468
G1 X139.37 Y77.521 E27.26867
G1 X139.682 Y78.091 E27.29893
G1 X139.961 Y78.821 E27.33532
G1 X140.161 Y79.526 E27.36944
G1 X140.279 Y80.16 E27.39947
G1 X140.328 Y80.968 E27.43717
G1 X140.331 Y128.508 E29.65083
G1 X140.323 Y129.227 E29.68431
G1 X140.251 Y130.039 E29.72227
G1 X140.137 Y130.608 E29.74929
G1 X139.914 Y131.334 E29.78465
G1 X139.671 Y131.936 E29.81488
G1 X139.307 Y132.585 E29.84953
G1 X138.885 Y133.207 E29.88453
G1 X138.485 Y133.719 E29.91479
G1 X138.025 Y134.177 E29.94501
G1 X137.512 Y134.576 E29.97527
G1 X136.953 Y134.908 E30.00555
G1 X136.359 Y135.169 E30.03576
G1 X135.736 Y135.356 E30.06605
G1 X135.096 Y135.464 E30.09627
G1 X134.4 Y135.5 E30.12872
G1 X133.561 Y135.435 E30.16791
G1 X130.899 Y135.265 E30.29211
G1 X128.191 Y135.169 E30.41829
G1 X126.128 Y135.147 E30.51435
G1 X75.707 Y135.147 E32.86217
G1 X74.933 Y135.136 E32.89821
G1 X74.286 Y135.087 E32.92843
G1 X73.649 Y134.959 E32.95868
G1 X73.033 Y134.753 E32.98892
G1 X72.446 Y134.473 E33.01921
G1 X71.899 Y134.124 E33.04942
G1 X71.398 Y133.71 E33.07968
G1 X70.953 Y133.237 E33.10992
G1 X70.568 Y132.713 E33.1402
G1 X70.251 Y132.146 E33.17045
G1 X70.006 Y131.545 E33.20067
G1 X69.837 Y130.918 E33.23091
G1 X69.746 Y130.274 E33.26119
G1 X69.72 Y129.521 E33.29628
G1 X69.721 Y80.727 E35.56833
G1 X69.731 Y80.063 E35.59925
G1 X69.78 Y79.416 E35.62947
G1 X69.909 Y78.779 E35.65973
G1 X70.115 Y78.163 E35.68997
G1 X70.395 Y77.577 E35.72022
G1 X70.746 Y77.03 E35.75048
G1 X71.16 Y76.53 E35.78071
M204 S3000
M205 X10 Y10
G1 F2400 E29.78071
G0 F3000 X133.166 Y79.904
G0 X134.164 Y80.121
M204 S1800
M205 X8 Y8
;TYPE:SUPPORT-INTERFACE
G1 F2400 E35.78071
G1 F1200 X134.341 Y79.953 E35.79207
G1 X134.486 Y80.055 E35.80033
G1 X134.735 Y80.427 E35.82117
G1 X134.775 Y80.569 E35.82804
G1 X134.774 Y80.569 E35.82809
G1 X134.851 Y80.841 E35.84125
G1 X134.851 Y129.161 E38.09123
G1 X134.73 Y129.584 E38.11172
G1 X134.481 Y129.956 E38.13256
G1 X134.236 Y129.811 E38.14582
G1 X134.52 Y129.271 E38.17423
G1 X134.52 Y80.694 E40.43618
G1 X134.164 Y80.121 E40.46759
M204 S3000
M205 X10 Y10
G1 F2400 E34.46759
;MESH:BaseFixator.stl
G0 F3000 X133.191 Y81.074
G0 X110.378 Y108.304
M204 S1800
M205 X8 Y8
;TYPE:WALL-INNER
G1 F2400 E40.46759
G1 F1500 X109.375 Y108.405 E40.51453
G1 X108.672 Y108.296 E40.54765
G1 X108.006 Y108.053 E40.58066
G1 X107.324 Y107.614 E40.61843
G1 X106.878 Y107.143 E40.64864
G1 X106.494 Y106.575 E40.68056
G1 X106.252 Y105.961 E40.71129
G1 X106.133 Y105.387 E40.73859
G1 X106.125 Y104.723 E40.76951
G1 X106.242 Y104.042 E40.80168
G1 X106.633 Y103.18 E40.84576
G1 X107.182 Y102.513 E40.88599
G1 X107.768 Y102.081 E40.91988
G1 X108.371 Y101.787 E40.95112
G1 X109.321 Y101.591 E40.99629
G1 X110.069 Y101.636 E41.03118
G1 X110.859 Y101.865 E41.06948
G1 X111.67 Y102.357 E41.11365
G1 X112.192 Y102.883 E41.14816
G1 X112.617 Y103.588 E41.18649
G1 X112.819 Y104.203 E41.21663
G1 X112.927 Y104.924 E41.25058
G1 X112.836 Y105.754 E41.28946
G1 X112.622 Y106.399 E41.3211
G1 X112.277 Y106.985 E41.35277
G1 X111.834 Y107.496 E41.38426
G1 X111.262 Y107.922 E41.41747
G1 X110.378 Y108.304 E41.46231
M204 S3000
M205 X10 Y10
G0 F3000 X110.244 Y107.751
M204 S1800
M205 X8 Y8
G1 F1500 X109.391 Y107.841 E41.50225
G1 X108.841 Y107.757 E41.52816
G1 X108.265 Y107.554 E41.5566
G1 X107.712 Y107.196 E41.58727
G1 X107.307 Y106.784 E41.61417
G1 X106.973 Y106.266 E41.64287
G1 X106.77 Y105.736 E41.6693
G1 X106.693 Y105.306 E41.68964
G1 X106.683 Y104.775 E41.71437
G1 X106.826 Y104.11 E41.74604
G1 X107.114 Y103.474 E41.77855
G1 X107.573 Y102.919 E41.81209
G1 X108.049 Y102.565 E41.83971
G1 X108.555 Y102.32 E41.86589
G1 X109.342 Y102.156 E41.90332
G1 X109.918 Y102.186 E41.93018
G1 X110.619 Y102.373 E41.96396
G1 X111.323 Y102.8 E42.0023
G1 X111.746 Y103.227 E42.03029
G1 X112.115 Y103.838 E42.06353
G1 X112.289 Y104.394 E42.09065
G1 X112.362 Y104.945 E42.11653
G1 X112.288 Y105.63 E42.14862
G1 X112.109 Y106.16 E42.17467
G1 X111.837 Y106.63 E42.19995
G1 X111.459 Y107.075 E42.22714
G1 X110.974 Y107.442 E42.25546
G1 X110.244 Y107.751 E42.29237
M204 S3000
M205 X10 Y10
G0 F3000 X110.27 Y107.816
G0 X124.362 Y119.878
G0 X125.108 Y120.413
G0 X128.148 Y121.306
M204 S1800
M205 X8 Y8
G1 F1500 X127.431 Y121.432 E42.32627
G1 X126.696 Y121.432 E42.36049
G1 X126.108 Y121.364 E42.38806
G1 X125.399 Y121.147 E42.42258
G1 X124.84 Y120.902 E42.451
G1 X123.975 Y120.278 E42.50067
G1 X123.441 Y119.666 E42.53849
G1 X123.022 Y119.021 E42.5743
G1 X122.657 Y118.001 E42.62475
G1 X122.543 Y117.092 E42.6674
G1 X122.614 Y116.238 E42.70731
G1 X122.779 Y115.573 E42.73921
G1 X123.129 Y114.791 E42.77911
G1 X123.53 Y114.206 E42.81213
G1 X123.979 Y113.721 E42.84291
G1 X124.495 Y113.317 E42.87342
G1 X125.263 Y112.897 E42.91418
G1 X125.967 Y112.668 E42.94865
G1 X126.97 Y112.538 E42.99575
G1 X127.885 Y112.628 E43.03856
G1 X128.745 Y112.897 E43.08052
G1 X129.539 Y113.354 E43.12318
G1 X129.819 Y113.567 E43.13956
G1 X130.36 Y114.094 E43.17473
G1 X130.572 Y114.36 E43.19056
G1 F1492 X131.053 Y115.141 E43.2335
G1 F1473.7 X131.306 Y115.875 E43.2703
G1 F1308.4 X131.436 Y116.134 E43.28577
G1 F1200 X131.504 Y116.858 E43.3281
G1 F1210.4 X131.454 Y117.782 E43.3815
G1 F1261.3 X131.386 Y117.923 E43.39016
G1 F1368.1 X131.119 Y118.682 E43.43124
G1 F1431 X130.74 Y119.431 E43.47221
G1 F1476.3 X130.148 Y120.134 E43.5157
G1 F1500 X129.895 Y120.368 E43.53174
G1 X129.279 Y120.812 E43.5671
G1 X128.975 Y120.978 E43.58323
G1 X128.148 Y121.306 E43.62466
M204 S3000
M205 X10 Y10
G0 F3000 X127.99 Y120.766
M204 S1800
M205 X8 Y8
G1 F1500 X127.382 Y120.872 E43.6534
G1 X126.629 Y120.872 E43.68846
G1 X126.148 Y120.791 E43.71117
G1 X125.504 Y120.592 E43.74256
G1 X125.048 Y120.362 E43.76634
G1 X124.359 Y119.866 E43.80587
G1 X123.911 Y119.362 E43.83727
G1 X123.53 Y118.764 E43.87029
G1 X123.2 Y117.861 E43.91505
G1 X123.108 Y117.116 E43.95001
G1 X123.167 Y116.33 E43.98671
G1 X123.31 Y115.75 E44.01453
G1 X123.629 Y115.053 E44.05022
G1 X123.963 Y114.562 E44.07787
G1 X124.336 Y114.159 E44.10344
G1 X124.807 Y113.782 E44.13153
G1 X125.451 Y113.431 E44.16568
G1 X126.055 Y113.226 E44.19538
G1 X126.973 Y113.108 E44.23848
G1 X127.765 Y113.178 E44.27551
G1 X128.519 Y113.413 E44.31228
G1 X129.35 Y113.891 E44.35692
G1 X130.041 Y114.566 E44.4019
G1 X130.546 Y115.384 E44.44666
G1 X130.796 Y116.135 E44.48352
G1 X130.893 Y116.902 E44.51952
G1 X130.833 Y117.673 E44.55553
G1 X130.622 Y118.427 E44.59199
G1 X130.272 Y119.116 E44.62797
G1 X129.65 Y119.855 E44.67295
G1 X128.867 Y120.419 E44.71788
G1 X127.99 Y120.766 E44.7618
M204 S3000
M205 X10 Y10
G0 F3000 X128.015 Y120.832
G0 X132.22 Y118.646
M204 S1800
M205 X8 Y8
G1 F1409.4 X132.184 Y118.034 E44.79218
G1 F1261.3 X132.15 Y117.842 E44.80298
G1 F1228.1 X132.167 Y116.92 E44.85543
G1 F1220.9 X132.145 Y116.09 E44.90293
G1 F1308.4 X132.214 Y115.728 E44.9226
G1 F1471.1 X132.216 Y104.475 E45.45688
G1 F1484.1 X132.218 Y93.222 E45.98648
G1 F1494.7 X132.22 Y81.969 E46.51234
G1 F1500 X76.4 Y81.961 E49.11155
G1 X76.4 Y128.036 E51.25699
G1 X132.22 Y128.036 E53.85621
G1 X132.22 Y118.646 E54.29345
M204 S3000
M205 X10 Y10
G0 F3000 X132.71 Y128.596
G0 X132.78 Y128.596
M204 S1800
M205 X8 Y8
G1 F1500 X132.78 Y81.408 E56.49072
G1 X75.84 Y81.401 E59.14208
G1 X75.84 Y128.596 E61.33968
G1 X132.78 Y128.596 E63.99104
M204 S3000
M205 X10 Y10
G0 F3000 X132.71 Y128.596
G0 X87.734 Y121.315
M204 S1800
M205 X8 Y8
G1 F1500 X87.104 Y121.396 E64.02062
G1 X86.63 Y121.375 E64.04271
G1 X86.09 Y121.272 E64.06831
G1 X85.38 Y120.981 E64.10404
G1 X85.136 Y120.84 E64.11716
G1 X84.707 Y120.504 E64.14254
G1 X84.287 Y120.055 E64.17116
G1 X83.831 Y119.275 E64.21324
G1 X83.649 Y118.586 E64.24642
G1 X83.6 Y117.948 E64.27621
G1 X83.672 Y117.245 E64.30912
G1 X83.931 Y116.522 E64.34488
G1 X84.393 Y115.81 E64.3844
G1 X84.898 Y115.316 E64.4173
G1 X85.514 Y114.929 E64.45117
G1 X86.193 Y114.692 E64.48466
G1 X87.058 Y114.6 E64.52517
G1 X87.666 Y114.663 E64.55363
G1 X88.334 Y114.861 E64.58607
G1 X89.031 Y115.263 E64.62354
G1 X89.559 Y115.753 E64.65708
G1 X89.949 Y116.3 E64.68836
G1 X90.203 Y116.864 E64.71716
G1 X90.381 Y117.564 E64.7508
G1 X90.39 Y118.235 E64.78204
G1 X90.278 Y118.879 E64.81248
G1 X90.106 Y119.381 E64.83719
G1 X89.762 Y120.004 E64.87033
G1 X89.117 Y120.661 E64.9132
G1 X88.475 Y121.075 E64.94877
G1 X87.734 Y121.315 E64.98504
M204 S3000
M205 X10 Y10
G0 F3000 X87.637 Y120.764
M204 S1800
M205 X8 Y8
G1 F1500 X87.104 Y120.836 E65.01008
G1 X86.509 Y120.795 E65.03785
G1 X86.062 Y120.674 E65.05942
G1 X85.464 Y120.386 E65.09032
G1 X85.109 Y120.114 E65.11115
G1 X84.764 Y119.75 E65.1345
G1 X84.374 Y119.094 E65.17004
G1 X84.2 Y118.489 E65.19935
G1 X84.16 Y117.948 E65.22461
G1 X84.251 Y117.287 E65.25568
G1 X84.42 Y116.809 E65.27929
G1 X84.835 Y116.156 E65.31532
G1 X85.28 Y115.734 E65.34387
G1 X85.763 Y115.441 E65.37018
G1 X86.323 Y115.237 E65.39793
G1 X87.119 Y115.156 E65.43519
G1 X87.555 Y115.212 E65.45565
G1 X88.111 Y115.378 E65.48267
G1 X88.704 Y115.725 E65.51467
G1 X89.111 Y116.099 E65.5404
G1 X89.454 Y116.564 E65.56731
G1 X89.679 Y117.061 E65.59271
G1 X89.822 Y117.636 E65.6203
G1 X89.831 Y118.2 E65.64657
G1 X89.766 Y118.633 E65.66696
G1 X89.593 Y119.155 E65.69256
G1 X89.285 Y119.692 E65.72139
G1 X88.731 Y120.247 E65.7579
G1 X88.154 Y120.59 E65.78916
G1 X87.637 Y120.764 E65.81456
M204 S3000
M205 X10 Y10
G0 F3000 X87.647 Y120.834
G0 X88.742 Y120.263
G0 X89.309 Y119.679
G0 X89.78 Y118.637
G0 X87.589 Y95.347
M204 S1800
M205 X8 Y8
G1 F1500 X86.787 Y95.402 E65.85199
G1 X85.945 Y95.23 E65.89201
G1 X85.294 Y94.943 E65.92514
G1 X84.708 Y94.504 E65.95923
G1 X84.288 Y94.057 E65.98779
G1 X83.831 Y93.275 E66.02997
G1 X83.649 Y92.586 E66.06315
G1 X83.6 Y91.948 E66.09295
G1 X83.658 Y91.385 E66.1193
G1 X83.849 Y90.728 E66.15116
G1 X83.965 Y90.472 E66.16425
G1 X84.318 Y89.915 E66.19495
G1 X84.679 Y89.509 E66.22025
G1 X85.115 Y89.171 E66.24594
G1 X85.691 Y88.848 E66.27669
G1 X86.458 Y88.641 E66.31368
G1 X87.101 Y88.6 E66.34368
G1 X87.846 Y88.694 E66.37865
G1 X88.633 Y89.005 E66.41805
G1 X89.281 Y89.481 E66.45549
G1 X89.692 Y89.911 E66.48319
G1 X90.104 Y90.585 E66.51997
G1 X90.324 Y91.259 E66.55299
G1 X90.396 Y92.045 E66.58974
G1 X90.322 Y92.74 E66.62229
G1 X90.104 Y93.405 E66.65487
G1 X89.719 Y94.049 E66.68981
G1 X89.171 Y94.606 E66.72619
G1 X88.954 Y94.775 E66.739
G1 X88.325 Y95.141 E66.77289
G1 X87.589 Y95.347 E66.80848
M204 S3000
M205 X10 Y10
G0 F3000 X87.433 Y94.81
M204 S1800
M205 X8 Y8
G1 F1500 X86.834 Y94.834 E66.83639
G1 X86.145 Y94.712 E66.86897
G1 X85.537 Y94.433 E66.90012
G1 X85.109 Y94.114 E66.92498
G1 X84.768 Y93.755 E66.94803
G1 X84.374 Y93.095 E66.98383
G1 X84.2 Y92.489 E67.01318
G1 X84.16 Y91.948 E67.03844
G1 X84.214 Y91.453 E67.06163
G1 X84.403 Y90.827 E67.09208
G1 X84.741 Y90.281 E67.12198
