;FLAVOR:Marlin
;TIME:2833
;Filament used: 2.61987m
;Layer height: 0.2
;MINX:81.165
;MINY:41.443
;MINZ:0.2
;MAXX:128.965
;MAXY:113.243
;MAXZ:14
;TARGET_MACHINE.NAME:Anycubic i3 Mega
;Generated with Cura_SteamEngine 5.7.2
M140 S60
M105
M190 S60
M104 S210
M105
M109 S210
M82 ;absolute extrusion mode
G21 ;metric values
G90 ;absolute positioning
M82 ;set extruder to absolute mode
M107 ;start with the fan off
G28 X0 Y0 ;move X/Y to min endstops
G28 Z0 ;move Z to min endstops
G1 Z15.0 F100 ;move the platform down 15mm
G92 E0 ;zero the extruded length
G1 F200 E3 ;extrude 3mm of feed stock
G92 E0 ;zero the extruded length again
G1 F100
G0 Y20 F100
M117 Printing...
G5
G92 E0
G92 E0
G1 F2400 E-6
;LAYER_COUNT:70
;LAYER:0
M107
M204 S3000
M205 X10 Y10
G1 F600 Z0.275
G0 F3000 X82.12 Y44.734 Z0.275
M204 S1800
M205 X8 Y8
;TYPE:SKIRT
G1 F600 Z0.2
G1 F2400 E0
G1 X82.545 Y44.071 E0.03667
G1 X83.046 Y43.468 E0.07318
G1 X83.568 Y42.973 E0.10667
G1 X84.258 Y42.463 E0.14663
G1 X84.943 Y42.081 E0.18315
G1 X85.605 Y41.808 E0.21649
G1 X86.378 Y41.588 E0.25391
G1 X87.651 Y41.443 E0.31357
G1 X121.874 Y41.443 E1.90714
G1 X122.648 Y41.454 E1.94318
G1 X123.434 Y41.516 E1.9799
G1 X124.272 Y41.689 E2.01974
G1 X124.888 Y41.895 E2.04999
G1 X125.724 Y42.294 E2.09312
G1 X126.38 Y42.722 E2.12959
G1 X126.93 Y43.182 E2.16298
G1 X127.426 Y43.703 E2.19648
G1 X127.935 Y44.389 E2.23625
G1 X128.32 Y45.076 E2.27292
G1 X128.618 Y45.805 E2.30959
G1 X128.825 Y46.58 E2.34695
G1 X128.965 Y47.8 E2.40413
G1 X128.965 Y106.186 E5.12282
G1 X128.956 Y106.913 E5.15668
G1 X128.885 Y107.77 E5.19672
G1 X128.724 Y108.536 E5.23317
G1 X128.495 Y109.215 E5.26653
G1 X128.158 Y109.925 E5.30313
G1 X127.777 Y110.533 E5.33654
G1 X127.186 Y111.251 E5.37984
G1 X126.664 Y111.74 E5.41315
G1 X126.088 Y112.169 E5.44659
G1 X125.281 Y112.623 E5.48971
G1 X124.611 Y112.893 E5.52334
G1 X123.837 Y113.101 E5.56066
G1 X122.61 Y113.243 E5.61818
G1 X88.19 Y113.243 E7.22092
G1 X87.492 Y113.234 E7.25342
G1 X86.636 Y113.163 E7.29342
G1 X85.931 Y113.018 E7.32693
G1 X85.125 Y112.745 E7.36656
G1 X84.48 Y112.434 E7.3999
G1 X83.813 Y112.009 E7.43673
G1 X83.155 Y111.462 E7.47657
G1 X82.666 Y110.94 E7.50988
G1 X82.199 Y110.306 E7.54654
G1 X81.844 Y109.681 E7.58001
G1 X81.515 Y108.891 E7.61986
G1 X81.312 Y108.159 E7.65523
G1 X81.165 Y106.882 E7.71509
G1 X81.166 Y83.449 E8.80623
G1 X81.181 Y82.661 E8.84293
G1 X81.249 Y81.886 E8.87915
G1 X81.444 Y80.631 E8.93829
G1 X81.46 Y80.465 E8.94606
G1 X81.639 Y79.346 E8.99882
G1 X81.983 Y76.71 E9.12261
G1 X82.249 Y74.09 E9.24523
G1 X82.444 Y71.445 E9.36873
G1 X82.562 Y68.806 E9.49174
G1 X82.605 Y66.169 E9.61454
G1 X82.574 Y63.526 E9.73762
G1 X82.467 Y60.856 E9.86205
G1 X82.284 Y58.19 E9.98648
G1 X82.036 Y55.626 E10.10643
G1 X81.702 Y52.955 E10.23177
G1 X81.544 Y51.941 E10.27955
G1 X81.364 Y50.674 E10.33914
G1 X81.296 Y49.824 E10.37885
G1 X81.309 Y47.747 E10.47556
G1 X81.353 Y47.099 E10.50581
G1 X81.527 Y46.193 E10.54876
G1 X81.727 Y45.575 E10.57901
G1 X82.12 Y44.734 E10.62224
M204 S3000
M205 X10 Y10
G0 F3000 X82.593 Y45.034
M204 S1800
M205 X8 Y8
G1 F2400 X82.978 Y44.427 E10.65571
G1 X83.434 Y43.872 E10.68915
G1 X83.903 Y43.422 E10.71942
G1 X84.533 Y42.951 E10.75605
G1 X85.159 Y42.598 E10.78951
G1 X85.759 Y42.347 E10.8198
G1 X86.492 Y42.138 E10.85529
G1 X87.651 Y42.003 E10.90962
G1 X121.866 Y42.003 E12.50281
G1 X122.64 Y42.014 E12.53886
G1 X123.389 Y42.074 E12.57385
G1 X124.094 Y42.22 E12.60737
G1 X124.71 Y42.426 E12.63762
G1 X125.42 Y42.765 E12.67425
G1 X126.023 Y43.154 E12.70767
G1 X126.524 Y43.568 E12.73793
G1 X127.02 Y44.089 E12.77142
G1 X127.448 Y44.665 E12.80484
G1 X127.803 Y45.291 E12.83835
G1 X128.078 Y45.954 E12.87177
G1 X128.269 Y46.646 E12.9052
G1 X128.405 Y47.8 E12.95931
G1 X128.405 Y106.179 E15.67768
G1 X128.396 Y106.906 E15.71153
G1 X128.337 Y107.657 E15.74661
G1 X128.192 Y108.36 E15.78003
G1 X127.988 Y108.977 E15.81029
G1 X127.683 Y109.628 E15.84377
G1 X127.302 Y110.236 E15.87718
G1 X126.801 Y110.844 E15.91386
G1 X126.329 Y111.291 E15.94413
G1 X125.753 Y111.72 E15.97757
G1 X125.068 Y112.105 E16.01416
G1 X124.466 Y112.352 E16.04446
G1 X123.692 Y112.56 E16.08178
G1 X122.61 Y112.683 E16.13249
G1 X88.197 Y112.683 E17.7349
G1 X87.499 Y112.674 E17.76741
G1 X86.749 Y112.614 E17.80244
G1 X86.044 Y112.469 E17.83596
G1 X85.365 Y112.239 E17.86934
G1 X84.778 Y111.96 E17.8996
G1 X84.169 Y111.577 E17.9331
G1 X83.562 Y111.077 E17.96972
G1 X83.115 Y110.605 E17.99999
G1 X82.686 Y110.029 E18.03343
G1 X82.331 Y109.404 E18.0669
G1 X82.055 Y108.741 E18.10034
G1 X81.852 Y108.009 E18.13571
G1 X81.725 Y106.882 E18.18852
G1 X81.726 Y83.459 E19.2792
G1 X81.739 Y82.71 E19.31408
G1 X81.807 Y81.935 E19.35031
G1 X82.001 Y80.695 E19.40875
G1 X82.013 Y80.553 E19.41538
G1 X82.192 Y79.434 E19.46815
G1 X82.538 Y76.782 E19.59269
G1 X82.806 Y74.147 E19.71601
G1 X83.002 Y71.486 E19.84026
G1 X83.122 Y68.815 E19.96476
G1 X83.165 Y66.178 E20.08756
G1 X83.134 Y63.504 E20.21208
G1 X83.027 Y60.834 E20.33651
G1 X82.843 Y58.152 E20.46169
G1 X82.592 Y55.556 E20.58313
G1 X82.257 Y52.885 E20.70848
G1 X82.098 Y51.862 E20.75669
G1 X81.922 Y50.628 E20.81473
G1 X81.856 Y49.827 E20.85215
G1 X81.868 Y47.785 E20.94724
G1 X81.912 Y47.137 E20.97748
G1 X82.06 Y46.365 E21.01408
G1 X82.26 Y45.747 E21.04433
G1 X82.593 Y45.034 E21.08097
M204 S3000
M205 X10 Y10
G0 F3000 X83.068 Y45.331
M204 S1800
M205 X8 Y8
G1 F2400 X83.413 Y44.78 E21.11124
G1 X83.822 Y44.276 E21.14147
G1 X84.291 Y43.826 E21.17173
G1 X84.811 Y43.437 E21.20197
G1 X85.375 Y43.115 E21.23221
G1 X85.975 Y42.864 E21.2625
G1 X86.6 Y42.689 E21.29272
G1 X87.651 Y42.563 E21.34201
G1 X121.858 Y42.563 E22.93483
G1 X122.632 Y42.574 E22.97087
G1 X123.279 Y42.623 E23.00109
G1 X123.916 Y42.751 E23.03134
G1 X124.532 Y42.957 E23.06159
G1 X125.119 Y43.237 E23.09187
G1 X125.666 Y43.586 E23.12208
G1 X126.167 Y44 E23.15235
G1 X126.612 Y44.473 E23.18259
G1 X126.997 Y44.997 E23.21286
G1 X127.314 Y45.564 E23.24311
G1 X127.559 Y46.165 E23.27333
G1 X127.728 Y46.792 E23.30357
G1 X127.845 Y47.8 E23.35082
G1 X127.845 Y106.172 E26.06887
G1 X127.836 Y106.899 E26.10272
G1 X127.788 Y107.547 E26.13298
G1 X127.66 Y108.184 E26.16323
G1 X127.456 Y108.801 E26.19349
G1 X127.177 Y109.388 E26.22376
G1 X126.829 Y109.936 E26.25398
G1 X126.416 Y110.437 E26.28422
G1 X125.944 Y110.884 E26.31449
G1 X125.421 Y111.269 E26.34473
G1 X124.855 Y111.587 E26.37496
G1 X124.253 Y111.834 E26.40526
G1 X123.627 Y112.004 E26.43546
G1 X122.61 Y112.123 E26.48314
G1 X88.204 Y112.123 E28.08523
G1 X87.506 Y112.114 E28.11773
G1 X86.858 Y112.065 E28.14799
G1 X86.221 Y111.938 E28.17824
G1 X85.605 Y111.733 E28.20847
G1 X85.018 Y111.454 E28.23873
G1 X84.47 Y111.105 E28.26898
G1 X83.969 Y110.692 E28.29922
G1 X83.522 Y110.22 E28.32949
G1 X83.137 Y109.697 E28.35973
G1 X82.819 Y109.13 E28.39
G1 X82.573 Y108.529 E28.42024
G1 X82.403 Y107.902 E28.45049
G1 X82.285 Y106.882 E28.4983
G1 X82.286 Y83.468 E29.58855
G1 X82.297 Y82.758 E29.62162
G1 X82.36 Y82.022 E29.65601
G1 X82.557 Y80.763 E29.71535
G1 X82.566 Y80.641 E29.72105
G1 X82.745 Y79.522 E29.77382
G1 X83.093 Y76.854 E29.8991
G1 X83.365 Y74.188 E30.02389
G1 X83.56 Y71.527 E30.14813
G1 X83.682 Y68.824 E30.27412
G1 X83.725 Y66.187 E30.39692
G1 X83.694 Y63.482 E30.52289
G1 X83.587 Y60.812 E30.64731
G1 X83.402 Y58.114 E30.77324
G1 X83.148 Y55.486 E30.89618
G1 X82.813 Y52.815 E31.02153
G1 X82.652 Y51.783 E31.07016
G1 X82.48 Y50.58 E31.12675
G1 X82.416 Y49.83 E31.1618
G1 X82.427 Y47.823 E31.25525
G1 X82.471 Y47.175 E31.2855
G1 X82.593 Y46.537 E31.31574
G1 X82.793 Y45.919 E31.34599
G1 X83.068 Y45.331 E31.37622
M204 S3000
M205 X10 Y10
G1 F2400 E25.37622
;MESH:RopeBracket.stl
G0 F3000 X87.464 Y48.258
G0 X88.542 Y48.257
G0 X89.128 Y48.84
M204 S1800
M205 X8 Y8
;TYPE:WALL-INNER
G1 F2400 E31.37622
G1 F954.5 X112.564 Y48.84 E33.09108
M204 S3000
M205 X10 Y10
G0 F3000 X113.393 Y49.015
G0 X113.461 Y74.921
M204 S1800
M205 X8 Y8
G1 F1500 X113.139 Y75.126 E33.10886
G1 X88.964 Y83.825 E34.30521
G1 F1497.3 X88.965 Y93.756 E34.76846
G1 F1205.2 X89.099 Y94.149 E34.79252
G1 X89.328 Y93.803 E34.81657
G1 F1497.3 X89.658 Y93.085 E34.85343
G1 F1500 X90.098 Y92.504 E34.88737
G1 X90.494 Y92.145 E34.91226
G1 X91.046 Y91.803 E34.94249
G1 X91.796 Y91.516 E34.97989
G1 X92.648 Y91.434 E35.01974
G1 X93.392 Y91.54 E35.05474
G1 X94.247 Y91.87 E35.09741
G1 X94.812 Y92.291 E35.13022
G1 X95.262 Y92.762 E35.16055
G1 X95.644 Y93.382 E35.19446
G1 X95.894 Y94.186 E35.23367
G1 X95.939 Y94.473 E35.2472
G1 X95.948 Y95.154 E35.27891
G1 X95.83 Y95.807 E35.30981
G1 X95.556 Y96.469 E35.34317
G1 X95.175 Y97.022 E35.37444
G1 X94.667 Y97.53 E35.40789
G1 X93.838 Y98.009 E35.45247
G1 X93.154 Y98.191 E35.48543
G1 X92.527 Y98.24 E35.51472
G1 X91.803 Y98.167 E35.5486
G1 X91.017 Y97.881 E35.58755
G1 X90.463 Y97.512 E35.61854
G1 X89.98 Y97.047 E35.64976
G1 X89.592 Y96.488 E35.68145
G1 X89.312 Y95.806 E35.71578
G1 F1244.4 X89.08 Y95.245 E35.74985
G1 X88.964 Y95.841 E35.78393
G1 F1500 X88.964 Y105.44 E36.2309
G1 X121.164 Y105.44 E37.73026
G1 X121.164 Y95.728 E38.1825
G1 F1240.8 X121.047 Y95.302 E38.20736
G1 X120.85 Y95.698 E38.23226
G1 F1500 X120.768 Y95.97 E38.24549
G1 X120.479 Y96.587 E38.27722
G1 X120.077 Y97.128 E38.3086
G1 X119.509 Y97.621 E38.34362
G1 X118.997 Y97.916 E38.37114
G1 X118.675 Y98.052 E38.38741
G1 X118.01 Y98.209 E38.41923
G1 X117.512 Y98.24 E38.44246
G1 X116.801 Y98.167 E38.47575
G1 X116.021 Y97.882 E38.51441
G1 X115.485 Y97.532 E38.54422
G1 X115.062 Y97.15 E38.57076
G1 X114.659 Y96.621 E38.60173
G1 X114.355 Y95.989 E38.63438
G1 X114.154 Y95.042 E38.67946
G1 X114.202 Y94.313 E38.71348
G1 X114.353 Y93.707 E38.74256
G1 X114.73 Y92.937 E38.78248
G1 X115.193 Y92.402 E38.81543
G1 X115.54 Y92.107 E38.83664
G1 X116.16 Y91.735 E38.8703
G1 X116.856 Y91.51 E38.90436
G1 X117.482 Y91.45 E38.93365
G1 X118.177 Y91.502 E38.9661
G1 X118.508 Y91.585 E38.98199
G1 X119.069 Y91.801 E39.00998
G1 X119.388 Y91.976 E39.02692
G1 X119.914 Y92.389 E39.05806
G1 X120.351 Y92.901 E39.08941
G1 X120.703 Y93.56 E39.1242
G1 F1189.8 X121.018 Y94.089 E39.16034
G1 X121.164 Y93.491 E39.19648
G1 F1500 X121.164 Y49.24 E41.25699
G1 X113.809 Y49.24 E41.59947
G1 X113.857 Y49.301 E41.60308
G1 X113.964 Y49.84 E41.62867
G1 X113.964 Y73.995 E42.75343
G1 X113.898 Y74.272 E42.76669
G1 X113.716 Y74.642 E42.78589
G1 X113.461 Y74.921 E42.80349
M204 S3000
M205 X10 Y10
G0 F3000 X121.018 Y94.089
M204 S1800
M205 X8 Y8
G1 F1026.9 X121.052 Y94.507 E42.83201
G1 F1079.7 X121.058 Y95.04 E42.8665
G1 F1072.8 X121.047 Y95.302 E42.88357
M204 S3000
M205 X10 Y10
G0 F3000 X119.323 Y97.081
G0 X117.516 Y97.745
G0 X117.512 Y97.68
M204 S1800
M205 X8 Y8
G1 F1500 X116.925 Y97.616 E42.91106
G1 X116.275 Y97.379 E42.94328
G1 X115.849 Y97.107 E42.96681
G1 X115.503 Y96.796 E42.98848
G1 X115.163 Y96.36 E43.01422
G1 X114.886 Y95.804 E43.04315
G1 X114.721 Y95.014 E43.08073
G1 X114.754 Y94.403 E43.10922
G1 X114.899 Y93.86 E43.13539
G1 X115.197 Y93.258 E43.16667
G1 X115.583 Y92.804 E43.19442
G1 X115.882 Y92.55 E43.21268
G1 X116.402 Y92.25 E43.24064
G1 X116.932 Y92.072 E43.26667
G1 X117.535 Y92.007 E43.29491
G1 X118.198 Y92.066 E43.32591
G1 X118.978 Y92.367 E43.36484
G1 X119.504 Y92.771 E43.39572
G1 X119.873 Y93.193 E43.42182
G1 X120.168 Y93.725 E43.45015
G1 X120.377 Y94.404 E43.48323
G1 X120.394 Y95.124 E43.51677
G1 X120.252 Y95.753 E43.54679
G1 X120.016 Y96.272 E43.57334
G1 X119.686 Y96.727 E43.59951
G1 X119.229 Y97.136 E43.62807
G1 X118.617 Y97.49 E43.66099
G1 X117.971 Y97.651 E43.69199
G1 X117.512 Y97.68 E43.71341
M204 S3000
M205 X10 Y10
G0 F3000 X117.516 Y97.745
G0 X108.011 Y98.228
M204 S1800
M205 X8 Y8
G1 F1500 X107.22 Y98.229 E43.75024
G1 X106.324 Y98.026 E43.79302
G1 X105.589 Y97.609 E43.83237
G1 X105.065 Y97.161 E43.86447
G1 X104.638 Y96.576 E43.89819
G1 X104.344 Y95.963 E43.92985
G1 X104.157 Y95.051 E43.9732
G1 X104.2 Y94.323 E44.00716
G1 X104.371 Y93.661 E44.039
G1 X104.727 Y92.948 E44.0761
G1 X105.167 Y92.428 E44.10782
G1 X105.594 Y92.068 E44.13383
G1 X106.169 Y91.731 E44.16486
G1 X106.876 Y91.512 E44.19933
G1 X107.636 Y91.434 E44.2349
G1 X108.301 Y91.522 E44.26614
G1 X108.81 Y91.677 E44.29091
G1 X109.427 Y91.987 E44.32307
G1 X109.935 Y92.402 E44.35361
G1 X110.3 Y92.823 E44.37955
G1 X110.65 Y93.416 E44.41162
G1 X110.881 Y94.123 E44.44625
G1 X110.942 Y94.451 E44.46179
G1 X110.963 Y94.918 E44.48355
G1 X110.878 Y95.636 E44.51722
G1 X110.638 Y96.314 E44.55071
G1 X110.278 Y96.898 E44.58266
G1 X109.807 Y97.406 E44.61491
G1 X108.98 Y97.951 E44.66103
G1 X108.011 Y98.228 E44.70796
M204 S3000
M205 X10 Y10
G0 F3000 X107.906 Y97.667
M204 S1800
M205 X8 Y8
G1 F1500 X107.326 Y97.672 E44.73497
G1 X106.534 Y97.5 E44.77271
G1 X105.912 Y97.151 E44.80592
G1 X105.484 Y96.776 E44.83241
G1 X105.139 Y96.329 E44.85871
G1 X104.879 Y95.787 E44.8867
G1 X104.721 Y94.99 E44.92453
G1 X104.754 Y94.41 E44.95158
G1 X104.91 Y93.831 E44.97951
G1 X105.197 Y93.267 E45.00897
G1 X105.567 Y92.82 E45.03599
G1 X105.915 Y92.527 E45.05717
G1 X106.395 Y92.254 E45.08289
G1 X106.939 Y92.07 E45.10963
G1 X107.535 Y92.007 E45.13754
G1 X108.184 Y92.07 E45.1679
G1 X108.605 Y92.198 E45.18839
G1 X109.075 Y92.436 E45.21292
G1 X109.502 Y92.765 E45.23802
G1 X109.842 Y93.146 E45.2618
G1 X110.136 Y93.638 E45.28848
G1 X110.356 Y94.329 E45.32225
G1 X110.404 Y94.888 E45.34838
G1 X110.328 Y95.514 E45.37774
G1 X110.128 Y96.076 E45.40552
G1 X109.803 Y96.589 E45.43379
G1 X109.413 Y96.997 E45.46008
G1 X108.739 Y97.439 E45.49761
G1 X107.906 Y97.667 E45.53782
M204 S3000
M205 X10 Y10
G0 F3000 X107.906 Y97.726
G0 X92.525 Y97.745
G0 X92.521 Y97.68
M204 S1800
M205 X8 Y8
G1 F1500 X91.926 Y97.616 E45.56569
G1 X91.36 Y97.41 E45.59373
G1 X90.962 Y97.188 E45.61495
G1 X90.536 Y96.827 E45.64096
G1 X90.187 Y96.393 E45.66689
G1 X89.885 Y95.81 E45.69746
G1 X89.719 Y95.003 E45.73582
G1 X89.771 Y94.326 E45.76744
G1 X89.933 Y93.781 E45.79392
G1 X90.266 Y93.173 E45.8262
G1 X90.626 Y92.765 E45.85153
G1 X90.98 Y92.486 E45.87252
G1 X91.469 Y92.224 E45.89835
G1 X92.035 Y92.055 E45.92586
G1 X92.631 Y91.998 E45.95374
G1 X93.21 Y92.077 E45.98095
G1 X93.944 Y92.353 E46.01746
G1 X94.443 Y92.712 E46.04609
G1 X94.84 Y93.142 E46.07334
G1 X95.148 Y93.669 E46.10176
G1 X95.377 Y94.407 E46.13774
G1 X95.39 Y95.109 E46.17043
G1 X95.276 Y95.685 E46.19778
G1 X95.045 Y96.226 E46.22517
G1 X94.745 Y96.663 E46.24985
G1 X94.317 Y97.077 E46.27758
G1 X93.661 Y97.465 E46.31307
G1 X93.057 Y97.64 E46.34235
G1 X92.521 Y97.68 E46.36737
M204 S3000
M205 X10 Y10
G0 F3000 X92.525 Y97.745
G0 X91.286 Y97.383
G0 X89.08 Y95.245
M204 S1800
M205 X8 Y8
G1 F1083.9 X89.064 Y94.94 E46.38706
G1 F1055.3 X89.099 Y94.149 E46.43946
M204 S3000
M205 X10 Y10
G0 F3000 X90.57 Y92.837
G0 X113.233 Y74.559
G0 X113.182 Y74.414
M204 S1800
M205 X8 Y8
G1 F1500 X112.933 Y74.6 E46.45393
G1 X88.404 Y83.431 E47.66787
G1 X88.404 Y106 E48.71878
G1 X121.724 Y106 E50.2703
G1 X121.724 Y48.68 E52.93936
G1 X113.231 Y48.68 E53.33483
G1 F1166.7 X112.564 Y48.84 E53.37589
G1 X113.069 Y49.167 E53.41191
G1 F1500 X113.34 Y49.516 E53.43249
G1 X113.404 Y49.84 E53.44787
G1 X113.404 Y73.844 E54.56559
G1 X113.365 Y74.101 E54.5777
G1 X113.182 Y74.414 E54.59458
M204 S3000
M205 X10 Y10
G0 F3000 X113.233 Y74.559
G0 X114.724 Y95.005
G0 X114.884 Y95.796
G0 X115.481 Y96.778
G0 X116.286 Y97.383
G0 X117.578 Y97.741
G0 X117.532 Y97.12
M204 S1800
M205 X8 Y8
;TYPE:WALL-OUTER
G1 F1500 X117.024 Y97.056 E54.61842
G1 X116.552 Y96.884 E54.64181
G1 X116.209 Y96.677 E54.66047
G1 X115.898 Y96.399 E54.67989
G1 X115.625 Y96.043 E54.70078
G1 X115.426 Y95.635 E54.72192
G1 X115.284 Y94.96 E54.75404
G1 X115.307 Y94.494 E54.77576
G1 X115.422 Y94.06 E54.79667
G1 X115.683 Y93.548 E54.82343
G1 X115.987 Y93.193 E54.84519
G1 X116.224 Y92.994 E54.8596
G1 X116.627 Y92.763 E54.88123
G1 X117.054 Y92.618 E54.90223
G1 X117.589 Y92.565 E54.92726
G1 X118.105 Y92.63 E54.95148
G1 X118.7 Y92.86 E54.98118
G1 X119.094 Y93.153 E55.00405
G1 X119.395 Y93.485 E55.02491
G1 X119.632 Y93.889 E55.04672
G1 X119.819 Y94.497 E55.07634
G1 X119.832 Y95.04 E55.10164
G1 X119.735 Y95.537 E55.12522
G1 X119.579 Y95.909 E55.144
G1 X119.296 Y96.325 E55.16743
G1 X118.949 Y96.651 E55.1896
G1 X118.406 Y96.965 E55.2188
G1 X117.932 Y97.092 E55.24165
G1 X117.532 Y97.12 E55.26033
M204 S3000
M205 X10 Y10
