;FLAVOR:Marlin
;TIME:2856
;Filament used: 2.67485m
;Layer height: 0.2
;MINX:68.1
;MINY:81.098
;MINZ:0.2
;MAXX:141.9
;MAXY:128.9
;MAXZ:14.075
;TARGET_MACHINE.NAME:Anycubic i3 Mega
;Generated with Cura_SteamEngine 5.7.2
M140 S60
M105
M190 S60
M104 S210
M105
M109 S210
M82 ;absolute extrusion mode
G21 ;metric values
G90 ;absolute positioning
M82 ;set extruder to absolute mode
M107 ;start with the fan off
G28 X0 Y0 ;move X/Y to min endstops
G28 Z0 ;move Z to min endstops
G1 Z15.0 F100 ;move the platform down 15mm
G92 E0 ;zero the extruded length
G1 F200 E3 ;extrude 3mm of feed stock
G92 E0 ;zero the extruded length again
G1 F100
G0 Y20 F100
M117 Printing...
G5
G92 E0
G92 E0
G1 F2400 E-6
;LAYER_COUNT:70
;LAYER:0
M107
M204 S3000
M205 X10 Y10
G1 F600 Z0.275
G0 F3000 X70.41 Y82.596 Z0.275
M204 S1800
M205 X8 Y8
;TYPE:SKIRT
G1 F600 Z0.2
G1 F2400 E0
G1 X71.044 Y82.131 E0.03661
G1 X71.795 Y81.715 E0.07659
G1 X72.461 Y81.447 E0.11002
G1 X73.238 Y81.239 E0.14747
G1 X74.456 Y81.1 E0.20455
G1 X93.809 Y81.1 E1.10571
G1 X94.588 Y81.111 E1.14199
G1 X95.666 Y81.217 E1.19243
G1 X96.875 Y81.442 E1.24969
G1 X99.547 Y81.9 E1.37592
G1 X102.125 Y82.267 E1.49717
G1 X104.757 Y82.567 E1.62053
G1 X107.392 Y82.791 E1.74366
G1 X110.048 Y82.94 E1.86753
G1 X112.717 Y83.016 E1.99186
G1 X115.325 Y83.016 E2.1133
G1 X117.993 Y82.94 E2.23759
G1 X120.638 Y82.791 E2.36094
G1 X123.296 Y82.564 E2.48516
G1 X125.895 Y82.27 E2.60695
G1 X128.503 Y81.898 E2.72962
G1 X131.173 Y81.44 E2.85577
G1 X132.4 Y81.209 E2.9139
G1 X133.487 Y81.098 E2.96478
G1 X135.596 Y81.111 E3.06299
G1 X136.244 Y81.155 E3.09323
G1 X137.15 Y81.329 E3.13619
G1 X137.768 Y81.529 E3.16643
G1 X138.609 Y81.922 E3.20966
G1 X139.272 Y82.347 E3.24633
G1 X139.875 Y82.848 E3.28284
G1 X140.37 Y83.37 E3.31633
G1 X140.88 Y84.06 E3.35629
G1 X141.262 Y84.745 E3.39281
G1 X141.535 Y85.407 E3.42615
G1 X141.755 Y86.18 E3.46357
G1 X141.9 Y87.453 E3.52323
G1 X141.9 Y121.843 E5.12458
G1 X141.891 Y122.57 E5.15843
G1 X141.82 Y123.427 E5.19847
G1 X141.659 Y124.193 E5.23492
G1 X141.43 Y124.872 E5.26829
G1 X141.093 Y125.582 E5.30488
G1 X140.712 Y126.19 E5.33829
G1 X140.121 Y126.908 E5.3816
G1 X139.599 Y127.397 E5.4149
G1 X139.023 Y127.826 E5.44834
G1 X138.216 Y128.28 E5.49146
G1 X137.546 Y128.55 E5.5251
G1 X136.772 Y128.758 E5.56242
G1 X135.545 Y128.9 E5.61993
G1 X75.125 Y128.9 E8.43334
G1 X74.427 Y128.891 E8.46584
G1 X73.571 Y128.82 E8.50584
G1 X72.866 Y128.675 E8.53935
G1 X72.06 Y128.402 E8.57898
G1 X71.415 Y128.091 E8.61232
G1 X70.748 Y127.666 E8.64915
G1 X70.09 Y127.119 E8.68899
G1 X69.601 Y126.597 E8.7223
G1 X69.134 Y125.963 E8.75897
G1 X68.779 Y125.338 E8.79243
G1 X68.45 Y124.548 E8.83228
G1 X68.247 Y123.816 E8.86765
G1 X68.1 Y122.539 E8.92751
G1 X68.1 Y88.087 E10.53174
G1 X68.109 Y87.422 E10.56271
G1 X68.18 Y86.57 E10.60252
G1 X68.325 Y85.869 E10.63585
G1 X68.575 Y85.118 E10.67271
G1 X68.948 Y84.346 E10.71263
G1 X69.378 Y83.686 E10.74931
G1 X69.884 Y83.087 E10.78582
G1 X70.41 Y82.596 E10.81933
M204 S3000
M205 X10 Y10
G0 F3000 X70.741 Y83.048
M204 S1800
M205 X8 Y8
G1 F2400 X71.375 Y82.583 E10.85594
G1 X72.004 Y82.235 E10.88941
G1 X72.67 Y81.967 E10.92284
G1 X73.38 Y81.781 E10.95701
G1 X74.456 Y81.66 E11.00743
G1 X93.801 Y81.66 E11.90822
G1 X94.58 Y81.671 E11.94449
G1 X95.564 Y81.768 E11.99054
G1 X96.773 Y81.993 E12.0478
G1 X99.452 Y82.452 E12.17436
G1 X102.052 Y82.822 E12.29665
G1 X104.71 Y83.125 E12.42122
G1 X107.348 Y83.349 E12.5445
G1 X110.032 Y83.5 E12.66967
G1 X112.701 Y83.576 E12.794
G1 X115.341 Y83.576 E12.91693
G1 X118.009 Y83.5 E13.04122
G1 X120.683 Y83.349 E13.16593
G1 X123.344 Y83.122 E13.29028
G1 X125.968 Y82.825 E13.41325
G1 X128.598 Y82.45 E13.53695
G1 X131.268 Y81.992 E13.66309
G1 X132.459 Y81.766 E13.71954
G1 X133.484 Y81.658 E13.76753
G1 X135.558 Y81.67 E13.86411
G1 X136.206 Y81.714 E13.89435
G1 X136.978 Y81.862 E13.93095
G1 X137.596 Y82.062 E13.9612
G1 X138.309 Y82.395 E13.99784
G1 X138.916 Y82.78 E14.03131
G1 X139.471 Y83.236 E14.06476
G1 X139.921 Y83.705 E14.09503
G1 X140.392 Y84.335 E14.13165
G1 X140.745 Y84.961 E14.16512
G1 X140.996 Y85.561 E14.1954
G1 X141.205 Y86.294 E14.23089
G1 X141.34 Y87.453 E14.28523
G1 X141.34 Y121.836 E15.88624
G1 X141.331 Y122.563 E15.9201
G1 X141.272 Y123.314 E15.95518
G1 X141.127 Y124.017 E15.9886
G1 X140.923 Y124.634 E16.01886
G1 X140.618 Y125.285 E16.05233
G1 X140.237 Y125.893 E16.08574
G1 X139.736 Y126.501 E16.12243
G1 X139.264 Y126.948 E16.1527
G1 X138.688 Y127.377 E16.18614
G1 X138.003 Y127.762 E16.22273
G1 X137.401 Y128.009 E16.25303
G1 X136.627 Y128.217 E16.29035
G1 X135.545 Y128.34 E16.34106
G1 X75.132 Y128.34 E19.15414
G1 X74.434 Y128.331 E19.18664
G1 X73.684 Y128.271 E19.22168
G1 X72.979 Y128.126 E19.25519
G1 X72.3 Y127.896 E19.28857
G1 X71.713 Y127.617 E19.31884
G1 X71.104 Y127.234 E19.35234
G1 X70.497 Y126.734 E19.38896
G1 X70.05 Y126.262 E19.41923
G1 X69.621 Y125.686 E19.45267
G1 X69.266 Y125.061 E19.48614
G1 X68.99 Y124.398 E19.51958
G1 X68.787 Y123.666 E19.55495
G1 X68.66 Y122.539 E19.60776
G1 X68.66 Y88.095 E21.21162
G1 X68.669 Y87.43 E21.24258
G1 X68.729 Y86.68 E21.27762
G1 X68.857 Y86.043 E21.30787
G1 X69.08 Y85.359 E21.34137
G1 X69.419 Y84.649 E21.37801
G1 X69.808 Y84.045 E21.41146
G1 X70.269 Y83.494 E21.44491
G1 X70.741 Y83.048 E21.47515
M204 S3000
M205 X10 Y10
G0 F3000 X71.126 Y83.455
M204 S1800
M205 X8 Y8
G1 F2400 X71.649 Y83.071 E21.50537
G1 X72.216 Y82.753 E21.53564
G1 X72.817 Y82.507 E21.56587
G1 X73.444 Y82.337 E21.59612
G1 X74.456 Y82.22 E21.64356
G1 X93.793 Y82.22 E22.54397
G1 X94.572 Y82.231 E22.58025
G1 X95.462 Y82.319 E22.62189
G1 X96.671 Y82.544 E22.67916
G1 X99.357 Y83.004 E22.80605
G1 X101.983 Y83.377 E22.92955
G1 X104.663 Y83.683 E23.05516
G1 X107.306 Y83.907 E23.17867
G1 X110.016 Y84.06 E23.30506
G1 X112.685 Y84.136 E23.42939
G1 X115.357 Y84.136 E23.55381
G1 X118.025 Y84.06 E23.67809
G1 X120.728 Y83.907 E23.80416
G1 X123.392 Y83.68 E23.92865
G1 X126.041 Y83.38 E24.05279
G1 X128.693 Y83.002 E24.17753
G1 X131.363 Y82.544 E24.30367
G1 X132.52 Y82.323 E24.35852
G1 X133.481 Y82.218 E24.40353
G1 X135.52 Y82.229 E24.49848
G1 X136.168 Y82.273 E24.52872
G1 X136.806 Y82.395 E24.55897
G1 X137.424 Y82.595 E24.58921
G1 X138.012 Y82.87 E24.61944
G1 X138.563 Y83.215 E24.64971
G1 X139.067 Y83.624 E24.67993
G1 X139.517 Y84.093 E24.7102
G1 X139.906 Y84.613 E24.74044
G1 X140.228 Y85.177 E24.77068
G1 X140.479 Y85.777 E24.80096
G1 X140.654 Y86.402 E24.83118
G1 X140.78 Y87.453 E24.88047
G1 X140.78 Y121.829 E26.48116
G1 X140.771 Y122.556 E26.51502
G1 X140.723 Y123.204 E26.54528
G1 X140.595 Y123.841 E26.57553
G1 X140.391 Y124.458 E26.60579
G1 X140.112 Y125.045 E26.63605
G1 X139.764 Y125.593 E26.66628
G1 X139.351 Y126.094 E26.69651
G1 X138.879 Y126.541 E26.72678
G1 X138.356 Y126.926 E26.75702
G1 X137.79 Y127.244 E26.78725
G1 X137.188 Y127.491 E26.81755
G1 X136.562 Y127.661 E26.84776
G1 X135.545 Y127.78 E26.89544
G1 X75.139 Y127.78 E29.70819
G1 X74.441 Y127.771 E29.7407
G1 X73.793 Y127.722 E29.77096
G1 X73.156 Y127.595 E29.8012
G1 X72.54 Y127.39 E29.83143
G1 X71.953 Y127.111 E29.8617
G1 X71.405 Y126.762 E29.89195
G1 X70.904 Y126.349 E29.92218
G1 X70.457 Y125.877 E29.95245
G1 X70.072 Y125.354 E29.98269
G1 X69.754 Y124.787 E30.01296
G1 X69.508 Y124.186 E30.0432
G1 X69.338 Y123.559 E30.07345
G1 X69.22 Y122.539 E30.12126
G1 X69.22 Y88.103 E31.72475
G1 X69.229 Y87.438 E31.75572
G1 X69.278 Y86.79 E31.78598
G1 X69.406 Y86.153 E31.81623
G1 X69.611 Y85.536 E31.84651
G1 X69.891 Y84.95 E31.87675
G1 X70.24 Y84.402 E31.907
G1 X70.654 Y83.901 E31.93726
G1 X71.126 Y83.455 E31.9675
M204 S3000
M205 X10 Y10
G1 F2400 E25.9675
;MESH:RopeBracket.stl
G0 F3000 X74.914 Y86.835
G0 X74.914 Y87.914
G0 X84.095 Y89.016
M204 S1800
M205 X8 Y8
;TYPE:WALL-INNER
G1 F2400 E31.9675
G1 F1083.9 X84.4 Y89 E31.98718
G1 F1063.3 X85.143 Y89.03 E32.03603
M204 S3000
M205 X10 Y10
G0 F3000 X86.729 Y90.732
G0 X87.273 Y91.869
G0 X87.301 Y92.992
G0 X86.733 Y94.266
G0 X85.493 Y95.166
G0 X84.354 Y95.4
G0 X84.356 Y95.335
M204 S1800
M205 X8 Y8
G1 F1500 X83.765 Y95.241 E32.06389
G1 X83.248 Y95.053 E32.08951
G1 X82.675 Y94.679 E32.12137
G1 X82.189 Y94.165 E32.15431
G1 X81.88 Y93.591 E32.18467
G1 X81.72 Y93.09 E32.20915
G1 X81.66 Y92.552 E32.23436
G1 X81.697 Y92.02 E32.25919
G1 X81.785 Y91.657 E32.27659
G1 X82.005 Y91.147 E32.30245
G1 X82.366 Y90.607 E32.33269
G1 X83.008 Y90.068 E32.37173
G1 X83.647 Y89.797 E32.40405
G1 X84.335 Y89.655 E32.43676
G1 X84.987 Y89.701 E32.46719
G1 X85.416 Y89.814 E32.48785
G1 X85.924 Y90.046 E32.51386
G1 X86.387 Y90.378 E32.54039
G1 X86.724 Y90.725 E32.56291
G1 X87.097 Y91.328 E32.59593
G1 X87.282 Y91.953 E32.62628
G1 X87.335 Y92.495 E32.65163
G1 X87.278 Y93.07 E32.67854
G1 X87.134 Y93.56 E32.70232
G1 X86.731 Y94.267 E32.74021
G1 X86.202 Y94.781 E32.77456
G1 X85.494 Y95.163 E32.81202
G1 X84.918 Y95.308 E32.83968
G1 X84.356 Y95.335 E32.86588
M204 S3000
M205 X10 Y10
G0 F3000 X84.354 Y95.4
G0 X81.699 Y107.008
G0 X81.728 Y108.131
G0 X82.318 Y109.315
G0 X84.236 Y110.887
M204 S1800
M205 X8 Y8
G1 F1500 X83.509 Y110.761 E32.90023
G1 X82.704 Y110.402 E32.94128
G1 X81.935 Y109.751 E32.98819
G1 X81.5 Y109.082 E33.02535
G1 X81.35 Y108.772 E33.04139
G1 X81.169 Y108.186 E33.06994
G1 X81.1 Y107.552 E33.09964
G1 X81.131 Y107.054 E33.12287
G1 X81.288 Y106.389 E33.15469
G1 X81.425 Y106.064 E33.17111
G1 X81.725 Y105.548 E33.19891
G1 X82.208 Y104.992 E33.2332
G1 X82.729 Y104.583 E33.26404
G1 X83.433 Y104.269 E33.29994
G1 X84.3 Y104.09 E33.34116
G1 X84.993 Y104.133 E33.37349
G1 X85.552 Y104.266 E33.40025
G1 X86.142 Y104.515 E33.43007
G1 X86.699 Y104.901 E33.46162
G1 X87.186 Y105.403 E33.49419
G1 X87.664 Y106.224 E33.53843
G1 X87.845 Y106.896 E33.57083
G1 X87.893 Y107.547 E33.60123
G1 X87.839 Y108.131 E33.62854
G1 X87.707 Y108.616 E33.65194
G1 X87.43 Y109.235 E33.68352
G1 X87.059 Y109.737 E33.71259
G1 X86.545 Y110.222 E33.74549
G1 X85.778 Y110.649 E33.78637
G1 X85.012 Y110.869 E33.82348
G1 X84.236 Y110.887 E33.85962
M204 S3000
M205 X10 Y10
G0 F3000 X84.301 Y110.331
M204 S1800
M205 X8 Y8
G1 F1500 X83.667 Y110.22 E33.88959
G1 X83.026 Y109.933 E33.9223
G1 X82.363 Y109.381 E33.96247
G1 X81.91 Y108.685 E34.00114
G1 X81.72 Y108.09 E34.03022
G1 X81.66 Y107.552 E34.05543
G1 X81.69 Y107.093 E34.07685
G1 X81.85 Y106.446 E34.10788
G1 X82.209 Y105.829 E34.14112
G1 X82.609 Y105.382 E34.16905
G1 X82.964 Y105.11 E34.18988
G1 X83.545 Y104.819 E34.22013
G1 X84.319 Y104.659 E34.25694
G1 X84.87 Y104.683 E34.28262
G1 X85.314 Y104.778 E34.30376
G1 X85.857 Y105.002 E34.33111
G1 X86.31 Y105.311 E34.35664
G1 X86.737 Y105.742 E34.38489
G1 X87.135 Y106.43 E34.42191
G1 X87.295 Y106.998 E34.44938
G1 X87.334 Y107.508 E34.4732
G1 X87.291 Y108.016 E34.49694
G1 X87.148 Y108.526 E34.5216
G1 X86.968 Y108.907 E34.54122
G1 X86.636 Y109.37 E34.56775
G1 X86.196 Y109.785 E34.59592
G1 X85.513 Y110.149 E34.63195
G1 X84.929 Y110.311 E34.66017
G1 X84.301 Y110.331 E34.68943
M204 S3000
M205 X10 Y10
G0 F3000 X84.29 Y110.392
G0 X81.809 Y116.584
G0 X81.658 Y117.571
G0 X81.915 Y118.69
G0 X82.363 Y119.384
G0 X83.006 Y119.924
G0 X84.403 Y120.399
G0 X84.4 Y120.336
M204 S1800
M205 X8 Y8
G1 F1500 X83.76 Y120.236 E34.71959
G1 X83.013 Y119.93 E34.75718
G1 X82.458 Y119.463 E34.79096
G1 X82.295 Y119.277 E34.80247
G1 X81.908 Y118.681 E34.83556
G1 X81.714 Y118.052 E34.86621
G1 X81.66 Y117.552 E34.88963
G1 X81.69 Y117.089 E34.91124
G1 X81.785 Y116.657 E34.93183
G1 X82.005 Y116.148 E34.95765
G1 X82.367 Y115.612 E34.98777
G1 X82.99 Y115.089 E35.02565
G1 X83.545 Y114.824 E35.05428
G1 X84.104 Y114.684 E35.08112
G1 X84.701 Y114.665 E35.10893
G1 X85.197 Y114.742 E35.1323
G1 X85.763 Y114.949 E35.16037
G1 X86.341 Y115.332 E35.19265
G1 X86.785 Y115.817 E35.22327
G1 X87.071 Y116.297 E35.24929
G1 X87.266 Y116.864 E35.27721
G1 X87.33 Y117.345 E35.2998
G1 X87.306 Y117.904 E35.32586
G1 X87.147 Y118.551 E35.35688
G1 X86.729 Y119.265 E35.3954
G1 X86.275 Y119.713 E35.4251
G1 X85.906 Y119.961 E35.44581
G1 X85.394 Y120.19 E35.47192
G1 X84.941 Y120.304 E35.49367
G1 X84.4 Y120.336 E35.51891
M204 S3000
M205 X10 Y10
G0 F3000 X85.059 Y120.977
M204 S1800
M205 X8 Y8
G1 F1033.2 X84.304 Y121.001 E35.56997
G1 F992.9 X83.634 Y120.942 E35.61729
M204 S3000
M205 X10 Y10
G0 F3000 X111.081 Y113.838
M204 S1800
M205 X8 Y8
G1 F1500 X110.719 Y113.666 E35.63595
G1 X110.338 Y113.288 E35.66094
G1 X93.758 Y88.9 E37.03413
G1 X85.715 Y88.901 E37.40864
G1 F1421.3 X85.443 Y88.931 E37.42209
G1 F1165 X85.143 Y89.03 E37.44103
G1 X85.413 Y89.194 E37.45997
G1 F1383.9 X86.136 Y89.514 E37.49988
G1 F1460.9 X86.564 Y89.801 E37.52451
G1 F1500 X87.157 Y90.36 E37.56246
G1 X87.516 Y90.94 E37.59422
G1 X87.656 Y91.241 E37.60968
G1 X87.838 Y91.885 E37.64084
G1 X87.894 Y92.526 E37.6708
G1 X87.817 Y93.22 E37.70332
G1 X87.636 Y93.824 E37.73268
G1 X87.163 Y94.635 E37.77639
G1 X86.536 Y95.234 E37.81677
G1 X85.689 Y95.694 E37.86165
G1 X84.996 Y95.863 E37.89487
G1 X84.372 Y95.901 E37.92398
G1 X83.68 Y95.805 E37.95651
G1 X82.987 Y95.553 E37.99085
G1 X82.317 Y95.11 E38.02825
G1 X81.847 Y94.618 E38.05993
G1 X81.662 Y94.366 E38.07449
G1 X81.35 Y93.772 E38.10573
G1 X81.169 Y93.186 E38.13429
G1 X81.1 Y92.552 E38.16398
G1 X81.143 Y91.936 E38.19274
G1 X81.242 Y91.519 E38.21269
G1 X81.496 Y90.913 E38.24329
G1 X81.851 Y90.37 E38.2735
G1 X82.094 Y90.105 E38.29024
G1 X82.55 Y89.72 E38.31803
G1 X82.853 Y89.526 E38.33478
G1 X83.534 Y89.248 E38.36903
G1 F1244.4 X84.095 Y89.016 E38.40311
G1 X83.499 Y88.9 E38.43718
G1 F1500 X75.9 Y88.9 E38.79103
G1 X75.901 Y121.099 E40.29035
G1 F1497.3 X83.243 Y121.098 E40.63283
G1 F1169.9 X83.634 Y120.942 E40.65796
G1 X83.331 Y120.686 E40.68165
G1 F1497.3 X82.88 Y120.481 E40.70476
G1 F1500 X82.553 Y120.275 E40.72275
G1 X82.098 Y119.891 E40.75047
G1 X81.825 Y119.582 E40.76967
G1 X81.5 Y119.082 E40.79744
G1 X81.35 Y118.772 E40.81348
G1 X81.158 Y118.115 E40.84535
G1 X81.1 Y117.552 E40.87171
G1 X81.131 Y117.051 E40.89508
G1 X81.242 Y116.519 E40.92038
G1 X81.496 Y115.913 E40.95098
G1 X81.94 Y115.241 E40.98848
G1 X82.69 Y114.6 E41.03442
G1 X83.365 Y114.293 E41.06895
G1 X84.043 Y114.128 E41.10145
G1 X84.687 Y114.094 E41.13147
G1 X85.427 Y114.23 E41.16651
G1 X86.025 Y114.451 E41.1962
G1 X86.71 Y114.906 E41.23449
G1 X87.244 Y115.487 E41.27123
G1 X87.607 Y116.107 E41.30469
G1 X87.812 Y116.737 E41.33554
G1 X87.886 Y117.277 E41.36092
G1 X87.865 Y117.943 E41.39194
G1 X87.71 Y118.608 E41.42374
G1 X87.568 Y118.94 E41.44055
G1 X87.176 Y119.611 E41.47674
G1 X86.599 Y120.17 E41.51415
G1 X86.15 Y120.465 E41.53916
G1 X85.534 Y120.732 E41.57042
G1 F1228.1 X85.059 Y120.977 E41.60082
G1 X85.58 Y121.1 E41.63127
G1 F1500 X134.1 Y121.1 E43.89056
G1 X134.1 Y113.746 E44.233
G1 X134.04 Y113.793 E44.23654
G1 X133.5 Y113.9 E44.26218
G1 X111.35 Y113.9 E45.29357
G1 X111.081 Y113.838 E45.30643
M204 S3000
M205 X10 Y10
G0 F3000 X111.133 Y113.258
M204 S1800
M205 X8 Y8
G1 F1500 X110.863 Y113.054 E45.32219
G1 X94.055 Y88.34 E46.7139
G1 X75.34 Y88.34 E47.58534
G1 X75.341 Y121.659 E49.13682
G1 X134.66 Y121.66 E51.89896
G1 X134.66 Y113.166 E52.29447
G1 F1155.4 X134.493 Y112.674 E52.32588
G1 X134.174 Y113.004 E52.35363
G1 F1500 X133.824 Y113.276 E52.37427
G1 X133.5 Y113.34 E52.38965
G1 X111.387 Y113.34 E53.41932
G1 X111.133 Y113.258 E53.43175
M204 S3000
M205 X10 Y10
G0 F3000 X111.133 Y113.4
G0 X134.328 Y113.328
G0 X134.493 Y112.674
M204 S1800
M205 X8 Y8
G1 F947 X134.5 Y112.5 E53.44459
G1 F954.5 X134.5 Y88.5 E55.20073
M204 S3000
M205 X10 Y10
G0 F3000 X134.328 Y113.328
G0 X133.581 Y112.78
M204 S1800
M205 X8 Y8
;TYPE:WALL-OUTER
G1 F1500 X111.447 Y112.776 E56.23138
G1 X111.285 Y112.685 E56.24003
G1 X94.351 Y87.78 E57.64239
G1 X74.78 Y87.78 E58.5537
G1 X74.781 Y122.219 E60.15733
G1 X135.22 Y122.22 E62.97162
G1 X135.22 Y87.78 E64.57529
G1 X133.78 Y87.78 E64.64234
G1 X133.777 Y112.549 E65.79569
G1 X133.725 Y112.668 E65.80174
G1 X133.581 Y112.78 E65.81023
M204 S3000
M205 X10 Y10
G0 F3000 X133.381 Y112.78
G0 X133.381 Y113.4
G0 X111.059 Y113.335
G0 X84.258 Y110.386
G0 X84.367 Y109.775
M204 S1800
M205 X8 Y8
G1 F1500 X83.828 Y109.677 E65.83574
G1 X83.305 Y109.444 E65.8624
G1 X82.788 Y109.008 E65.89389
G1 X82.421 Y108.444 E65.92523
G1 X82.282 Y108.035 E65.94534
G1 X82.22 Y107.532 E65.96894
G1 X82.248 Y107.132 E65.98761
