;FLAVOR:Marlin
;TIME:24944
;Filament used: 41.2365m
;Layer height: 0.4
;MINX:0
;MINY:0
;MINZ:0.2
;MAXX:210
;MAXY:208.153
;MAXZ:19.8
;TARGET_MACHINE.NAME:Anycubic i3 Mega
;Generated with Cura_SteamEngine 5.7.2
M140 S60
M105
M190 S60
M104 S210
M105
M109 S210
M82 ;absolute extrusion mode
G21 ;metric values
G90 ;absolute positioning
M82 ;set extruder to absolute mode
M107 ;start with the fan off
G28 X0 Y0 ;move X/Y to min endstops
G28 Z0 ;move Z to min endstops
G1 Z15.0 F100 ;move the platform down 15mm
G92 E0 ;zero the extruded length
G1 F200 E3 ;extrude 3mm of feed stock
G92 E0 ;zero the extruded length again
G1 F100
G0 Y20 F100
M117 Printing...
G5
G92 E0
G92 E0
G1 F2400 E-6
;LAYER_COUNT:50
;LAYER:0
M107
M204 S3000
M205 X10 Y10
G1 F600 Z0.275
G0 F3000 X72.098 Y0.00 Z0.275
M204 S1800
M205 X8 Y8
;TYPE:SKIRT
G1 F600 Z0.2
G1 F2400 E0
G1 X0.00 Y148.018 E7.66649
M204 S3000
M205 X10 Y10
G0 F3000 X0.00 Y149.296
M204 S1800
M205 X8 Y8
G1 F2400 X72.514 Y0.427 E15.37708
G1 X72.73 Y0.00 E15.39936
M204 S3000
M205 X10 Y10
G0 F3000 X73.368 Y0.00
M204 S1800
M205 X8 Y8
G1 F2400 X73.295 Y0.125 E15.4061
G1 X73.014 Y0.68 E15.43507
G1 X0.00 Y150.574 E23.19877
M204 S3000
M205 X10 Y10
G1 F2400 E17.19877
G0 F3000 X1.847 Y208.153
G0 X208.153 Y208.153
G0 X210 Y148.019
M204 S1800
M205 X8 Y8
G1 F2400 E23.19877
G1 X137.899 Y0.00 E30.86536
M204 S3000
M205 X10 Y10
G0 F3000 X137.263 Y0.00
M204 S1800
M205 X8 Y8
G1 F2400 X137.401 Y0.254 E30.87882
G1 X210 Y149.297 E38.59843
M204 S3000
M205 X10 Y10
G0 F3000 X210 Y150.575
M204 S1800
M205 X8 Y8
G1 F2400 X136.898 Y0.499 E46.37154
G1 X136.625 Y0.00 E46.39802
M204 S3000
M205 X10 Y10
G1 F2400 E40.39802
;MESH:Cross2PartBody.stl
G0 F3000 X132.71 Y2.443
G0 X131.74 Y2.916
G0 X123.363 Y15.242
G0 X122.771 Y15.841
G0 X119.616 Y17.789
M204 S1800
M205 X8 Y8
;TYPE:WALL-INNER
G1 F2400 E46.39802
G1 F1500 X118.887 Y17.686 E46.43231
G1 X117.986 Y17.4 E46.47632
G1 X117.389 Y17.117 E46.50709
G1 X116.616 Y16.576 E46.55102
G1 X116.159 Y16.156 E46.57992
G1 X115.522 Y15.347 E46.62787
G1 X115.045 Y14.405 E46.67704
G1 X114.798 Y13.53 E46.71937
G1 X114.7 Y12.536 E46.76588
G1 X114.725 Y11.944 E46.79347
G1 X114.922 Y10.958 E46.84029
G1 X115.186 Y10.264 E46.87487
G1 X115.622 Y9.501 E46.91579
G1 X116.277 Y8.72 E46.96325
G1 X116.955 Y8.137 E47.00489
G1 X117.657 Y7.745 E47.04233
G1 X118.254 Y7.49 E47.07255
G1 X119.263 Y7.242 E47.12094
G1 X120.302 Y7.201 E47.16935
G1 X121.166 Y7.323 E47.20998
G1 X121.878 Y7.537 E47.2446
G1 X122.806 Y7.999 E47.29287
G1 X123.637 Y8.634 E47.34157
G1 X124.336 Y9.443 E47.39136
G1 X124.855 Y10.363 E47.44054
G1 X125.185 Y11.376 E47.49015
G1 X125.3 Y12.448 E47.54036
G1 X125.218 Y13.444 E47.58689
G1 X125.054 Y14.077 E47.61734
G1 X124.779 Y14.79 E47.65292
G1 X124.478 Y15.328 E47.68163
G1 X124.088 Y15.867 E47.71261
G1 X123.401 Y16.563 E47.75814
G1 X122.927 Y16.916 E47.78566
G1 X122.15 Y17.343 E47.82695
G1 X121.218 Y17.661 E47.8728
G1 X120.555 Y17.767 E47.90407
G1 X119.616 Y17.789 E47.9478
M204 S3000
M205 X10 Y10
G0 F3000 X119.678 Y17.228
M204 S1800
M205 X8 Y8
G1 F1500 X118.99 Y17.131 E47.98016
G1 X118.132 Y16.856 E48.02211
G1 X117.669 Y16.628 E48.04614
G1 X116.944 Y16.122 E48.08731
G1 X116.548 Y15.746 E48.11274
G1 X116.002 Y15.047 E48.15404
G1 X115.578 Y14.214 E48.19756
G1 X115.361 Y13.467 E48.23378
G1 X115.26 Y12.52 E48.27813
G1 X115.286 Y12.005 E48.30214
G1 X115.462 Y11.112 E48.34452
G1 X115.693 Y10.505 E48.37476
G1 X116.083 Y9.823 E48.41135
G1 X116.679 Y9.112 E48.45455
G1 X117.281 Y8.596 E48.49147
G1 X118.024 Y8.189 E48.53091
G1 X118.492 Y8.009 E48.55426
G1 X119.339 Y7.799 E48.5949
G1 X120.273 Y7.762 E48.63842
G1 X121.052 Y7.873 E48.67506
G1 X121.67 Y8.059 E48.70511
G1 X122.506 Y8.474 E48.74857
G1 X123.251 Y9.044 E48.79225
G1 X123.876 Y9.766 E48.83672
G1 X124.339 Y10.586 E48.88057
G1 X124.634 Y11.49 E48.92485
G1 X124.741 Y12.419 E48.96839
G1 X124.67 Y13.281 E49.00866
G1 X124.53 Y13.878 E49.03722
G1 X124.273 Y14.551 E49.07076
G1 X123.937 Y15.135 E49.10214
G1 X123.623 Y15.546 E49.12622
G1 X123.035 Y16.139 E49.1651
G1 X122.63 Y16.444 E49.18871
G1 X121.955 Y16.812 E49.22451
G1 X121.074 Y17.115 E49.26789
G1 X120.549 Y17.206 E49.2927
G1 X119.678 Y17.228 E49.33327
M204 S3000
M205 X10 Y10
G0 F3000 X119.679 Y17.29
G0 X89.606 Y17.785
M204 S1800
M205 X8 Y8
G1 F1500 X88.891 Y17.683 E49.3669
G1 X87.919 Y17.377 E49.41435
G1 X87.365 Y17.098 E49.44324
G1 X86.586 Y16.552 E49.48753
G1 X86.151 Y16.142 E49.51537
G1 X85.524 Y15.339 E49.56281
G1 X85.064 Y14.447 E49.60954
G1 X84.8 Y13.547 E49.65321
G1 X84.694 Y12.512 E49.70166
G1 X84.747 Y11.833 E49.73337
G1 X84.926 Y10.961 E49.77482
G1 X85.197 Y10.251 E49.81021
G1 X85.62 Y9.503 E49.85022
G1 X86.277 Y8.72 E49.89782
G1 X86.955 Y8.137 E49.93946
G1 X87.657 Y7.745 E49.9769
G1 X88.254 Y7.49 E50.00712
G1 X89.263 Y7.242 E50.05551
G1 X90.302 Y7.201 E50.10392
G1 X91.166 Y7.323 E50.14455
G1 X91.878 Y7.537 E50.17917
G1 X92.806 Y7.999 E50.22744
G1 X93.638 Y8.635 E50.27621
G1 X94.334 Y9.442 E50.32583
G1 X94.835 Y10.322 E50.37298
G1 X95.172 Y11.331 E50.42252
G1 X95.304 Y12.41 E50.47313
G1 X95.212 Y13.452 E50.52184
G1 X95.084 Y14 E50.54805
G1 X94.778 Y14.792 E50.58758
G1 X94.433 Y15.402 E50.62021
G1 X94.065 Y15.894 E50.64882
G1 X93.449 Y16.52 E50.68972
G1 X92.959 Y16.895 E50.71845
G1 X92.168 Y17.336 E50.76062
G1 X91.283 Y17.638 E50.80416
G1 X90.62 Y17.766 E50.8356
G1 X89.606 Y17.785 E50.88283
M204 S3000
M205 X10 Y10
G0 F3000 X89.672 Y17.228
M204 S1800
M205 X8 Y8
G1 F1500 X88.977 Y17.128 E50.91552
G1 X88.126 Y16.853 E50.95717
G1 X87.698 Y16.644 E50.97935
G1 X86.939 Y16.117 E51.02237
G1 X86.564 Y15.764 E51.04635
G1 X85.996 Y15.037 E51.08931
G1 X85.574 Y14.204 E51.13279
G1 X85.352 Y13.441 E51.1698
G1 X85.257 Y12.512 E51.21328
G1 X85.296 Y11.943 E51.23984
G1 X85.464 Y11.116 E51.27913
G1 X85.7 Y10.496 E51.31002
G1 X86.082 Y9.824 E51.34602
G1 X86.679 Y9.112 E51.38928
G1 X87.281 Y8.596 E51.4262
G1 X88.024 Y8.189 E51.46565
G1 X88.492 Y8.009 E51.489
G1 X89.339 Y7.799 E51.52963
G1 X90.273 Y7.762 E51.57316
G1 X91.052 Y7.873 E51.6098
G1 X91.67 Y8.059 E51.63985
G1 X92.506 Y8.474 E51.68331
G1 X93.251 Y9.044 E51.72699
G1 X93.876 Y9.767 E51.77149
G1 X94.334 Y10.582 E51.81502
G1 X94.63 Y11.492 E51.85958
G1 X94.741 Y12.417 E51.90296
G1 X94.668 Y13.303 E51.94436
G1 X94.546 Y13.832 E51.96964
G1 X94.272 Y14.552 E52.00551
G1 X93.964 Y15.096 E52.03462
G1 X93.649 Y15.519 E52.05917
G1 X93.063 Y16.114 E52.09806
G1 X92.62 Y16.448 E52.12389
G1 X91.947 Y16.816 E52.15961
G1 X91.082 Y17.113 E52.2022
G1 X90.567 Y17.204 E52.22655
G1 X89.672 Y17.228 E52.26824
M204 S3000
M205 X10 Y10
G0 F3000 X89.673 Y17.29
G0 X85.26 Y127.52
G0 X85.35 Y128.431
G0 X85.573 Y129.201
G0 X85.995 Y130.039
G0 X86.564 Y130.767
G0 X89.613 Y132.789
M204 S1800
M205 X8 Y8
G1 F1500 X88.878 Y132.685 E52.30281
G1 X87.986 Y132.4 E52.34641
G1 X87.4 Y132.123 E52.37659
G1 X86.612 Y131.573 E52.42134
G1 X86.15 Y131.141 E52.45079
G1 X85.52 Y130.339 E52.49828
G1 X85.053 Y129.424 E52.54611
G1 X84.804 Y128.559 E52.58803
G1 X84.7 Y127.532 E52.63609
G1 X84.73 Y126.933 E52.66402
G1 X84.926 Y125.959 E52.71028
G1 X85.19 Y125.265 E52.74486
G1 X85.623 Y124.503 E52.78567
G1 X86.286 Y123.712 E52.83373
G1 X86.966 Y123.13 E52.8754
G1 X87.762 Y122.692 E52.91771
G1 X88.233 Y122.502 E52.94136
G1 X89.223 Y122.247 E52.98896
G1 X90.309 Y122.202 E53.03957
G1 X91.176 Y122.325 E53.08035
G1 X91.884 Y122.545 E53.11487
G1 X92.791 Y122.99 E53.16191
G1 X93.634 Y123.633 E53.21128
G1 X94.33 Y124.436 E53.26076
G1 X94.852 Y125.359 E53.31014
G1 X95.184 Y126.376 E53.35996
G1 X95.301 Y127.398 E53.40786
G1 X95.212 Y128.452 E53.45711
G1 X95.054 Y129.077 E53.48713
G1 X94.778 Y129.792 E53.52281
G1 X94.433 Y130.402 E53.55545
G1 X94.065 Y130.894 E53.58406
G1 X93.449 Y131.52 E53.62495
G1 X92.959 Y131.895 E53.65368
G1 X92.165 Y132.337 E53.696
G1 X91.232 Y132.653 E53.74187
G1 X90.597 Y132.764 E53.77188
G1 X89.613 Y132.789 E53.81772
M204 S3000
M205 X10 Y10
G0 F3000 X89.651 Y132.227
M204 S1800
M205 X8 Y8
G1 F1500 X89.033 Y132.141 E53.84677
G1 X88.146 Y131.862 E53.89007
G1 X87.652 Y131.617 E53.91574
G1 X86.922 Y131.104 E53.95729
G1 X86.564 Y130.763 E53.98031
G1 X85.981 Y130.013 E54.02455
G1 X85.574 Y129.212 E54.06638
G1 X85.352 Y128.422 E54.10459
G1 X85.26 Y127.518 E54.1469
G1 X85.286 Y127.003 E54.17091
G1 X85.464 Y126.115 E54.21309
G1 X85.696 Y125.504 E54.24352
G1 X86.073 Y124.843 E54.27895
G1 X86.663 Y124.133 E54.32194
G1 X87.273 Y123.6 E54.35966
G1 X87.993 Y123.202 E54.39796
G1 X88.418 Y123.031 E54.4193
G1 X89.331 Y122.799 E54.46316
G1 X90.27 Y122.765 E54.50691
G1 X91.031 Y122.871 E54.54269
G1 X91.674 Y123.064 E54.57395
G1 X92.486 Y123.467 E54.61616
G1 X93.256 Y124.05 E54.66113
G1 X93.872 Y124.763 E54.70501
G1 X94.337 Y125.579 E54.74874
G1 X94.634 Y126.491 E54.7934
G1 X94.74 Y127.428 E54.83731
G1 X94.668 Y128.303 E54.87819
G1 X94.538 Y128.856 E54.90465
G1 X94.272 Y129.552 E54.93934
G1 X93.964 Y130.096 E54.96845
G1 X93.649 Y130.519 E54.99301
G1 X93.063 Y131.114 E55.03189
G1 X92.62 Y131.448 E55.05773
G1 X91.94 Y131.819 E55.0938
G1 X91.104 Y132.107 E55.13497
G1 X90.588 Y132.202 E55.1594
G1 X89.651 Y132.227 E55.20305
M204 S3000
M205 X10 Y10
G0 F3000 X89.643 Y132.288
G0 X119.61 Y132.789
M204 S1800
M205 X8 Y8
G1 F1500 X118.867 Y132.681 E55.23801
G1 X117.917 Y132.373 E55.28451
G1 X117.386 Y132.115 E55.312
G1 X116.616 Y131.576 E55.35577
G1 X116.159 Y131.156 E55.38467
G1 X115.522 Y130.347 E55.43261
G1 X115.044 Y129.405 E55.4818
G1 X114.799 Y128.533 E55.52398
G1 X114.694 Y127.523 E55.57126
G1 X114.736 Y126.893 E55.60066
G1 X114.923 Y125.954 E55.64524
G1 X115.189 Y125.258 E55.67994
G1 X115.628 Y124.494 E55.72097
G1 X116.294 Y123.709 E55.76891
G1 X116.955 Y123.137 E55.80961
G1 X117.695 Y122.725 E55.84905
G1 X118.297 Y122.481 E55.87929
G1 X119.24 Y122.245 E55.92456
G1 X120.315 Y122.206 E55.97465
G1 X121.172 Y122.326 E56.01494
G1 X121.883 Y122.539 E56.0495
G1 X122.806 Y123.001 E56.09756
G1 X123.633 Y123.635 E56.14609
G1 X124.33 Y124.44 E56.19567
G1 X124.847 Y125.348 E56.24432
G1 X125.185 Y126.379 E56.29484
G1 X125.302 Y127.428 E56.34399
G1 X125.215 Y128.433 E56.39097
G1 X125.083 Y128.993 E56.41776
G1 X124.779 Y129.789 E56.45743
G1 X124.434 Y130.399 E56.49006
G1 X124.088 Y130.867 E56.51717
G1 X123.429 Y131.538 E56.56096
G1 X122.936 Y131.914 E56.58983
G1 X122.16 Y132.34 E56.63105
G1 X121.28 Y132.639 E56.67433
G1 X120.628 Y132.765 E56.70525
G1 X119.61 Y132.789 E56.75266
M204 S3000
M205 X10 Y10
G0 F3000 X119.672 Y132.228
M204 S1800
M205 X8 Y8
G1 F1500 X119.043 Y132.143 E56.78222
G1 X118.157 Y131.866 E56.82544
G1 X117.669 Y131.628 E56.85073
G1 X116.944 Y131.122 E56.89189
G1 X116.548 Y130.746 E56.91732
G1 X116.002 Y130.047 E56.95862
G1 X115.578 Y129.214 E57.00215
G1 X115.361 Y128.467 E57.03837
G1 X115.262 Y127.56 E57.08085
G1 X115.292 Y126.961 E57.10878
G1 X115.464 Y126.104 E57.14948
G1 X115.709 Y125.478 E57.18078
G1 X116.068 Y124.85 E57.21447
G1 X116.687 Y124.108 E57.25946
G1 X117.272 Y123.603 E57.29545
G1 X118.007 Y123.196 E57.33457
G1 X118.474 Y123.013 E57.35792
G1 X119.333 Y122.8 E57.39913
G1 X120.279 Y122.765 E57.44321
G1 X121.079 Y122.882 E57.48086
G1 X121.677 Y123.063 E57.50995
G1 X122.511 Y123.478 E57.55333
G1 X123.257 Y124.051 E57.59713
G1 X123.88 Y124.774 E57.64157
G1 X124.34 Y125.586 E57.68503
G1 X124.635 Y126.515 E57.73041
G1 X124.74 Y127.428 E57.77321
G1 X124.66 Y128.358 E57.81667
G1 X124.547 Y128.828 E57.83918
G1 X124.273 Y129.55 E57.87514
G1 X123.965 Y130.094 E57.90425
G1 X123.663 Y130.503 E57.92792
G1 X123.051 Y131.125 E57.96855
G1 X122.66 Y131.421 E57.99139
G1 X121.933 Y131.826 E58.03014
G1 X121.051 Y132.121 E58.07345
G1 X120.596 Y132.201 E58.09496
G1 X119.672 Y132.228 E58.138
M204 S3000
M205 X10 Y10
G0 F3000 X119.673 Y132.29
G0 X144.172 Y143.328
G0 X184.162 Y143.739
M204 S1800
M205 X8 Y8
G1 F1500 X183.844 Y143.86 E58.15385
G1 X183.561 Y143.9 E58.16715
G1 X144.931 Y143.899 E59.96593
G1 X144.474 Y143.798 E59.98772
G1 X144.219 Y143.663 E60.00116
G1 X143.829 Y143.269 E60.02697
G1 X143.676 Y142.958 E60.04311
G1 X143.6 Y142.544 E60.06271
G1 X143.6 Y63.548 E63.74109
G1 X143.659 Y63.195 E63.75776
G1 X143.747 Y62.973 E63.76888
G1 X143.962 Y62.659 E63.7866
G1 X144.203 Y62.448 E63.80151
G1 X144.595 Y62.259 E63.82178
G1 X145.039 Y62.184 E63.84275
G1 X145.498 Y62.251 E63.86435
G1 X145.968 Y62.51 E63.88933
G1 X146.17 Y62.719 E63.90287
G1 X146.327 Y62.97 E63.91665
G1 X184.812 Y141.978 E68.00884
G1 X184.869 Y142.168 E68.01807
G1 X184.905 Y142.602 E68.03835
G1 X184.859 Y142.87 E68.05101
G1 X184.652 Y143.309 E68.07362
G1 X184.374 Y143.601 E68.09239
G1 X184.162 Y143.739 E68.10417
M204 S3000
M205 X10 Y10
G0 F3000 X184.155 Y143.037
M204 S1800
M205 X8 Y8
G1 F1500 X183.86 Y143.264 E68.1215
G1 X183.54 Y143.34 E68.13681
G1 X144.918 Y143.337 E69.93522
G1 X144.63 Y143.255 E69.94916
G1 X144.444 Y143.131 E69.95957
G1 X144.217 Y142.807 E69.97799
G1 X144.161 Y142.551 E69.99019
G1 X144.16 Y63.569 E73.66793
G1 X144.276 Y63.172 E73.68718
G1 X144.465 Y62.951 E73.70073
G1 X144.625 Y62.847 E73.70961
G1 X144.93 Y62.755 E73.72445
G1 X145.117 Y62.745 E73.73317
G1 X145.398 Y62.811 E73.74661
G1 X145.671 Y62.998 E73.76201
G1 X145.824 Y63.216 E73.77442
G1 X184.299 Y142.215 E77.86602
G1 X184.341 Y142.388 E77.87431
G1 X184.319 Y142.722 E77.88989
G1 X184.155 Y143.037 E77.90643
M204 S3000
M205 X10 Y10
G0 F3000 X184.155 Y143.4
G0 X206.1 Y157.819
M204 S1800
M205 X8 Y8
G1 F1500 X131.124 Y3.9 E85.87863
G1 X78.876 Y3.9 E88.31152
G1 X3.901 Y157.819 E96.2837
G1 X3.9 Y206.1 E98.53186
G1 X206.1 Y206.1 E107.94714
G1 X206.1 Y157.819 E110.19531
M204 S3000
M205 X10 Y10
G0 F3000 X206.66 Y157.69
M204 S1800
M205 X8 Y8
G1 F1500 X131.474 Y3.34 E118.18983
G1 X78.526 Y3.34 E120.65531
G1 X3.341 Y157.69 E128.64982
G1 X3.34 Y206.66 E130.93006
G1 X206.66 Y206.66 E140.39749
G1 X206.66 Y157.69 E142.67774
M204 S3000
M205 X10 Y10
G0 F3000 X206.605 Y157.716
G0 X197.048 Y198.836
G0 X196.168 Y200.503
G0 X195.534 Y201.144
G0 X194.738 Y201.661
G0 X192.12 Y202.79
M204 S1800
M205 X8 Y8
G1 F1500 X191.386 Y202.687 E142.71226
G1 X190.53 Y202.414 E142.75409
G1 X189.902 Y202.129 E142.78621
G1 X189.163 Y201.61 E142.82826
G1 X188.657 Y201.156 E142.85991
G1 X188.012 Y200.334 E142.90856
G1 X187.55 Y199.402 E142.957
G1 X187.304 Y198.536 E142.99892
G1 X187.2 Y197.528 E143.04611
G1 X187.225 Y196.942 E143.07342
G1 X187.426 Y195.946 E143.12073
G1 X187.688 Y195.26 E143.15492
G1 X188.125 Y194.496 E143.19591
G1 X188.77 Y193.728 E143.24261
G1 X189.32 Y193.257 E143.27633
G1 X189.806 Y192.929 E143.30363
G1 X190.733 Y192.495 E143.35129
G1 X191.758 Y192.244 E143.40043
G1 X192.811 Y192.201 E143.4495
G1 X193.667 Y192.328 E143.4898
G1 X194.372 Y192.54 E143.52408
G1 X195.298 Y193.001 E143.57224
G1 X196.133 Y193.629 E143.62089
G1 X196.855 Y194.475 E143.67268
G1 X197.345 Y195.352 E143.71946
G1 X197.684 Y196.363 E143.76911
G1 X197.8 Y197.384 E143.81696
G1 X197.712 Y198.454 E143.86695
G1 X197.554 Y199.077 E143.89688
G1 X197.28 Y199.796 E143.93271
G1 X196.978 Y200.328 E143.96119
G1 X196.6 Y200.86 E143.99158
G1 X195.896 Y201.574 E144.03827
G1 X195.346 Y201.964 E144.06967
G1 X194.662 Y202.339 E144.10599
G1 X193.82 Y202.626 E144.14741
G1 X193.139 Y202.765 E144.17978
G1 X192.12 Y202.79 E144.22724
M204 S3000
M205 X10 Y10
G0 F3000 X192.156 Y202.229
M204 S1800
M205 X8 Y8
G1 F1500 X191.505 Y202.138 E144.25785
G1 X190.7 Y201.881 E144.29719
G1 X190.179 Y201.639 E144.32394
G1 X189.485 Y201.152 E144.36342
G1 X189.062 Y200.765 E144.39012
G1 X188.489 Y200.034 E144.43337
G1 X188.072 Y199.2 E144.47679
G1 X187.854 Y198.432 E144.51396
G1 X187.76 Y197.515 E144.55688
G1 X187.786 Y197.001 E144.58085
G1 X187.959 Y196.134 E144.62202
G1 X188.192 Y195.505 E144.65325
G1 X188.605 Y194.797 E144.69142
G1 X189.162 Y194.134 E144.73174
G1 X189.659 Y193.703 E144.76237
G1 X190.116 Y193.402 E144.78785
G1 X190.938 Y193.024 E144.82998
G1 X191.806 Y192.807 E144.87164
G1 X192.753 Y192.761 E144.91579
G1 X193.548 Y192.875 E144.95319
G1 X194.168 Y193.062 E144.98334
G1 X195.003 Y193.477 E145.02676
G1 X195.751 Y194.044 E145.07046
G1 X196.37 Y194.766 E145.11475
G1 X196.833 Y195.579 E145.15831
G1 X197.134 Y196.489 E145.20294
G1 X197.236 Y197.432 E145.24711
G1 X197.16 Y198.358 E145.29037
G1 X197.062 Y198.776 E145.31037
G1 X196.786 Y199.52 E145.34732
