;FLAVOR:Marlin
;TIME:12751
;Filament used: 16.0209m
;Layer height: 0.2
;MINX:65.233
;MINY:47.307
;MINZ:0.2
;MAXX:144.955
;MAXY:161.602
;MAXZ:28
;TARGET_MACHINE.NAME:Anycubic i3 Mega
;Generated with Cura_SteamEngine 5.7.2
M140 S60
M105
M190 S60
M104 S210
M105
M109 S210
M82 ;absolute extrusion mode
G21 ;metric values
G90 ;absolute positioning
M82 ;set extruder to absolute mode
M107 ;start with the fan off
G28 X0 Y0 ;move X/Y to min endstops
G28 Z0 ;move Z to min endstops
G1 Z15.0 F100 ;move the platform down 15mm
G92 E0 ;zero the extruded length
G1 F200 E3 ;extrude 3mm of feed stock
G92 E0 ;zero the extruded length again
G1 F100
G0 Y20 F100
M117 Printing...
G5
G92 E0
G92 E0
G1 F2400 E-6
;LAYER_COUNT:140
;LAYER:0
M107
M204 S3000
M205 X10 Y10
G1 F600 Z0.275
G0 F3000 X66.472 Y50.377 Z0.275
M204 S1800
M205 X8 Y8
;TYPE:SKIRT
G1 F600 Z0.2
G1 F2400 E0
G1 X66.927 Y49.822 E0.03342
G1 X67.602 Y49.184 E0.07667
G1 X68.181 Y48.765 E0.10995
G1 X68.867 Y48.381 E0.14655
G1 X69.595 Y48.083 E0.18318
G1 X70.288 Y47.891 E0.21667
G1 X71.591 Y47.735 E0.27777
G1 X128.501 Y47.735 E2.92774
G1 X131.16 Y47.697 E3.05157
G1 X133.811 Y47.586 E3.17512
G1 X137.358 Y47.322 E3.34074
G1 X138.007 Y47.307 E3.37097
G1 X138.787 Y47.376 E3.40743
G1 X139.697 Y47.581 E3.45086
G1 X140.371 Y47.828 E3.48429
G1 X141.129 Y48.217 E3.52396
G1 X141.899 Y48.741 E3.56733
G1 X142.566 Y49.319 E3.60843
G1 X143.191 Y50.008 E3.65174
G1 X143.787 Y50.892 E3.70139
G1 X144.177 Y51.574 E3.73797
G1 X144.433 Y52.171 E3.76822
G1 X144.73 Y53.167 E3.81661
G1 X144.896 Y54.123 E3.86179
G1 X144.932 Y54.692 E3.88834
G1 X144.949 Y55.708 E3.93566
G1 X144.951 Y102.548 E6.11672
G1 X144.943 Y103.584 E6.16497
G1 X144.955 Y105.734 E6.26508
G1 X144.947 Y154.263 E8.52479
G1 X144.867 Y155.151 E8.56631
G1 X144.668 Y156.082 E8.61064
G1 X144.405 Y156.928 E8.65189
G1 X144.085 Y157.631 E8.68786
G1 X143.816 Y158.089 E8.71259
G1 X143.389 Y158.738 E8.74877
G1 X142.893 Y159.39 E8.78691
G1 X142.443 Y159.858 E8.81715
G1 X141.723 Y160.443 E8.86034
G1 X141.054 Y160.853 E8.89688
G1 X140.466 Y161.127 E8.92709
G1 X139.652 Y161.394 E8.96698
G1 X138.806 Y161.552 E9.00705
G1 X137.897 Y161.602 E9.04944
G1 X136.588 Y161.508 E9.11055
G1 X133.94 Y161.355 E9.23406
G1 X131.216 Y161.276 E9.36095
G1 X129.805 Y161.265 E9.42666
G1 X72.326 Y161.266 E12.10312
G1 X71.551 Y161.255 E12.13921
G1 X70.765 Y161.193 E12.17592
G1 X69.927 Y161.02 E12.21577
G1 X69.311 Y160.814 E12.24601
G1 X68.475 Y160.415 E12.28915
G1 X67.819 Y159.987 E12.32562
G1 X67.269 Y159.527 E12.35901
G1 X66.773 Y159.006 E12.3925
G1 X66.264 Y158.32 E12.43228
G1 X65.879 Y157.633 E12.46895
G1 X65.581 Y156.904 E12.50562
G1 X65.379 Y156.172 E12.54098
G1 X65.234 Y154.893 E12.60092
G1 X65.233 Y54.816 E17.26092
G1 X65.244 Y54.052 E17.2965
G1 X65.315 Y53.198 E17.3364
G1 X65.461 Y52.499 E17.36965
G1 X65.711 Y51.749 E17.40647
G1 X66.083 Y50.977 E17.44637
G1 X66.472 Y50.377 E17.47966
M204 S3000
M205 X10 Y10
G0 F3000 X66.905 Y50.732
M204 S1800
M205 X8 Y8
G1 F2400 X67.36 Y50.177 E17.51308
G1 X67.933 Y49.636 E17.54978
G1 X68.457 Y49.252 E17.58003
G1 X69.082 Y48.898 E17.61347
G1 X69.745 Y48.623 E17.6469
G1 X70.438 Y48.431 E17.68038
G1 X71.591 Y48.295 E17.73444
G1 X128.509 Y48.295 E20.38478
G1 X131.184 Y48.257 E20.50935
G1 X133.835 Y48.145 E20.63291
G1 X137.371 Y47.882 E20.79801
G1 X138.02 Y47.867 E20.82824
G1 X138.735 Y47.934 E20.86168
G1 X139.504 Y48.107 E20.89838
G1 X140.178 Y48.354 E20.93181
G1 X140.816 Y48.681 E20.96519
G1 X141.534 Y49.166 E21.00554
G1 X142.154 Y49.698 E21.04358
G1 X142.727 Y50.322 E21.08302
G1 X143.302 Y51.172 E21.13081
G1 X143.662 Y51.795 E21.16431
G1 X143.918 Y52.392 E21.19456
G1 X144.179 Y53.264 E21.23694
G1 X144.337 Y54.159 E21.27926
G1 X144.372 Y54.701 E21.30455
G1 X144.389 Y55.708 E21.35145
G1 X144.391 Y102.544 E23.53233
G1 X144.383 Y103.58 E23.58057
G1 X144.395 Y105.734 E23.68087
G1 X144.389 Y154.215 E25.93835
G1 X144.319 Y155.034 E25.97663
G1 X144.12 Y155.965 E26.02096
G1 X143.895 Y156.698 E26.05666
G1 X143.602 Y157.347 E26.08982
G1 X143.333 Y157.805 E26.11455
G1 X142.942 Y158.401 E26.14774
G1 X142.489 Y159.002 E26.18279
G1 X142.039 Y159.47 E26.21302
G1 X141.428 Y159.967 E26.24969
G1 X140.817 Y160.345 E26.28315
G1 X140.229 Y160.619 E26.31336
G1 X139.546 Y160.844 E26.34684
G1 X138.773 Y160.993 E26.3835
G1 X137.937 Y161.043 E26.42249
G1 X136.628 Y160.949 E26.4836
G1 X133.956 Y160.795 E26.60823
G1 X131.232 Y160.716 E26.73512
G1 X129.809 Y160.705 E26.80139
G1 X72.334 Y160.706 E29.47766
G1 X71.559 Y160.695 E29.51375
G1 X70.81 Y160.635 E29.54874
G1 X70.105 Y160.489 E29.58227
G1 X69.489 Y160.283 E29.61251
G1 X68.779 Y159.944 E29.64915
G1 X68.176 Y159.555 E29.68256
G1 X67.675 Y159.141 E29.71282
G1 X67.179 Y158.62 E29.74632
G1 X66.751 Y158.044 E29.77973
G1 X66.396 Y157.418 E29.81324
G1 X66.121 Y156.755 E29.84667
G1 X65.93 Y156.063 E29.88009
G1 X65.794 Y154.893 E29.93494
G1 X65.793 Y54.824 E34.59457
G1 X65.804 Y54.06 E34.63015
G1 X65.864 Y53.309 E34.66523
G1 X65.993 Y52.673 E34.69545
G1 X66.216 Y51.99 E34.72891
G1 X66.555 Y51.279 E34.76558
G1 X66.905 Y50.732 E34.79582
M204 S3000
M205 X10 Y10
G0 F3000 X67.377 Y51.034
M204 S1800
M205 X8 Y8
G1 F2400 X67.791 Y50.534 E34.82605
G1 X68.264 Y50.088 E34.85632
G1 X68.788 Y49.704 E34.88657
G1 X69.355 Y49.387 E34.91682
G1 X69.956 Y49.142 E34.94704
G1 X70.584 Y48.972 E34.97734
G1 X71.591 Y48.855 E35.02454
G1 X128.517 Y48.855 E37.67525
G1 X131.192 Y48.817 E37.79983
G1 X133.875 Y48.703 E37.92487
G1 X136.802 Y48.492 E38.06152
G1 X137.384 Y48.442 E38.08872
G1 X138.033 Y48.427 E38.11895
G1 X138.68 Y48.491 E38.14922
G1 X139.314 Y48.634 E38.17948
G1 X139.925 Y48.854 E38.20972
G1 X140.505 Y49.147 E38.23998
G1 X141.169 Y49.591 E38.27717
G1 X141.789 Y50.123 E38.31521
G1 X142.313 Y50.699 E38.35147
G1 X142.819 Y51.455 E38.39383
G1 X143.147 Y52.016 E38.42409
G1 X143.403 Y52.613 E38.45434
G1 X143.628 Y53.363 E38.4908
G1 X143.778 Y54.196 E38.53021
G1 X143.812 Y54.711 E38.55425
G1 X143.829 Y55.708 E38.60068
G1 X143.831 Y102.54 E40.78137
G1 X143.823 Y103.576 E40.82961
G1 X143.835 Y105.734 E40.9301
G1 X143.831 Y154.17 E43.18548
G1 X143.771 Y154.917 E43.22038
G1 X143.572 Y155.848 E43.26471
G1 X143.383 Y156.47 E43.29498
G1 X143.119 Y157.063 E43.3252
G1 X142.85 Y157.521 E43.34994
G1 X142.474 Y158.094 E43.38185
G1 X142.085 Y158.614 E43.41209
G1 X141.635 Y159.082 E43.44232
G1 X141.131 Y159.492 E43.47257
G1 X140.58 Y159.837 E43.50285
G1 X139.992 Y160.111 E43.53305
G1 X139.374 Y160.311 E43.5633
G1 X138.736 Y160.434 E43.59355
G1 X137.977 Y160.484 E43.62897
G1 X136.668 Y160.39 E43.69008
G1 X133.972 Y160.235 E43.81583
G1 X131.248 Y160.156 E43.94272
G1 X129.813 Y160.145 E44.00954
G1 X72.342 Y160.146 E46.68563
G1 X71.567 Y160.135 E46.72172
G1 X70.92 Y160.086 E46.75194
G1 X70.283 Y159.958 E46.78219
G1 X69.667 Y159.752 E46.81243
G1 X69.08 Y159.472 E46.84272
G1 X68.533 Y159.123 E46.87293
G1 X68.032 Y158.709 E46.90319
G1 X67.587 Y158.236 E46.93343
G1 X67.202 Y157.712 E46.96371
G1 X66.885 Y157.145 E46.99396
G1 X66.64 Y156.544 E47.02418
G1 X66.471 Y155.917 E47.05442
G1 X66.354 Y154.893 E47.10241
G1 X66.353 Y54.832 E51.76167
G1 X66.364 Y54.068 E51.79725
G1 X66.413 Y53.42 E51.82751
G1 X66.542 Y52.784 E51.85773
G1 X66.747 Y52.167 E51.888
G1 X67.027 Y51.581 E51.91824
G1 X67.377 Y51.034 E51.94848
M204 S3000
M205 X10 Y10
G1 F2400 E45.94848
G1 F600 Z0.275
G0 F3000 X126.112 Y91.712 Z0.275
M204 S1800
M205 X8 Y8
G1 F600 Z0.2
G1 F2400 E51.94848
G1 X126.322 Y91.59 E51.95979
G1 X126.835 Y91.404 E51.9852
G1 X127.366 Y91.324 E52.0102
G1 X127.871 Y91.347 E52.03374
G1 X128.418 Y91.482 E52.05998
G1 X128.655 Y91.579 E52.0719
G1 X128.89 Y91.715 E52.08454
G1 X129.007 Y91.973 E52.09774
G1 X128.92 Y92.097 E52.10479
G1 X128.924 Y92.177 E52.10852
G1 X128.878 Y92.198 E52.11087
G1 X128.784 Y92.356 E52.11943
G1 X128.627 Y93.123 E52.15589
G1 X128.622 Y93.156 E52.15744
G1 X128.558 Y93.948 E52.19444
G1 X128.558 Y93.994 E52.19658
G1 X128.63 Y94.867 E52.23737
G1 X128.634 Y94.899 E52.23888
G1 X128.784 Y95.649 E52.27449
G1 X128.851 Y95.781 E52.28138
G1 X128.917 Y95.818 E52.28491
G1 X128.912 Y95.853 E52.28655
G1 X128.966 Y95.991 E52.29345
G1 X129.01 Y96.019 E52.29588
G1 X128.881 Y96.296 E52.31011
G1 X128.431 Y96.514 E52.33339
G1 X127.909 Y96.664 E52.35868
G1 X127.399 Y96.678 E52.38244
G1 X126.835 Y96.598 E52.40896
G1 X126.602 Y96.528 E52.42029
G1 X126.143 Y96.308 E52.44399
G1 X125.998 Y96.014 E52.45926
G1 X126.077 Y95.889 E52.46614
G1 X126.071 Y95.813 E52.46969
G1 X126.131 Y95.782 E52.47284
G1 X126.217 Y95.629 E52.48101
G1 X126.377 Y94.799 E52.52037
G1 X126.381 Y94.765 E52.52197
G1 X126.444 Y93.825 E52.56583
G1 X126.442 Y93.765 E52.56863
G1 X126.235 Y92.375 E52.63407
G1 X126.175 Y92.239 E52.64099
G1 X126.082 Y92.182 E52.64607
G1 X126.087 Y92.15 E52.64758
G1 X126.033 Y92.012 E52.65448
G1 X125.985 Y91.981 E52.65714
G1 X126.112 Y91.712 E52.67099
M204 S3000
M205 X10 Y10
G0 F3000 X126.711 Y92.045
M204 S1800
M205 X8 Y8
G1 F2400 X126.976 Y91.949 E52.68411
G1 X127.399 Y91.886 E52.70403
G1 X127.787 Y91.903 E52.72211
G1 X128.244 Y92.016 E52.74403
G1 X128.307 Y92.042 E52.74721
G1 X128.235 Y92.244 E52.75719
G1 X128.078 Y93.011 E52.79365
G1 X128.064 Y93.111 E52.79835
G1 X128 Y93.903 E52.83535
G1 X128 Y94.04 E52.84173
G1 X128.072 Y94.913 E52.88251
G1 X128.085 Y95.009 E52.88703
G1 X128.235 Y95.759 E52.92264
G1 X128.306 Y95.952 E52.93222
G1 X128.229 Y95.989 E52.93619
G1 X127.824 Y96.106 E52.95582
G1 X127.433 Y96.117 E52.97404
G1 X126.952 Y96.049 E52.99666
G1 X126.803 Y96.004 E53.00391
G1 X126.691 Y95.95 E53.0097
G1 X126.703 Y95.932 E53.0107
G1 X126.767 Y95.735 E53.02035
G1 X126.927 Y94.905 E53.05971
G1 X126.94 Y94.802 E53.06454
G1 X127.003 Y93.862 E53.10841
G1 X126.996 Y93.682 E53.1168
G1 X126.789 Y92.292 E53.18224
G1 X126.712 Y92.046 E53.19424
M204 S3000
M205 X10 Y10
G0 F3000 X127.379 Y92.454
M204 S1800
M205 X8 Y8
G1 F2400 X127.421 Y92.448 E53.19621
G1 X127.619 Y92.457 E53.20544
G1 X127.529 Y92.898 E53.2264
G1 X127.506 Y93.066 E53.2343
G1 X127.494 Y93.221 E53.24154
G1 X127.379 Y92.454 E53.27765
M204 S3000
M205 X10 Y10
G1 F2400 E47.27765
G0 F3000 X127.501 Y94.805
M204 S1800
M205 X8 Y8
G1 F2400 E53.27765
G1 X127.514 Y94.959 E53.28485
G1 X127.536 Y95.119 E53.29237
G1 X127.623 Y95.552 E53.31293
G1 X127.466 Y95.557 E53.32025
G1 X127.374 Y95.543 E53.32458
G1 X127.477 Y95.011 E53.34981
G1 X127.499 Y94.84 E53.35784
G1 X127.501 Y94.805 E53.35947
M204 S3000
M205 X10 Y10
G1 F2400 E47.35947
G1 F600 Z0.275
G0 F3000 X129.196 Y104.412 Z0.275
M204 S1800
M205 X8 Y8
G1 F600 Z0.2
G1 F2400 E53.35947
G1 X129.543 Y104.412 E53.37563
G1 X129.461 Y104.583 E53.38446
G1 X129.385 Y104.583 E53.388
G1 X129.181 Y104.536 E53.39775
G1 X129.196 Y104.412 E53.40356
M204 S3000
M205 X10 Y10
G1 F2400 E47.40356
G0 F3000 X125.81 Y104.539
M204 S1800
M205 X8 Y8
G1 F2400 E53.40356
G1 X125.598 Y104.583 E53.41365
G1 X125.087 Y104.583 E53.43744
G1 X125.116 Y104.413 E53.44547
G1 X125.797 Y104.413 E53.47718
G1 X125.81 Y104.539 E53.48308
M204 S3000
M205 X10 Y10
G1 F2400 E47.48308
G1 F600 Z0.275
G0 F3000 X129.9 Y111.57 Z0.275
M204 S1800
M205 X8 Y8
G1 F600 Z0.2
G1 F2400 E53.48308
G1 X132.87 Y113.284 E53.64275
G1 X132.87 Y116.716 E53.80256
G1 X129.9 Y118.43 E53.96223
G1 X126.93 Y116.716 E54.12191
G1 X126.93 Y113.284 E54.28171
G1 X129.9 Y111.57 E54.44139
M204 S3000
M205 X10 Y10
G0 F3000 X129.9 Y112.216
M204 S1800
M205 X8 Y8
G1 F2400 X132.31 Y113.608 E54.57098
G1 X132.31 Y116.392 E54.70062
G1 X129.9 Y117.784 E54.83021
G1 X127.49 Y116.392 E54.9598
G1 X127.49 Y113.608 E55.08944
G1 X129.9 Y112.216 E55.21903
M204 S3000
M205 X10 Y10
G0 F3000 X129.9 Y112.863
M204 S1800
M205 X8 Y8
G1 F2400 X131.75 Y113.931 E55.3185
G1 X131.75 Y116.069 E55.41805
G1 X129.9 Y117.137 E55.51752
G1 X128.05 Y116.069 E55.61699
G1 X128.05 Y113.931 E55.71654
G1 X129.9 Y112.863 E55.81601
M204 S3000
M205 X10 Y10
G0 F3000 X129.899 Y113.416
M204 S1800
M205 X8 Y8
;TYPE:SUPPORT
G1 F2100 X131.268 Y114.208 E55.86862
G1 X131.268 Y115.788 E55.92117
G1 X129.899 Y116.58 E55.97377
G1 X128.528 Y115.788 E56.02643
G1 X128.528 Y114.208 E56.07898
G1 X129.899 Y113.416 E56.13165
M204 S3000
M205 X10 Y10
G1 F2400 E50.13165
G1 F600 Z0.275
G0 F3000 X138.02 Y105.728 Z0.275
M204 S1800
M205 X8 Y8
;TYPE:SUPPORT-INTERFACE
G1 F600 Z0.2
G1 F2400 E56.13165
G1 F1200 X137.702 Y105.125 E56.16339
G1 X137.951 Y104.984 E56.17671
G1 X137.961 Y104.989 E56.17723
G1 X138.27 Y105.504 E56.2052
G1 X138.302 Y105.644 E56.21189
G1 X138.351 Y105.854 E56.22193
G1 X138.352 Y154.121 E58.46944
G1 X138.269 Y154.498 E58.48742
G1 X137.997 Y154.938 E58.5115
G1 X137.746 Y154.795 E58.52495
G1 X138.02 Y154.27 E58.55253
G1 X138.02 Y105.728 E60.81285
M204 S3000
M205 X10 Y10
G1 F2400 E54.81285
G0 F3000 X137.98 Y103.958
M204 S1800
M205 X8 Y8
G1 F2400 E60.81285
G1 F1200 X137.736 Y103.813 E60.82607
G1 X138.018 Y103.268 E60.85464
G1 X138.018 Y54.813 E63.11091
G1 X137.89 Y54.408 E63.13068
G1 X137.675 Y54.155 E63.14614
G1 X137.859 Y53.96 E63.15863
G1 X137.997 Y54.064 E63.16668
G1 X138.099 Y54.223 E63.17547
G1 X138.097 Y54.224 E63.17558
G1 X138.263 Y54.497 E63.19045
G1 X138.349 Y54.859 E63.20778
G1 X138.349 Y103.16 E65.45688
G1 X138.285 Y103.384 E65.46772
G1 X138.229 Y103.586 E65.47748
G1 X137.98 Y103.958 E65.49833
M204 S3000
M205 X10 Y10
G1 F2400 E59.49833
;MESH:FrameRopeRegulator.stl
G0 F3000 X136.689 Y102.964
G0 X135.716 Y102.032
M204 S1800
M205 X8 Y8
;TYPE:WALL-INNER
G1 F2400 E65.49833
G1 F1500 X135.716 Y55.968 E67.64326
G1 X73.46 Y55.961 E70.54216
G1 X73.46 Y102.035 E72.68756
G1 X135.716 Y102.032 E75.58646
M204 S3000
M205 X10 Y10
G0 F3000 X136.276 Y102.592
M204 S1800
M205 X8 Y8
G1 F1500 X136.276 Y55.408 E77.78354
G1 X72.9 Y55.401 E80.7346
G1 X72.9 Y102.595 E82.93215
G1 X136.276 Y102.592 E85.8832
M204 S3000
M205 X10 Y10
G0 F3000 X136.277 Y102.532
G0 X127.256 Y99.062
M204 S1800
M205 X8 Y8
G1 F1500 X126.317 Y98.927 E85.92737
G1 X125.64 Y98.708 E85.9605
G1 X124.891 Y98.35 E85.99916
G1 X124.102 Y97.76 E86.04504
G1 X123.643 Y97.277 E86.07606
G1 X123.127 Y96.574 E86.11667
G1 X122.709 Y95.669 E86.16309
G1 X122.509 Y94.915 E86.19941
G1 X122.436 Y94.173 E86.23413
G1 X122.46 Y93.411 E86.26963
G1 X122.697 Y92.368 E86.31943
G1 X122.975 Y91.716 E86.35244
G1 X123.347 Y91.096 E86.3861
G1 X123.706 Y90.636 E86.41327
G1 X124.444 Y89.918 E86.46122
G1 X125.321 Y89.417 E86.50825
G1 X126.249 Y89.087 E86.55411
G1 X127.255 Y88.935 E86.60149
G1 X128.248 Y88.987 E86.64779
G1 X129.049 Y89.184 E86.6862
G1 X129.697 Y89.438 E86.71861
G1 X130.349 Y89.806 E86.75347
G1 X130.864 Y90.219 E86.78421
G1 X131.3 Y90.646 E86.81262
G1 X131.762 Y91.258 E86.84833
G1 X132.204 Y92.112 E86.89311
G1 X132.475 Y93.048 E86.93848
G1 X132.563 Y93.854 E86.97623
G1 X132.495 Y94.835 E87.02202
G1 X132.303 Y95.613 E87.05934
G1 X132.003 Y96.324 E87.09527
G1 X131.467 Y97.155 E87.14132
G1 X130.933 Y97.724 E87.17765
G1 X130.146 Y98.327 E87.22382
G1 X129.281 Y98.745 E87.26855
G1 X128.27 Y99.035 E87.31753
G1 X127.256 Y99.062 E87.36476
M204 S3000
M205 X10 Y10
G0 F3000 X127.294 Y98.501
M204 S1800
M205 X8 Y8
G1 F1500 X126.504 Y98.388 E87.40192
G1 X125.943 Y98.232 E87.42903
G1 X125.181 Y97.869 E87.46834
G1 X124.472 Y97.338 E87.50958
G1 X124.137 Y97.003 E87.53164
G1 X123.613 Y96.29 E87.57284
G1 X123.239 Y95.478 E87.61447
G1 X123.062 Y94.814 E87.64647
G1 X122.994 Y94.156 E87.67727
G1 X123.02 Y93.49 E87.70831
G1 X123.231 Y92.549 E87.75321
G1 X123.46 Y92.005 E87.7807
G1 X123.823 Y91.393 E87.81383
G1 X124.097 Y91.043 E87.83453
G1 X124.786 Y90.368 E87.87944
G1 X125.562 Y89.928 E87.92098
G1 X126.396 Y89.628 E87.96225
G1 X127.281 Y89.496 E88.00391
G1 X128.129 Y89.539 E88.04345
G1 X128.987 Y89.745 E88.08454
G1 X129.499 Y89.969 E88.11056
G1 X130.042 Y90.276 E88.13961
G1 X130.587 Y90.722 E88.1724
G1 X130.915 Y91.065 E88.1945
G1 X131.29 Y91.562 E88.22349
G1 X131.682 Y92.321 E88.26327
G1 X131.923 Y93.157 E88.30378
G1 X132 Y93.904 E88.33875
G1 X131.932 Y94.782 E88.37975
G1 X131.771 Y95.433 E88.41098
G1 X131.507 Y96.06 E88.44266
G1 X131.023 Y96.811 E88.48426
G1 X130.554 Y97.31 E88.51615
G1 X129.85 Y97.848 E88.55741
G1 X129.078 Y98.221 E88.59733
G1 X128.168 Y98.478 E88.64136
G1 X127.294 Y98.501 E88.68207
M204 S3000
M205 X10 Y10
G0 F3000 X127.299 Y98.562
G0 X93.397 Y97.396
M204 S1800
M205 X8 Y8
