;FLAVOR:Marlin
;TIME:7572
;Filament used: 7.49882m
;Layer height: 0.2
;MINX:65.232
;MINY:73.307
;MINZ:0.2
;MAXX:144.949
;MAXY:137.362
;MAXZ:28
;TARGET_MACHINE.NAME:Anycubic i3 Mega
;Generated with Cura_SteamEngine 5.7.2
M140 S60
M105
M190 S60
M104 S210
M105
M109 S210
M82 ;absolute extrusion mode
G21 ;metric values
G90 ;absolute positioning
M82 ;set extruder to absolute mode
M107 ;start with the fan off
G28 X0 Y0 ;move X/Y to min endstops
G28 Z0 ;move Z to min endstops
G1 Z15.0 F100 ;move the platform down 15mm
G92 E0 ;zero the extruded length
G1 F200 E3 ;extrude 3mm of feed stock
G92 E0 ;zero the extruded length again
G1 F100
G0 Y20 F100
M117 Printing...
G5
G92 E0
G92 E0
G1 F2400 E-6
;LAYER_COUNT:140
;LAYER:0
M107
M204 S3000
M205 X10 Y10
G1 F600 Z0.275
G0 F3000 X67.602 Y75.184 Z0.275
M204 S1800
M205 X8 Y8
;TYPE:SKIRT
G1 F600 Z0.2
G1 F2400 E0
G1 X68.181 Y74.765 E0.03328
G1 X68.867 Y74.381 E0.06989
G1 X69.595 Y74.083 E0.10652
G1 X70.288 Y73.891 E0.14
G1 X71.591 Y73.735 E0.20111
G1 X128.501 Y73.735 E2.85107
G1 X131.16 Y73.697 E2.9749
G1 X133.811 Y73.586 E3.09845
G1 X137.358 Y73.322 E3.26407
G1 X138.007 Y73.307 E3.2943
G1 X138.787 Y73.376 E3.33076
G1 X139.697 Y73.581 E3.3742
G1 X140.371 Y73.828 E3.40762
G1 X141.129 Y74.217 E3.44729
G1 X141.899 Y74.741 E3.49066
G1 X142.566 Y75.319 E3.53176
G1 X143.191 Y76.008 E3.57508
G1 X143.787 Y76.892 E3.62472
G1 X144.177 Y77.574 E3.6613
G1 X144.433 Y78.171 E3.69155
G1 X144.73 Y79.167 E3.73995
G1 X144.896 Y80.123 E3.78513
G1 X144.932 Y80.692 E3.81168
G1 X144.949 Y81.708 E3.85899
G1 X144.943 Y129.236 E6.07209
G1 X144.883 Y130.035 E6.1094
G1 X144.665 Y131.096 E6.15984
G1 X144.309 Y132.118 E6.21023
G1 X143.771 Y133.136 E6.26385
G1 X143.371 Y133.746 E6.29781
G1 X142.873 Y134.402 E6.33617
G1 X142.373 Y134.918 E6.36962
G1 X141.709 Y135.453 E6.40933
G1 X141.099 Y135.832 E6.44277
G1 X140.318 Y136.193 E6.48283
G1 X139.634 Y136.411 E6.51626
G1 X138.682 Y136.589 E6.56136
G1 X137.315 Y136.668 E6.62512
G1 X136.439 Y136.708 E6.66595
G1 X133.824 Y136.9 E6.78804
G1 X130.23 Y137.28 E6.95633
G1 X129.655 Y137.312 E6.98314
G1 X128.749 Y137.318 E7.02533
G1 X127.769 Y137.311 E7.07097
G1 X126.5 Y137.343 E7.13007
G1 X126.362 Y137.338 E7.1365
G1 X124.733 Y137.362 E7.21237
G1 X123.895 Y137.313 E7.25145
G1 X123.199 Y137.223 E7.28413
G1 X121.874 Y137.033 E7.34646
G1 X119.243 Y136.733 E7.46976
G1 X116.551 Y136.501 E7.59558
G1 X113.981 Y136.354 E7.71545
G1 X111.263 Y136.276 E7.84206
G1 X109.854 Y136.265 E7.90767
G1 X72.323 Y136.266 E9.65527
G1 X71.549 Y136.255 E9.69132
G1 X70.763 Y136.193 E9.72803
G1 X69.925 Y136.02 E9.76787
G1 X69.309 Y135.814 E9.79812
G1 X68.473 Y135.415 E9.84125
G1 X67.817 Y134.987 E9.87772
G1 X67.267 Y134.527 E9.91111
G1 X66.771 Y134.006 E9.94461
G1 X66.262 Y133.32 E9.98438
G1 X65.877 Y132.633 E10.02105
G1 X65.579 Y131.904 E10.05772
G1 X65.388 Y131.212 E10.09115
G1 X65.232 Y129.908 E10.1523
G1 X65.234 Y80.739 E12.44182
G1 X65.244 Y80.052 E12.47381
G1 X65.315 Y79.198 E12.51371
G1 X65.461 Y78.499 E12.54697
G1 X65.711 Y77.749 E12.58378
G1 X66.083 Y76.977 E12.62368
G1 X66.472 Y76.377 E12.65698
G1 X66.927 Y75.822 E12.6904
G1 X67.602 Y75.184 E12.73364
M204 S3000
M205 X10 Y10
G0 F3000 X67.933 Y75.636
M204 S1800
M205 X8 Y8
G1 F2400 X68.457 Y75.252 E12.76389
G1 X69.082 Y74.898 E12.79734
G1 X69.745 Y74.623 E12.83076
G1 X70.438 Y74.431 E12.86425
G1 X71.591 Y74.295 E12.91831
G1 X128.509 Y74.295 E15.56865
G1 X131.184 Y74.257 E15.69322
G1 X133.835 Y74.145 E15.81677
G1 X137.371 Y73.882 E15.98188
G1 X138.02 Y73.867 E16.01211
G1 X138.735 Y73.934 E16.04555
G1 X139.504 Y74.107 E16.08225
G1 X140.178 Y74.354 E16.11567
G1 X140.816 Y74.681 E16.14906
G1 X141.534 Y75.166 E16.1894
G1 X142.154 Y75.698 E16.22744
G1 X142.727 Y76.322 E16.26689
G1 X143.302 Y77.172 E16.31468
G1 X143.662 Y77.795 E16.34818
G1 X143.918 Y78.392 E16.37843
G1 X144.179 Y79.264 E16.42081
G1 X144.337 Y80.159 E16.46313
G1 X144.372 Y80.701 E16.48842
G1 X144.389 Y81.708 E16.53532
G1 X144.384 Y129.197 E18.7466
G1 X144.334 Y129.922 E18.78044
G1 X144.116 Y130.983 E18.83088
G1 X143.781 Y131.931 E18.8777
G1 X143.302 Y132.83 E18.92513
G1 X142.923 Y133.41 E18.95739
G1 X142.471 Y134.012 E18.99245
G1 X141.971 Y134.528 E19.0259
G1 X141.411 Y134.979 E19.05938
G1 X140.861 Y135.325 E19.08964
G1 X140.148 Y135.659 E19.1263
G1 X139.464 Y135.877 E19.15973
G1 X138.65 Y136.03 E19.1983
G1 X137.29 Y136.109 E19.26173
G1 X136.408 Y136.149 E19.30284
G1 X133.765 Y136.343 E19.42624
G1 X130.198 Y136.721 E19.59327
G1 X129.651 Y136.752 E19.61878
G1 X128.753 Y136.758 E19.6606
G1 X127.759 Y136.751 E19.70688
G1 X126.519 Y136.783 E19.76464
G1 X126.372 Y136.778 E19.77149
G1 X124.765 Y136.803 E19.84633
G1 X123.967 Y136.758 E19.88355
G1 X123.278 Y136.669 E19.91589
G1 X121.943 Y136.478 E19.97869
G1 X119.291 Y136.175 E20.10298
G1 X116.596 Y135.943 E20.22894
G1 X113.997 Y135.794 E20.35016
G1 X111.279 Y135.716 E20.47677
G1 X109.858 Y135.705 E20.54294
G1 X72.331 Y135.706 E22.29035
G1 X71.557 Y135.695 E22.3264
G1 X70.808 Y135.635 E22.36139
G1 X70.103 Y135.489 E22.39491
G1 X69.487 Y135.283 E22.42516
G1 X68.777 Y134.944 E22.46179
G1 X68.174 Y134.555 E22.4952
G1 X67.673 Y134.141 E22.52547
G1 X67.177 Y133.62 E22.55896
G1 X66.749 Y133.044 E22.59238
G1 X66.394 Y132.418 E22.62589
G1 X66.119 Y131.755 E22.65931
G1 X65.928 Y131.063 E22.69274
G1 X65.792 Y129.908 E22.74689
G1 X65.794 Y80.747 E25.03603
G1 X65.804 Y80.06 E25.06803
G1 X65.864 Y79.309 E25.10311
G1 X65.993 Y78.673 E25.13333
G1 X66.216 Y77.99 E25.16678
G1 X66.555 Y77.279 E25.20346
G1 X66.905 Y76.732 E25.2337
G1 X67.36 Y76.177 E25.26711
G1 X67.933 Y75.636 E25.30381
M204 S3000
M205 X10 Y10
G0 F3000 X68.264 Y76.088
M204 S1800
M205 X8 Y8
G1 F2400 X68.788 Y75.704 E25.33406
G1 X69.355 Y75.387 E25.36431
G1 X69.956 Y75.142 E25.39453
G1 X70.584 Y74.972 E25.42482
G1 X71.591 Y74.855 E25.47203
G1 X128.517 Y74.855 E28.12274
G1 X131.192 Y74.817 E28.24731
G1 X133.875 Y74.703 E28.37236
G1 X136.802 Y74.492 E28.50901
G1 X137.384 Y74.442 E28.53621
G1 X138.033 Y74.427 E28.56643
G1 X138.68 Y74.491 E28.59671
G1 X139.314 Y74.634 E28.62697
G1 X139.925 Y74.854 E28.65721
G1 X140.505 Y75.147 E28.68747
G1 X141.169 Y75.591 E28.72466
G1 X141.789 Y76.123 E28.7627
G1 X142.313 Y76.699 E28.79896
G1 X142.819 Y77.455 E28.84132
G1 X143.147 Y78.016 E28.87158
G1 X143.403 Y78.613 E28.90183
G1 X143.628 Y79.363 E28.93829
G1 X143.778 Y80.196 E28.9777
G1 X143.812 Y80.711 E29.00173
G1 X143.829 Y81.708 E29.04816
G1 X143.825 Y129.163 E31.25787
G1 X143.785 Y129.812 E31.28815
G1 X143.587 Y130.8 E31.33507
G1 X143.286 Y131.669 E31.37789
G1 X142.833 Y132.524 E31.42294
G1 X142.454 Y133.104 E31.45521
G1 X142.066 Y133.625 E31.48545
G1 X141.617 Y134.094 E31.51569
G1 X141.113 Y134.505 E31.54597
G1 X140.563 Y134.851 E31.57623
G1 X139.975 Y135.126 E31.60645
G1 X139.357 Y135.327 E31.63671
G1 X138.617 Y135.471 E31.67182
G1 X137.265 Y135.55 E31.73488
G1 X136.377 Y135.59 E31.77627
G1 X133.706 Y135.786 E31.90098
G1 X130.166 Y136.162 E32.06674
G1 X129.647 Y136.192 E32.09095
G1 X128.757 Y136.198 E32.13239
G1 X127.748 Y136.191 E32.17938
G1 X126.537 Y136.223 E32.23579
G1 X126.381 Y136.218 E32.24305
G1 X124.795 Y136.244 E32.31691
G1 X124.039 Y136.203 E32.35217
G1 X123.357 Y136.115 E32.38419
G1 X122.012 Y135.923 E32.44745
G1 X119.339 Y135.617 E32.57273
G1 X116.641 Y135.385 E32.69882
G1 X114.013 Y135.234 E32.8214
G1 X111.295 Y135.156 E32.94801
G1 X109.862 Y135.145 E33.01474
G1 X72.339 Y135.146 E34.76197
G1 X71.565 Y135.135 E34.79801
G1 X70.918 Y135.086 E34.82822
G1 X70.281 Y134.958 E34.85848
G1 X69.665 Y134.752 E34.88872
G1 X69.078 Y134.472 E34.91901
G1 X68.531 Y134.123 E34.94922
G1 X68.03 Y133.709 E34.97948
G1 X67.585 Y133.236 E35.00972
G1 X67.2 Y132.712 E35.04
G1 X66.883 Y132.145 E35.07025
G1 X66.638 Y131.544 E35.10047
G1 X66.469 Y130.917 E35.13071
G1 X66.352 Y129.908 E35.17801
G1 X66.354 Y80.755 E37.46678
G1 X66.364 Y80.068 E37.49877
G1 X66.413 Y79.42 E37.52903
G1 X66.542 Y78.784 E37.55925
G1 X66.747 Y78.167 E37.58952
G1 X67.027 Y77.581 E37.61976
G1 X67.377 Y77.034 E37.65
G1 X67.791 Y76.534 E37.68023
G1 X68.264 Y76.088 E37.7105
M204 S3000
M205 X10 Y10
G1 F2400 E31.7105
G1 F600 Z0.275
G0 F3000 X126.112 Y117.712 Z0.275
M204 S1800
M205 X8 Y8
G1 F600 Z0.2
G1 F2400 E37.7105
G1 X126.322 Y117.59 E37.72181
G1 X126.835 Y117.404 E37.74722
G1 X127.366 Y117.324 E37.77222
G1 X127.871 Y117.347 E37.79576
G1 X128.418 Y117.482 E37.822
G1 X128.655 Y117.579 E37.83392
G1 X128.89 Y117.715 E37.84656
G1 X129.008 Y117.974 E37.85982
G1 X128.921 Y118.097 E37.86683
G1 X128.925 Y118.174 E37.87042
G1 X128.873 Y118.198 E37.87309
G1 X128.78 Y118.351 E37.88143
G1 X128.588 Y119.195 E37.92173
G1 X128.581 Y119.254 E37.9245
G1 X128.568 Y120.3 E37.97321
G1 X128.57 Y120.34 E37.97507
G1 X128.739 Y121.623 E38.03533
G1 X128.797 Y121.759 E38.04221
G1 X128.915 Y121.831 E38.04865
G1 X128.912 Y121.853 E38.04968
G1 X128.966 Y121.991 E38.05658
G1 X129.01 Y122.019 E38.05901
G1 X128.881 Y122.296 E38.07324
G1 X128.431 Y122.514 E38.09652
G1 X127.909 Y122.664 E38.12181
G1 X127.399 Y122.678 E38.14557
G1 X126.835 Y122.598 E38.1721
G1 X126.602 Y122.528 E38.18343
G1 X126.143 Y122.308 E38.20713
G1 X125.998 Y122.014 E38.22239
G1 X126.077 Y121.889 E38.22928
G1 X126.071 Y121.815 E38.23273
G1 X126.136 Y121.781 E38.23615
G1 X126.222 Y121.629 E38.24428
G1 X126.362 Y120.921 E38.27789
G1 X126.366 Y120.892 E38.27925
G1 X126.442 Y120.047 E38.31876
G1 X126.443 Y120.009 E38.32053
G1 X126.403 Y119.162 E38.36001
G1 X126.396 Y119.111 E38.36241
G1 X126.216 Y118.349 E38.39886
G1 X126.144 Y118.218 E38.40583
G1 X126.081 Y118.183 E38.40918
G1 X126.087 Y118.15 E38.41074
G1 X126.033 Y118.012 E38.41764
G1 X125.985 Y117.981 E38.4203
G1 X126.112 Y117.712 E38.43416
M204 S3000
M205 X10 Y10
G0 F3000 X126.692 Y118.052
M204 S1800
M205 X8 Y8
G1 F2400 X126.976 Y117.949 E38.44822
G1 X127.399 Y117.886 E38.46814
G1 X127.787 Y117.903 E38.48622
G1 X128.244 Y118.016 E38.50814
G1 X128.302 Y118.04 E38.51106
G1 X128.234 Y118.227 E38.52033
G1 X128.042 Y119.071 E38.56063
G1 X128.021 Y119.247 E38.56889
G1 X128.008 Y120.293 E38.6176
G1 X128.015 Y120.413 E38.62319
G1 X128.184 Y121.696 E38.68345
G1 X128.257 Y121.944 E38.69549
G1 X128.273 Y121.968 E38.69683
G1 X128.229 Y121.989 E38.6991
G1 X127.824 Y122.106 E38.71873
G1 X127.433 Y122.117 E38.73695
G1 X126.952 Y122.049 E38.75957
G1 X126.803 Y122.004 E38.76681
G1 X126.694 Y121.952 E38.77244
G1 X126.708 Y121.931 E38.77361
G1 X126.771 Y121.738 E38.78307
G1 X126.911 Y121.03 E38.81667
G1 X126.924 Y120.942 E38.82081
G1 X127 Y120.097 E38.86032
G1 X127.002 Y119.982 E38.86568
G1 X126.962 Y119.135 E38.90516
G1 X126.941 Y118.982 E38.91235
G1 X126.761 Y118.22 E38.94881
G1 X126.692 Y118.052 E38.95727
M204 S3000
M205 X10 Y10
G0 F3000 X127.391 Y118.452
M204 S1800
M205 X8 Y8
G1 F2400 X127.421 Y118.448 E38.95868
G1 X127.607 Y118.456 E38.96734
G1 X127.498 Y118.939 E38.9904
G1 X127.486 Y118.853 E38.99444
G1 X127.391 Y118.452 E39.01363
M204 S3000
M205 X10 Y10
G1 F2400 E33.01363
G0 F3000 X127.5 Y120.786
M204 S1800
M205 X8 Y8
G1 F2400 E39.01363
G1 X127.601 Y121.553 E39.04966
G1 X127.466 Y121.557 E39.05595
G1 X127.38 Y121.544 E39.06
G1 X127.46 Y121.139 E39.07922
G1 X127.481 Y120.992 E39.08613
G1 X127.5 Y120.786 E39.09577
M204 S3000
M205 X10 Y10
G1 F2400 E33.09577
G1 F600 Z0.275
G0 F3000 X129.196 Y130.412 Z0.275
M204 S1800
M205 X8 Y8
G1 F600 Z0.2
G1 F2400 E39.09577
G1 X129.549 Y130.412 E39.1122
G1 X129.453 Y130.599 E39.12199
G1 X129.181 Y130.536 E39.13499
G1 X129.196 Y130.412 E39.14081
M204 S3000
M205 X10 Y10
G1 F2400 E33.14081
G0 F3000 X125.811 Y130.539
M204 S1800
M205 X8 Y8
G1 F2400 E39.14081
G1 X125.285 Y130.649 E39.16583
G1 X125.147 Y130.605 E39.17257
G1 X125.082 Y130.611 E39.17561
G1 X125.116 Y130.413 E39.18497
G1 X125.798 Y130.413 E39.21673
G1 X125.811 Y130.539 E39.22262
M204 S3000
M205 X10 Y10
G1 F2400 E33.22262
G0 F3000 X136.686 Y130.096
G0 X137.736 Y129.813
M204 S1800
M205 X8 Y8
;TYPE:SUPPORT-INTERFACE
G1 F2400 E39.22262
G1 F1200 X138.018 Y129.268 E39.2512
G1 X138.018 Y80.813 E41.50746
G1 X137.89 Y80.408 E41.52724
G1 X137.675 Y80.155 E41.5427
G1 X137.859 Y79.96 E41.55519
G1 X137.997 Y80.064 E41.56323
G1 X138.099 Y80.223 E41.57203
G1 X138.097 Y80.224 E41.57213
G1 X138.263 Y80.497 E41.58701
G1 X138.349 Y80.859 E41.60434
G1 X138.349 Y129.16 E43.85343
G1 X138.285 Y129.384 E43.86428
G1 X138.229 Y129.586 E43.87404
G1 X137.98 Y129.958 E43.89489
G1 X137.736 Y129.813 E43.9081
M204 S3000
M205 X10 Y10
G1 F2400 E37.9081
;MESH:FrameRopeRegulator.stl
G0 F3000 X136.689 Y128.964
G0 X135.716 Y128.032
M204 S1800
M205 X8 Y8
;TYPE:WALL-INNER
G1 F2400 E43.9081
G1 F1500 X135.716 Y81.968 E46.05304
G1 X73.46 Y81.961 E48.95194
G1 X73.46 Y128.035 E51.09733
G1 X135.716 Y128.032 E53.99623
M204 S3000
M205 X10 Y10
G0 F3000 X136.276 Y128.592
M204 S1800
M205 X8 Y8
G1 F1500 X136.276 Y81.408 E56.19332
G1 X72.9 Y81.401 E59.14437
G1 X72.9 Y128.595 E61.34192
G1 X136.276 Y128.592 E64.29297
M204 S3000
M205 X10 Y10
G0 F3000 X136.277 Y128.532
G0 X127.256 Y125.062
M204 S1800
M205 X8 Y8
G1 F1500 X126.317 Y124.927 E64.33715
G1 X125.64 Y124.708 E64.37028
G1 X124.891 Y124.35 E64.40893
G1 X124.102 Y123.76 E64.45481
G1 X123.643 Y123.277 E64.48584
G1 X123.127 Y122.574 E64.52644
G1 X122.709 Y121.669 E64.57286
G1 X122.509 Y120.915 E64.60918
G1 X122.436 Y120.173 E64.6439
G1 X122.46 Y119.411 E64.6794
G1 X122.697 Y118.368 E64.72921
G1 X122.975 Y117.716 E64.76221
G1 X123.347 Y117.096 E64.79588
G1 X123.706 Y116.636 E64.82305
G1 X124.444 Y115.918 E64.87099
G1 X125.321 Y115.417 E64.91802
G1 X126.249 Y115.087 E64.96389
G1 X127.255 Y114.935 E65.01126
G1 X128.248 Y114.987 E65.05756
G1 X129.049 Y115.184 E65.09597
G1 X129.697 Y115.438 E65.12838
G1 X130.349 Y115.806 E65.16324
G1 X130.864 Y116.219 E65.19398
G1 X131.3 Y116.646 E65.2224
G1 X131.762 Y117.258 E65.2581
G1 X132.204 Y118.112 E65.30288
G1 X132.475 Y119.048 E65.34825
G1 X132.563 Y119.854 E65.38601
G1 X132.495 Y120.835 E65.4318
G1 X132.303 Y121.613 E65.46911
G1 X132.003 Y122.324 E65.50504
G1 X131.467 Y123.155 E65.55109
G1 X130.933 Y123.724 E65.58743
G1 X130.146 Y124.327 E65.63359
G1 X129.281 Y124.745 E65.67833
G1 X128.27 Y125.035 E65.7273
G1 X127.256 Y125.062 E65.77453
M204 S3000
M205 X10 Y10
G0 F3000 X127.294 Y124.501
M204 S1800
M205 X8 Y8
G1 F1500 X126.504 Y124.388 E65.81169
G1 X125.943 Y124.232 E65.83881
G1 X125.181 Y123.869 E65.87811
G1 X124.472 Y123.338 E65.91936
G1 X124.137 Y123.003 E65.94142
G1 X123.613 Y122.29 E65.98262
G1 X123.239 Y121.478 E66.02425
G1 X123.062 Y120.814 E66.05625
G1 X122.994 Y120.156 E66.08705
G1 X123.02 Y119.49 E66.11808
G1 X123.231 Y118.549 E66.16299
G1 X123.46 Y118.005 E66.19047
G1 X123.823 Y117.393 E66.2236
G1 X124.097 Y117.043 E66.2443
G1 X124.786 Y116.368 E66.28922
G1 X125.562 Y115.928 E66.33075
G1 X126.396 Y115.628 E66.37202
G1 X127.281 Y115.496 E66.41369
G1 X128.129 Y115.539 E66.45323
G1 X128.987 Y115.745 E66.49431
G1 X129.499 Y115.969 E66.52034
G1 X130.042 Y116.276 E66.54938
G1 X130.587 Y116.722 E66.58217
G1 X130.915 Y117.065 E66.60427
G1 X131.29 Y117.562 E66.63326
G1 X131.682 Y118.321 E66.67304
G1 X131.923 Y119.157 E66.71355
G1 X132 Y119.904 E66.74852
G1 X131.932 Y120.782 E66.78953
G1 X131.771 Y121.433 E66.82075
G1 X131.507 Y122.06 E66.85243
G1 X131.023 Y122.811 E66.89404
G1 X130.554 Y123.31 E66.92592
G1 X129.85 Y123.848 E66.96718
G1 X129.078 Y124.221 E67.0071
G1 X128.168 Y124.478 E67.05114
G1 X127.294 Y124.501 E67.09185
M204 S3000
M205 X10 Y10
G0 F3000 X127.299 Y124.562
G0 X93.397 Y123.396
M204 S1800
M205 X8 Y8
G1 F1500 X92.657 Y123.287 E67.12668
G1 X91.875 Y122.979 E67.16581
G1 X91.558 Y122.779 E67.18326
G1 X90.937 Y122.26 E67.22095
G1 X90.393 Y121.421 E67.26751
G1 X90.182 Y120.752 E67.30017
G1 X90.091 Y120.069 E67.33226
G1 X90.148 Y119.362 E67.36529
G1 X90.343 Y118.716 E67.39671
G1 X90.803 Y117.913 E67.4398
G1 X91.197 Y117.496 E67.46651
G1 X91.735 Y117.079 E67.49821
G1 X92.602 Y116.706 E67.54216
G1 X93.353 Y116.592 E67.57753
G1 X94.275 Y116.682 E67.62066
G1 X94.842 Y116.872 E67.64851
G1 X95.443 Y117.2 E67.68039
G1 X96.161 Y117.865 E67.72596
G1 X96.566 Y118.541 E67.76265
G1 X96.793 Y119.11 E67.79118
G1 X96.902 Y120.042 E67.83487
G1 X96.821 Y120.764 E67.8687
G1 X96.566 Y121.469 E67.90361
G1 X96.06 Y122.256 E67.94718
