;FLAVOR:Marlin
;TIME:17927
;Filament used: 29.6817m
;Layer height: 0.4
;MINX:49.307
;MINY:49.309
;MINZ:0.2
;MAXX:160.675
;MAXY:160.683
;MAXZ:43.8
;TARGET_MACHINE.NAME:Anycubic i3 Mega
;Generated with Cura_SteamEngine 5.10.1
M140 S60
M105
M190 S60
M104 S210
M105
M109 S210
G21 ;metric values
G90 ;absolute positioning
M82 ;set extruder to absolute mode
M107 ;start with the fan off
G28 X0 Y0 ;move X/Y to min endstops
G28 Z0 ;move Z to min endstops
G1 Z15.0 F100 ;move the platform down 15mm
G92 E0 ;zero the extruded length
G1 F200 E3 ;extrude 3mm of feed stock
G92 E0 ;zero the extruded length again
G1 F100
G0 Y20 F100
M117 Printing...
G5
M82 ;absolute extrusion mode
G92 E0
G92 E0
G1 F2400 E-6
;LAYER_COUNT:110
;LAYER:0
M107
M204 S3000
M205 X10 Y10
G1 F600 Z0.275
G0 F3000 X51.067 Y51.319 Z0.275
M204 S1800
M205 X8 Y8
;TYPE:SKIRT
G1 F600 Z0.2
G1 F2400 E0
G1 X51.697 Y50.738 E0.03991
G1 X52.339 Y50.282 E0.07657
G1 X53.096 Y49.879 E0.11651
G1 X53.833 Y49.601 E0.15318
G1 X54.615 Y49.414 E0.19062
G1 X55.55 Y49.313 E0.23442
G1 X152.728 Y49.309 E4.75943
G1 X153.5 Y49.323 E4.79538
G1 X154.582 Y49.414 E4.84594
G1 X155.809 Y49.762 E4.90533
G1 X156.772 Y50.168 E4.95399
G1 X157.797 Y50.828 E5.01076
G1 X158.787 Y51.768 E5.07433
G1 X159.324 Y52.44 E5.11438
G1 X159.757 Y53.137 E5.15259
G1 X160.104 Y53.861 E5.18998
G1 X160.33 Y54.459 E5.21975
G1 X160.562 Y55.29 E5.25992
G1 X160.675 Y56.438 E5.31363
G1 X160.664 Y57.212 E5.34968
G1 X160.562 Y58.133 E5.39283
G1 X160.256 Y59.168 E5.44308
G1 X159.868 Y60.059 E5.48833
G1 X159.513 Y60.685 E5.52184
G1 X158.939 Y61.458 E5.56668
G1 X157.99 Y62.447 E5.6305
G1 X148.909 Y71.528 E6.2285
G1 X147.055 Y73.436 E6.35238
G1 X145.283 Y75.365 E6.47435
G1 X143.537 Y77.377 E6.59839
G1 X141.85 Y79.435 E6.7223
G1 X140.423 Y81.292 E6.83135
G1 X139.763 Y82.11 E6.8803
G1 X132.439 Y89.44 E7.36279
G1 X131.665 Y90.188 E7.41291
G1 X130.105 Y91.398 E7.50484
G1 X128.008 Y93.069 E7.6297
G1 X125.981 Y94.78 E7.75321
G1 X124.032 Y96.523 E7.87496
G1 X121.173 Y99.264 E8.05939
G1 X98.92 Y121.517 E9.52479
G1 X97.066 Y123.425 E9.64867
G1 X95.294 Y125.354 E9.77064
G1 X93.548 Y127.366 E9.89468
G1 X91.877 Y129.405 E10.01744
G1 X89.871 Y131.986 E10.16965
G1 X89.143 Y132.737 E10.21835
G1 X82.433 Y139.445 E10.66015
G1 X81.613 Y140.233 E10.71311
G1 X80.127 Y141.382 E10.80057
G1 X78.04 Y143.044 E10.9248
G1 X76.035 Y144.735 E11.04693
G1 X74.035 Y146.522 E11.17182
G1 X71.187 Y149.25 E11.35546
G1 X62.266 Y158.171 E11.94292
G1 X61.685 Y158.733 E11.98056
G1 X61.128 Y159.204 E12.01453
G1 X60.08 Y159.861 E12.07212
G1 X59.217 Y160.241 E12.11603
G1 X58.558 Y160.451 E12.14824
G1 X57.534 Y160.636 E12.19669
G1 X56.482 Y160.683 E12.24573
G1 X55.641 Y160.604 E12.28506
G1 X54.832 Y160.44 E12.32349
G1 X54.01 Y160.172 E12.36375
G1 X53.236 Y159.823 E12.40329
G1 X52.46 Y159.337 E12.44592
G1 X51.631 Y158.656 E12.49588
G1 X51.085 Y158.083 E12.53274
G1 X50.462 Y157.243 E12.58143
G1 X50.003 Y156.393 E12.62641
G1 X49.624 Y155.392 E12.67625
G1 X49.43 Y154.519 E12.7179
G1 X49.327 Y153.66 E12.75818
G1 X49.308 Y152.734 E12.80131
G1 X49.307 Y56.37 E17.28842
G1 X49.322 Y55.457 E17.33094
G1 X49.391 Y54.745 E17.36425
G1 X49.541 Y54.041 E17.39777
G1 X49.849 Y53.166 E17.44096
G1 X50.206 Y52.463 E17.47767
G1 X50.645 Y51.813 E17.5142
G1 X51.067 Y51.319 E17.54445
M204 S3000
M205 X10 Y10
G0 F3000 X51.493 Y51.683
M204 S1800
M205 X8 Y8
G1 F2400 X52.021 Y51.195 E17.57793
G1 X52.663 Y50.739 E17.6146
G1 X53.296 Y50.402 E17.64799
G1 X53.967 Y50.145 E17.68145
G1 X54.675 Y49.971 E17.71539
G1 X55.61 Y49.87 E17.75918
G1 X152.719 Y49.869 E22.28099
G1 X153.453 Y49.881 E22.31517
G1 X154.48 Y49.967 E22.36316
G1 X155.656 Y50.301 E22.42008
G1 X156.509 Y50.665 E22.46327
G1 X157.448 Y51.27 E22.51528
G1 X158.351 Y52.12 E22.57303
G1 X158.848 Y52.736 E22.60988
G1 X159.281 Y53.433 E22.64809
G1 X159.581 Y54.061 E22.6805
G1 X159.791 Y54.61 E22.70787
G1 X160.01 Y55.393 E22.74573
G1 X160.115 Y56.432 E22.79435
G1 X160.107 Y57.15 E22.82779
G1 X160.01 Y58.023 E22.86869
G1 X159.742 Y58.946 E22.91344
G1 X159.379 Y59.786 E22.95605
G1 X159.062 Y60.353 E22.9863
G1 X158.535 Y61.07 E23.02774
G1 X157.586 Y62.059 E23.09156
G1 X148.513 Y71.132 E23.68903
G1 X146.653 Y73.046 E23.81331
G1 X144.86 Y74.998 E23.93673
G1 X143.114 Y77.01 E24.06077
G1 X141.417 Y79.08 E24.18541
G1 X139.986 Y80.942 E24.29476
G1 X139.367 Y81.714 E24.34083
G1 X132.05 Y89.037 E24.82287
G1 X131.276 Y89.785 E24.87299
G1 X129.756 Y90.96 E24.96245
G1 X127.659 Y92.631 E25.0873
G1 X125.62 Y94.352 E25.21155
G1 X123.644 Y96.119 E25.33498
G1 X120.785 Y98.86 E25.51941
G1 X98.524 Y121.121 E26.98533
G1 X96.664 Y123.035 E27.10961
G1 X94.871 Y124.987 E27.23302
G1 X93.125 Y126.999 E27.35707
G1 X91.444 Y129.05 E27.48055
G1 X89.469 Y131.596 E27.63059
G1 X88.747 Y132.341 E27.6789
G1 X82.044 Y139.042 E28.12024
G1 X81.27 Y139.79 E28.17036
G1 X79.784 Y140.939 E28.25782
G1 X77.691 Y142.606 E28.38242
G1 X75.662 Y144.317 E28.506
G1 X73.662 Y146.104 E28.63089
G1 X70.791 Y148.854 E28.81601
G1 X61.876 Y157.769 E29.40308
G1 X61.323 Y158.305 E29.43894
G1 X60.766 Y158.776 E29.47291
G1 X59.853 Y159.349 E29.5231
G1 X59.047 Y159.707 E29.56416
G1 X58.388 Y159.917 E29.59637
G1 X57.437 Y160.085 E29.64134
G1 X56.534 Y160.125 E29.68343
G1 X55.693 Y160.046 E29.72276
G1 X55.004 Y159.907 E29.75549
G1 X54.237 Y159.66 E29.79301
G1 X53.531 Y159.347 E29.82897
G1 X52.814 Y158.903 E29.86824
G1 X52.034 Y158.267 E29.9151
G1 X51.533 Y157.747 E29.94873
G1 X50.955 Y156.977 E29.99356
G1 X50.496 Y156.127 E30.03854
G1 X50.17 Y155.269 E30.08128
G1 X49.986 Y154.45 E30.12037
G1 X49.887 Y153.648 E30.15799
G1 X49.868 Y152.734 E30.20056
G1 X49.867 Y56.378 E34.6873
G1 X49.88 Y55.508 E34.72782
G1 X49.939 Y54.862 E34.75802
G1 X50.089 Y54.158 E34.79154
G1 X50.349 Y53.417 E34.82811
G1 X50.672 Y52.774 E34.86161
G1 X51.071 Y52.177 E34.89505
G1 X51.493 Y51.683 E34.9253
M204 S3000
M205 X10 Y10
G0 F3000 X51.919 Y52.047
M204 S1800
M205 X8 Y8
G1 F2400 X52.399 Y51.608 E34.95559
G1 X52.928 Y51.232 E34.98581
G1 X53.5 Y50.924 E35.01606
G1 X54.105 Y50.688 E35.0463
G1 X54.735 Y50.528 E35.07657
G1 X55.67 Y50.427 E35.12036
G1 X152.711 Y50.429 E39.63899
G1 X153.406 Y50.439 E39.67136
G1 X154.38 Y50.521 E39.71687
G1 X155.436 Y50.816 E39.76793
G1 X156.245 Y51.161 E39.80888
G1 X157.1 Y51.712 E39.85624
G1 X157.915 Y52.472 E39.90813
G1 X158.412 Y53.088 E39.94499
G1 X158.776 Y53.676 E39.97719
G1 X159.059 Y54.264 E40.00758
G1 X159.252 Y54.761 E40.0324
G1 X159.458 Y55.496 E40.06794
G1 X159.555 Y56.428 E40.11158
G1 X159.55 Y57.088 E40.14231
G1 X159.458 Y57.914 E40.18101
G1 X159.227 Y58.726 E40.22032
G1 X158.89 Y59.513 E40.26018
G1 X158.573 Y60.08 E40.29043
G1 X158.131 Y60.682 E40.32521
G1 X157.182 Y61.671 E40.38903
G1 X148.117 Y70.736 E40.98598
G1 X146.251 Y72.656 E41.11065
G1 X144.437 Y74.631 E41.23552
G1 X142.691 Y76.643 E41.35956
G1 X140.984 Y78.725 E41.48493
G1 X139.548 Y80.593 E41.59464
G1 X138.971 Y81.318 E41.63779
G1 X131.659 Y88.636 E42.11949
G1 X130.934 Y89.342 E42.16661
G1 X129.407 Y90.522 E42.25647
G1 X127.31 Y92.193 E42.38133
G1 X125.259 Y93.924 E42.5063
G1 X123.256 Y95.715 E42.63141
G1 X120.397 Y98.456 E42.81584
G1 X98.128 Y120.725 E44.28229
G1 X96.262 Y122.645 E44.40696
G1 X94.448 Y124.62 E44.53183
G1 X92.702 Y126.632 E44.65587
G1 X91.001 Y128.707 E44.78081
G1 X89.067 Y131.206 E44.92795
G1 X88.351 Y131.945 E44.97586
G1 X81.653 Y138.641 E45.41687
G1 X80.928 Y139.347 E45.46399
G1 X79.435 Y140.501 E45.55186
G1 X77.342 Y142.168 E45.67645
G1 X75.289 Y143.899 E45.8015
G1 X73.289 Y145.686 E45.92638
G1 X70.395 Y148.458 E46.11298
G1 X61.486 Y157.367 E46.69966
G1 X60.958 Y157.88 E46.73394
G1 X60.466 Y158.303 E46.76415
G1 X59.624 Y158.838 E46.8106
G1 X58.877 Y159.173 E46.84872
G1 X58.218 Y159.383 E46.88093
G1 X57.409 Y159.526 E46.91918
G1 X56.586 Y159.567 E46.95755
G1 X55.745 Y159.488 E46.99689
G1 X55.174 Y159.373 E47.02401
G1 X54.46 Y159.146 E47.05889
G1 X53.823 Y158.869 E47.09124
G1 X53.166 Y158.468 E47.12708
G1 X52.435 Y157.876 E47.17088
G1 X51.981 Y157.411 E47.20114
G1 X51.403 Y156.641 E47.24597
G1 X50.99 Y155.864 E47.28695
G1 X50.716 Y155.144 E47.32282
G1 X50.542 Y154.381 E47.35926
G1 X50.443 Y153.579 E47.39689
G1 X50.428 Y152.734 E47.43624
G1 X50.427 Y56.385 E51.92265
G1 X50.438 Y55.559 E51.96112
G1 X50.497 Y54.913 E51.99132
G1 X50.636 Y54.278 E52.02159
G1 X50.851 Y53.665 E52.05184
G1 X51.139 Y53.083 E52.08208
G1 X51.497 Y52.541 E52.11232
G1 X51.919 Y52.047 E52.14258
M204 S3000
M205 X10 Y10
G1 F2400 E46.14258
G1 F600 Z0.275
G0 F3000 X69.543 Y69.603 Z0.275
M204 S1800
M205 X8 Y8
G1 F600 Z0.2
G1 F2400 E52.14258
G1 X70.041 Y69.192 E52.17264
G1 X70.397 Y68.989 E52.19173
G1 X70.967 Y68.783 E52.21995
G1 X71.573 Y68.692 E52.24848
G1 X71.729 Y68.692 E52.25575
G1 X71.754 Y68.801 E52.26095
G1 X71.304 Y69.014 E52.28414
G1 X71.278 Y69.028 E52.28551
G1 X70.728 Y69.364 E52.31552
G1 X70.701 Y69.383 E52.31706
G1 X70.116 Y69.842 E52.35168
G1 X70.087 Y69.868 E52.3535
G1 X69.529 Y70.447 E52.39094
G1 X69.492 Y70.494 E52.39373
G1 X69.018 Y71.265 E52.43587
G1 X69.005 Y71.29 E52.43718
G1 X68.796 Y71.72 E52.45944
G1 X68.687 Y71.695 E52.46465
G1 X68.687 Y71.513 E52.47313
G1 X68.777 Y70.994 E52.49765
G1 X68.989 Y70.394 E52.52728
G1 X69.106 Y70.177 E52.53876
G1 X69.384 Y69.779 E52.56137
G1 X69.543 Y69.603 E52.57241
M204 S3000
M205 X10 Y10
G1 F2400 E46.57241
G0 F3000 X68.804 Y116.518
M204 S1800
M205 X8 Y8
G1 F2400 E52.57241
G1 X69.05 Y117.091 E52.60145
G1 X69.072 Y117.134 E52.6037
G1 X69.503 Y117.797 E52.64052
G1 X69.528 Y117.829 E52.64241
G1 X69.896 Y118.247 E52.66834
G1 X69.933 Y118.282 E52.67072
G1 X70.594 Y118.801 E52.70985
G1 X70.652 Y118.836 E52.713
G1 X71.034 Y119.008 E52.73251
G1 X71.094 Y119.028 E52.73546
G1 X71.891 Y119.187 E52.7733
G1 X71.943 Y119.192 E52.77573
G1 X72.586 Y119.2 E52.80567
G1 X72.631 Y119.197 E52.80777
G1 X73.094 Y119.126 E52.82959
G1 X73.137 Y119.116 E52.83164
G1 X73.757 Y118.918 E52.86195
G1 X73.789 Y118.905 E52.86356
G1 X74.146 Y118.741 E52.88185
G1 X74.213 Y118.838 E52.88734
G1 X73.737 Y119.314 E52.91868
G1 X73.534 Y119.482 E52.93095
G1 X72.999 Y119.804 E52.96003
G1 X72.441 Y120.006 E52.98766
G1 X72.019 Y120.079 E53.0076
G1 X71.406 Y120.081 E53.03615
G1 X70.994 Y120.01 E53.05562
G1 X70.396 Y119.799 E53.08514
G1 X70.179 Y119.682 E53.09662
G1 X69.779 Y119.403 E53.11933
G1 X69.6 Y119.241 E53.13057
G1 X69.192 Y118.745 E53.16048
G1 X68.989 Y118.389 E53.17956
G1 X68.783 Y117.82 E53.20774
G1 X68.692 Y117.214 E53.23627
G1 X68.692 Y116.541 E53.26761
G1 X68.804 Y116.518 E53.27294
M204 S3000
M205 X10 Y10
G1 F2400 E47.27294
G1 F600 Z0.275
G0 F3000 X84.722 Y127.652 Z0.275
M204 S1800
M205 X8 Y8
G1 F600 Z0.2
G1 F2400 E53.27294
G1 X84.74 Y127.693 E53.27502
G1 X77.543 Y134.889 E53.74892
G1 X77.537 Y134.874 E53.74968
G1 X77.52 Y134.854 E53.7509
G1 X84.722 Y127.652 E54.22516
M204 S3000
M205 X10 Y10
G1 F2400 E48.22516
G0 F3000 X127.546 Y84.887
M204 S1800
M205 X8 Y8
G1 F2400 E54.22516
G1 X127.538 Y84.868 E54.22612
G1 X127.524 Y84.85 E54.22718
G1 X134.722 Y77.652 E54.70118
G1 X134.739 Y77.695 E54.70334
G1 X127.546 Y84.887 E55.17698
M204 S3000
M205 X10 Y10
G1 F2400 E49.17698
G1 F600 Z0.275
G0 F3000 X118.849 Y74.208 Z0.275
M204 S1800
M205 X8 Y8
G1 F600 Z0.2
G1 F2400 E55.17698
G1 X118.754 Y74.146 E55.18226
G1 X118.985 Y73.57 E55.21115
G1 X118.997 Y73.533 E55.21297
G1 X119.133 Y72.985 E55.23926
G1 X119.14 Y72.935 E55.24161
G1 X119.184 Y72.201 E55.27585
G1 X119.185 Y72.173 E55.27715
G1 X119.167 Y71.728 E55.29789
G1 X119.162 Y71.687 E55.29981
G1 X119.089 Y71.303 E55.31801
G1 X119.07 Y71.242 E55.32099
G1 X118.765 Y70.548 E55.35629
G1 X118.73 Y70.489 E55.35948
G1 X118.488 Y70.177 E55.37787
G1 X118.466 Y70.152 E55.37942
G1 X117.933 Y69.615 E55.41465
G1 X117.893 Y69.582 E55.41706
G1 X117.238 Y69.13 E55.45412
G1 X117.191 Y69.103 E55.45665
G1 X116.491 Y68.798 E55.4922
G1 X116.515 Y68.687 E55.49749
G1 X117.274 Y68.687 E55.53283
G1 X117.793 Y68.777 E55.55736
G1 X118.393 Y68.989 E55.58699
G1 X118.608 Y69.105 E55.59836
G1 X119.007 Y69.383 E55.62101
G1 X119.184 Y69.543 E55.63212
G1 X119.595 Y70.041 E55.66218
G1 X119.798 Y70.396 E55.68123
G1 X120.011 Y70.989 E55.71057
G1 X120.062 Y71.243 E55.72263
G1 X120.098 Y71.704 E55.74416
G1 X120.085 Y71.985 E55.75726
G1 X120.003 Y72.457 E55.77957
G1 X119.935 Y72.688 E55.79078
G1 X119.665 Y73.261 E55.82028
G1 X119.356 Y73.702 E55.84535
G1 X118.849 Y74.208 E55.8787
M204 S3000
M205 X10 Y10
G1 F2400 E49.8787
;MESH:VerticalCorner.stl
G0 F3000 X117.304 Y68.371
G0 X117.397 Y67.297
G0 X57.104 Y57.104
M204 S1800
M205 X8 Y8
;TYPE:WALL-INNER
G1 F2400 E55.8787
G1 F1500 X57.109 Y151.522 E60.2752
G1 X151.522 Y57.109 E66.49246
G1 X57.104 Y57.104 E70.88896
M204 S3000
M205 X10 Y10
G0 F3000 X56.544 Y56.544
M204 S1800
M205 X8 Y8
G1 F1500 X56.549 Y152.874 E75.37448
G1 X152.874 Y56.549 E81.71765
G1 X56.544 Y56.544 E86.20318
M204 S3000
M205 X10 Y10
G0 F3000 X56.618 Y56.545
G0 X67.002 Y118.27
G0 X67.321 Y119.155
G0 X68.271 Y120.503
G0 X69.215 Y121.242
G0 X70.364 Y121.728
G0 X73.05 Y122.315
M204 S1800
M205 X8 Y8
G1 F1500 X72.229 Y122.456 E86.24197
G1 X71.206 Y122.455 E86.2896
G1 X70.387 Y122.315 E86.32829
G1 X69.456 Y121.987 E86.37425
G1 X68.925 Y121.71 E86.40214
G1 X68.296 Y121.268 E86.43794
G1 X67.797 Y120.8 E86.46979
G1 X67.228 Y120.106 E86.51158
G1 X66.817 Y119.384 E86.55027
G1 X66.47 Y118.4 E86.59885
G1 X66.312 Y117.398 E86.64609
G1 X66.304 Y71.299 E88.79265
G1 X66.466 Y70.382 E88.83601
G1 X66.8 Y69.435 E88.88277
G1 X67.126 Y68.851 E88.91391
G1 X67.513 Y68.3 E88.94526
G1 X67.882 Y67.889 E88.97098
G1 X68.673 Y67.231 E89.01889
G1 X69.399 Y66.817 E89.05781
G1 X70.384 Y66.47 E89.10644
G1 X71.386 Y66.312 E89.15367
G1 X117.485 Y66.304 E91.30024
G1 X118.401 Y66.466 E91.34355
G1 X119.354 Y66.802 E91.3906
G1 X119.933 Y67.126 E91.4215
G1 X120.492 Y67.518 E91.45329
G1 X120.915 Y67.903 E91.47992
G1 X121.549 Y68.677 E91.52651
G1 X121.975 Y69.408 E91.56591
G1 X122.305 Y70.352 E91.61247
G1 X122.421 Y70.901 E91.6386
G1 X122.485 Y71.688 E91.67537
G1 X122.441 Y72.319 E91.70482
G1 X122.341 Y72.907 E91.73259
G1 X122.164 Y73.54 E91.7632
G1 X121.735 Y74.455 E91.81026
G1 X121.189 Y75.231 E91.85444
G1 X75.387 Y121.027 E94.87038
G1 X74.916 Y121.424 E94.89906
G1 X74.033 Y121.958 E94.94711
G1 X73.05 Y122.315 E94.99581
M204 S3000
M205 X10 Y10
G0 F3000 X72.906 Y121.771
M204 S1800
M205 X8 Y8
G1 F1500 X72.182 Y121.896 E95.03002
G1 X71.253 Y121.897 E95.07328
G1 X70.53 Y121.773 E95.10744
G1 X69.677 Y121.473 E95.14954
G1 X69.173 Y121.2 E95.17623
G1 X68.613 Y120.8 E95.20828
G1 X68.23 Y120.445 E95.23259
G1 X67.693 Y119.79 E95.27203
G1 X67.329 Y119.152 E95.30624
G1 X67.013 Y118.263 E95.35017
G1 X66.872 Y117.351 E95.39314
G1 X66.864 Y71.345 E97.53537
G1 X67.008 Y70.528 E97.574
G1 X67.312 Y69.668 E97.61648
G1 X67.584 Y69.173 E97.64278
G1 X67.984 Y68.613 E97.67482
G1 X68.278 Y68.285 E97.69533
G1 X68.993 Y67.693 E97.73856
G1 X69.633 Y67.329 E97.77284
G1 X70.521 Y67.013 E97.81673
G1 X71.433 Y66.872 E97.8597
G1 X117.438 Y66.864 E100.00188
G1 X118.256 Y67.008 E100.04056
G1 X119.121 Y67.314 E100.08328
G1 X119.611 Y67.584 E100.10934
G1 X120.171 Y67.984 E100.14138
G1 X120.511 Y68.29 E100.16268
G1 X121.088 Y68.995 E100.2051
G1 X121.451 Y69.617 E100.23863
G1 X121.766 Y70.502 E100.28238
G1 X121.87 Y71.036 E100.30771
G1 X121.918 Y71.628 E100.33537
G1 X121.889 Y72.225 E100.3632
G1 X121.789 Y72.813 E100.39097
G1 X121.639 Y73.341 E100.41653
G1 X121.249 Y74.174 E100.45936
G1 X120.757 Y74.871 E100.49908
G1 X74.991 Y120.631 E103.51266
G1 X74.59 Y120.968 E103.53705
G1 X73.793 Y121.449 E103.58039
G1 X72.906 Y121.771 E103.62433
M204 S3000
M205 X10 Y10
G0 F3000 X72.784 Y121.22
M204 S1800
M205 X8 Y8
;TYPE:WALL-OUTER
G1 F1500 X72.11 Y121.336 E103.65618
G1 X71.3 Y121.339 E103.6939
G1 X70.672 Y121.231 E103.72357
G1 X69.897 Y120.958 E103.76183
G1 X69.495 Y120.742 E103.78308
G1 X68.985 Y120.382 E103.81215
G1 X68.693 Y120.122 E103.83035
G1 X68.144 Y119.451 E103.87072
G1 X67.852 Y118.939 E103.89817
G1 X67.556 Y118.125 E103.9385
G1 X67.435 Y117.326 E103.97613
G1 X67.428 Y71.375 E106.1158
G1 X67.559 Y70.65 E106.1501
G1 X67.819 Y69.914 E106.18645
G1 X68.042 Y69.495 E106.20855
G1 X68.402 Y68.985 E106.23762
G1 X68.674 Y68.681 E106.25661
G1 X69.333 Y68.144 E106.2962
